{"type":"map","version":"1.10","tiledversion":"1.10.2","orientation":"orthogonal","renderorder":"right-down","compressionlevel":-1,"infinite":false,"width":75,"height":50,"tilewidth":16,"tileheight":16,"nextlayerid":9,"nextobjectid":498,"tilesets":[{"firstgid":1,"name":"rpg-tileset","image":"../../tilesets/rpg-tileset.png","imagewidth":1600,"imageheight":1600,"tilewidth":16,"tileheight":16,"columns":100,"tilecount":10000,"margin":0,"spacing":0},{"firstgid":10001,"name":"township-modern","image":"../../tilesets/township-modern.png","imagewidth":160,"imageheight":480,"tilewidth":16,"tileheight":16,"columns":10,"tilecount":300,"margin":0,"spacing":0}],"layers":[{"id":1,"name":"ground","type":"tilelayer","visible":true,"opacity":1,"x":0,"y":0,"width":75,"height":50,"data":[205,304,302,304,205,204,203,302,303,203,305,205,204,302,302,304,303,303,202,304,305,205,302,304,303,302,302,302,302,303,202,303,204,304,305,204,304,205,304,305,203,303,304,303,304,10018,205,10019,202,304,205,202,304,204,303,302,305,303,202,205,305,303,302,205,203,203,305,204,204,202,305,303,302,202,303,205,203,303,302,205,203,203,203,303,305,202,203,302,304,303,304,203,202,303,204,202,204,304,302,203,205,204,204,204,203,304,203,203,304,302,303,304,203,205,203,304,305,205,203,305,302,302,303,302,304,302,204,203,204,303,303,205,202,303,205,305,303,302,304,204,305,204,305,204,302,305,203,202,304,205,205,202,305,202,305,303,202,305,303,204,202,205,205,203,202,305,303,202,204,302,202,303,202,304,202,204,304,302,203,304,304,305,304,304,204,303,202,304,302,302,304,203,203,302,202,303,205,202,302,303,203,202,303,303,302,204,305,202,305,205,202,303,302,204,302,305,202,202,204,303,304,303,204,204,203,304,305,204,305,302,303,304,203,205,202,303,303,203,204,204,303,303,305,303,304,303,305,204,302,203,205,205,305,204,205,305,304,203,203,303,304,205,203,305,302,304,302,204,203,203,302,303,302,303,205,303,305,205,202,304,302,204,304,202,203,202,305,202,304,305,302,203,203,204,203,304,304,303,202,202,203,303,304,205,205,305,203,304,203,205,203,304,202,202,303,203,205,303,202,203,205,203,304,205,203,304,205,305,204,304,203,305,205,303,204,303,302,205,304,302,305,305,303,302,304,202,203,205,302,202,305,302,203,304,203,302,204,204,204,305,204,202,205,202,303,202,204,303,204,304,202,304,305,204,303,304,205,305,202,303,302,204,204,203,303,205,303,203,205,203,304,205,205,204,302,303,305,305,304,204,304,204,305,305,205,302,204,303,205,202,205,304,202,204,305,203,304,202,203,202,204,303,204,205,305,304,304,205,205,305,304,204,304,204,204,303,305,304,302,202,202,304,305,203,202,305,205,203,205,304,204,202,302,205,202,303,204,204,202,205,204,205,302,305,305,202,202,204,303,302,203,203,305,203,202,305,302,302,203,303,302,303,204,302,204,303,305,203,302,204,202,204,203,205,304,303,202,304,202,302,202,305,304,204,204,205,303,304,305,202,303,205,203,203,304,305,203,303,302,305,203,202,305,202,302,202,302,205,303,205,303,202,203,305,302,202,304,305,302,304,203,304,203,302,305,202,204,203,303,305,202,203,305,204,302,304,305,204,304,305,205,304,305,205,303,305,204,304,303,202,204,205,304,203,204,204,302,303,305,304,203,202,303,304,303,202,204,304,204,302,205,302,302,203,304,202,205,304,304,203,302,305,303,203,304,202,303,305,203,205,303,305,205,305,203,304,203,302,204,304,305,203,305,204,304,203,203,304,205,205,202,302,303,205,204,203,203,202,303,302,205,304,204,302,305,302,203,204,10004,302,303,204,305,303,303,202,204,304,205,204,202,203,304,304,304,205,204,302,204,303,203,202,304,303,202,302,203,204,304,202,303,302,204,204,305,304,304,304,202,302,205,303,303,303,203,304,205,303,202,203,203,203,205,305,304,204,303,303,302,305,205,203,205,303,304,204,202,205,205,204,204,203,205,202,303,203,303,302,304,303,302,304,303,303,302,304,304,205,203,302,302,304,304,304,203,203,302,202,305,205,204,205,303,203,302,305,302,202,303,305,303,303,205,205,304,304,304,303,302,305,305,305,203,205,202,305,202,302,304,305,302,203,304,302,202,302,302,204,305,303,204,205,304,303,204,203,203,205,204,205,205,305,205,202,304,302,203,204,302,305,304,304,202,304,304,303,205,304,203,302,305,302,202,303,305,203,304,202,202,303,302,204,303,302,204,303,203,303,203,305,302,203,202,305,202,205,305,305,203,205,303,302,204,302,304,202,202,204,203,304,303,202,203,202,202,305,303,202,304,204,205,305,205,305,205,202,303,304,304,303,305,303,305,204,303,303,203,202,302,203,303,204,204,205,205,205,205,304,304,204,305,203,304,305,204,202,302,202,203,302,303,304,303,202,303,203,304,204,203,204,304,204,204,302,203,303,203,205,305,203,302,204,204,204,202,305,203,304,202,304,203,204,205,202,302,202,303,305,205,303,305,204,205,205,303,205,203,303,205,305,205,304,305,204,303,303,203,303,303,304,303,203,205,303,202,204,302,203,302,203,303,203,302,302,305,205,203,204,302,305,303,204,204,203,204,202,302,204,204,302,304,304,203,204,302,205,305,305,303,205,302,303,202,305,303,204,302,305,302,203,305,302,302,203,304,203,305,303,303,305,203,304,203,305,303,204,203,305,203,205,303,304,202,202,303,204,205,204,305,305,303,302,303,203,302,302,303,302,303,205,204,205,204,302,205,202,302,204,303,204,203,303,303,304,203,203,205,204,204,204,202,204,304,304,304,204,304,203,203,204,303,204,305,304,304,203,202,303,204,202,203,205,205,303,203,205,305,205,302,203,302,303,205,303,305,304,204,202,304,302,303,305,305,203,304,304,305,302,304,305,303,305,202,205,304,203,305,202,202,304,204,303,202,204,203,303,303,205,303,303,303,204,204,204,205,205,202,304,304,203,304,203,202,305,205,305,204,302,304,305,204,202,305,303,302,203,203,202,204,202,205,205,303,302,205,303,203,202,205,204,203,304,205,202,202,205,302,305,202,304,202,203,302,203,205,205,202,204,205,304,202,204,303,304,202,202,304,205,202,303,202,305,305,203,205,202,305,202,205,202,202,203,302,202,205,304,305,202,204,303,304,204,202,202,302,305,203,204,303,204,202,202,304,203,202,303,205,304,204,205,203,204,305,202,305,205,203,305,203,304,204,304,203,202,204,205,303,205,205,302,305,304,302,303,304,203,204,204,305,205,205,302,202,203,304,302,202,202,204,205,302,303,204,302,204,304,303,302,303,303,203,304,202,305,305,304,204,302,205,205,203,305,302,10003,204,203,303,303,305,203,305,304,205,204,302,204,205,305,202,303,305,303,203,303,302,203,303,302,304,305,305,204,304,202,203,202,205,203,202,304,302,204,204,305,303,203,204,203,202,304,205,203,303,302,204,205,205,204,205,203,203,202,302,302,203,305,204,203,302,205,204,303,305,302,303,302,304,304,202,302,203,204,203,203,204,203,305,204,304,304,305,205,205,202,202,204,305,303,302,202,303,205,305,305,304,202,204,304,304,302,202,205,304,303,202,203,205,204,205,204,303,303,304,202,203,303,305,303,305,203,302,302,305,205,205,203,303,302,202,303,203,204,202,205,303,205,203,203,202,303,302,203,202,305,202,202,202,302,305,203,205,305,305,302,203,303,303,304,305,303,205,303,202,205,302,304,202,304,205,304,305,203,305,304,303,202,202,304,204,204,203,304,202,203,305,302,303,205,304,204,305,303,304,203,202,305,305,302,203,204,203,205,302,204,304,205,302,202,203,302,303,205,205,203,204,203,203,304,302,205,203,305,202,202,204,205,303,303,303,302,205,203,205,305,205,202,205,204,203,205,302,303,202,302,204,205,203,205,303,305,305,204,205,303,204,203,203,303,304,304,302,202,302,205,203,304,304,304,304,204,205,303,302,204,204,302,302,204,205,302,302,203,302,202,303,303,204,202,304,304,302,302,305,303,305,204,302,305,304,202,304,202,205,205,203,302,304,303,303,202,203,205,205,305,305,202,204,302,304,205,303,304,203,204,304,202,304,304,302,202,302,205,204,302,305,305,205,203,204,304,202,203,304,205,303,204,203,203,303,304,205,204,302,202,305,303,303,203,303,303,305,203,203,204,10001,302,302,205,10003,304,204,203,203,302,304,305,202,205,305,203,205,303,304,204,304,204,205,205,304,204,204,305,302,305,204,10017,302,302,304,202,205,202,302,304,305,303,202,203,304,202,305,303,303,205,302,304,302,305,302,304,204,303,204,304,302,204,305,202,205,202,302,203,203,205,305,305,303,303,303,202,302,203,205,202,204,304,303,305,304,203,203,302,302,302,304,302,205,305,305,202,303,205,203,204,205,305,303,303,305,10019,303,304,305,304,202,305,205,303,205,202,203,204,302,304,202,305,304,205,205,304,203,302,205,302,303,302,302,205,204,305,304,303,302,305,302,305,304,302,205,302,305,303,303,203,204,302,303,303,202,205,304,204,203,204,203,302,202,202,203,302,304,304,203,305,205,303,204,203,304,302,203,305,302,204,304,10019,203,205,305,203,204,203,205,303,302,304,205,304,303,204,305,304,205,303,203,305,202,304,204,304,304,205,303,305,204,305,203,204,303,204,304,203,305,205,203,203,305,303,302,204,304,204,302,202,204,304,302,204,302,205,302,203,203,302,303,204,204,205,302,305,202,202,203,304,304,204,304,303,204,10018,305,302,203,305,202,305,303,204,304,305,305,304,304,304,204,202,10003,302,304,303,10002,203,302,205,302,204,302,303,205,205,304,203,304,202,205,302,205,302,305,302,203,304,204,304,10001,304,202,302,10001,202,303,204,305,205,302,205,204,202,203,205,204,302,305,205,203,303,305,302,202,202,205,303,204,304,303,205,305,205,304,204,304,204,303,202,305,305,305,304,204,304,305,303,203,303,204,302,303,204,305,204,303,303,202,204,305,203,303,303,204,204,302,204,305,302,305,202,205,305,304,303,302,302,205,304,204,302,204,304,303,302,205,304,203,202,202,202,205,302,305,202,304,303,205,305,304,204,202,303,204,205,303,305,205,203,202,302,305,302,304,203,304,302,203,205,303,305,203,305,205,205,203,204,303,202,302,204,204,202,203,203,204,204,203,303,202,304,204,305,204,302,203,303,205,205,203,202,202,305,305,305,205,204,204,203,303,202,204,304,305,303,305,304,303,204,203,303,304,305,205,202,204,202,303,202,203,305,305,203,304,305,304,303,202,303,302,202,202,203,202,302,203,204,304,205,203,302,305,305,204,203,304,202,202,204,305,205,203,204,205,302,202,303,205,202,204,202,202,304,305,202,304,204,202,205,304,205,302,302,303,303,302,303,304,305,304,205,205,304,205,304,305,204,304,205,204,205,304,302,302,304,204,203,303,204,204,304,305,302,305,305,204,305,203,205,202,304,204,204,203,304,304,302,302,303,304,305,304,305,305,303,202,205,204,302,202,204,304,303,305,305,205,303,305,203,303,302,304,303,203,303,205,302,303,204,302,302,204,302,202,302,204,202,202,304,203,302,202,303,202,203,303,302,205,305,302,204,305,205,205,304,202,304,205,304,303,305,204,205,302,303,303,203,203,204,305,303,305,305,305,304,303,305,305,204,303,205,205,205,302,305,204,205,302,203,304,304,304,303,203,203,203,205,205,303,303,304,204,205,205,202,304,202,202,205,302,202,204,302,204,305,204,203,302,204,302,305,303,203,203,305,305,202,304,205,302,302,205,305,202,305,305,204,202,305,304,203,302,205,302,203,10003,303,302,303,203,202,305,202,305,304,303,204,305,302,203,304,303,203,202,302,303,204,202,205,305,205,304,305,203,204,302,203,202,204,202,305,205,203,302,202,304,205,302,304,303,202,205,304,303,203,205,203,302,202,303,304,304,302,305,302,204,303,304,302,204,204,302,203,303,204,303,302,203,304,205,302,10017,304,302,303,202,303,202,302,205,303,203,205,302,205,305,305,202,202,205,205,204,204,304,205,302,303,304,205,303,202,204,203,305,304,304,202,304,205,302,205,302,303,302,303,303,205,303,202,302,202,205,302,305,303,203,304,303,203,204,204,303,205,204,305,305,304,303,202,202,205,302,203,302,202,304,303,305,304,204,202,303,202,304,205,305,302,202,304,202,302,204,203,302,205,205,202,305,202,303,302,303,205,205,302,304,305,204,302,302,205,302,204,203,304,305,204,203,304,304,205,203,202,204,302,205,305,205,304,203,205,304,303,303,203,202,304,204,304,203,305,303,305,204,303,302,203,202,202,302,305,302,204,302,202,305,304,305,303,305,305,302,304,203,202,302,204,203,202,302,303,204,204,204,202,205,303,205,305,304,204,205,203,304,304,304,305,303,304,304,202,305,304,304,205,205,204,305,304,305,304,302,204,205,203,204,302,304,204,303,205,302,205,203,305,203,302,305,304,202,303,302,305,204,204,303,204,204,202,202,202,305,203,302,303,302,303,303,205,204,205,203,204,205,303,205,304,204,303,302,302,305,205,305,205,304,202,303,305,303,205,202,203,304,203,304,302,204,204,304,303,304,304,202,305,202,302,302,204,303,302,204,203,204,302,202,203,205,305,205,302,303,202,305,204,304,205,304,203,304,305,10018,203,302,204,205,202,303,303,204,202,205,202,204,302,205,203,304,303,302,304,303,205,303,303,205,204,204,202,303,205,202,305,304,305,303,205,302,302,203,202,303,205,303,203,205,302,202,302,204,205,303,202,203,205,303,302,205,202,302,302,203,202,204,305,202,204,202,205,204,303,205,302,302,302,10001,203,303,204,305,205,305,204,302,205,202,204,304,205,305,302,302,305,304,305,203,204,302,305,303,202,203,202,205,204,305,302,202,303,203,303,202,204,305,202,303,305,302,203,304,203,203,302,204,303,302,204,202,204,203,205,204,204,303,205,302,205,304,202,205,303,305,304,202,305,202,202,304,204,302,303,304,302,305,305,304,205,302,302,305,203,205,305,304,203,305,203,203,202,303,303,204,202,202,205,305,304,203,305,305,304,304,302,203,305,303,303,205,305,205,304,205,202,204,203,303,302,304,304,204,202,303,304,303,302,303,204,203,205,303,203,303,205,202,304,305,204,203,204,203,305,205,303,302,203,205,202,302,204,303,304,202,305,303,205,302,302,302,203,203,204,305,205,203,203,202,303,304,204,304,302,204,302,302,203,303,304,303,305,302,305,204,305,304,202,202,204,303,204,304,202,305,304,305,302,305,304,304,205,205,302,302,302,204,205,305,205,305,202,202,203,202,303,304,305,202,304,204,203,305,10004,204,202,303,205,204,303,304,304,203,303,203,305,302,202,203,202,204,204,202,303,204,302,302,205,303,202,305,10001,302,303,203,204,305,204,303,203,302,303,205,304,302,303,304,302,204,205,202,304,202,305,205,305,204,203,303,203,303,204,202,304,303,303,305,202,205,203,204,203,304,305,204,205,303,205,302,202,203,304,304,305,302,203,304,204,202,302,303,302,304,205,303,202,204,303,202,302,303,202,205,304,202,204,204,205,202,204,204,202,302,305,305,304,302,305,205,305,302,303,303,302,305,304,203,305,202,202,302,202,205,302,203,202,203,204,302,305,304,304,304,305,302,303,204,205,304,305,305,202,305,305,205,303,202,305,202,203,203,302,302,204,205,203,304,302,205,302,204,204,305,205,203,303,205,304,204,303,302,304,302,205,205,305,203,205,303,205,304,204,203,204,204,202,202,204,203,205,303,202,302,202,304,204,302,302,305,205,203,304,205,303,203,202,304,203,202,205,304,202,303,202,303,203,305,202,303,202,305,205,302,305,205,302,303,204,303,203,302,203,203,204,304,305,203,303,205,203,304,204,204,204,204,304,204,205,204,305,304,205,203,204,205,203,304,304,304,203,302,203,204,303,202,302,204,203,303,203,205,205,205,205,303,204,304,204,203,302,303,205,304,205,305,202,203,302,302,205,304,303,305,205,203,205,205,304,302,205,205,302,303,205,204,305,304,205,204,202,204,205,303,304,305,304,303,305,203,302,202,304,302,202,304,303,304,304,204,304,204,303,204,203,305,204,202,205,302,303,203,203,205,202,302,203,304,205,305,202,204,205,305,305,202,202,304,202,303,303,204,205,203,205,204,204,204,303,304,204,204,203,305,303,304,302,304,303,202,305,203,302,203,305,205,204,203,202,202,204,202,202,203,303,302,305,205,204,304,202,202,304,304,304,304,202,205,203,302,205,302,303,302,202,305,302,202,203,304,205,304,203,203,305,202,304,305,203,204,305,203,305,305,305,203,203,203,304,305,303,304,305,304,10002,204,302,302,303,304,202,203,204,305,204,204,205,302,302,202,203,304,302,305,203,202,202,304,205,303,303,304,10003,302,304,203,202,204,205,304,302,205,205,303,203,304,302,204,303,302,305,303,302,205,202,303,303,305,205,305,205,302,303,305,303,304,305,203,205,305,202,204,302,203,303,203,304,202,305,205,303,303,302,203,204,305,305,303,205,204,203,203,302,303,302,205,305,303,203,305,203,303,205,205,305,302,204,303,203,202,204,205,205,202,303,204,202,305,303,304,302,304,204,202,305,303,302,303,205,302,203,203,303,303,303,203,204,304,302,204,202,204,302,204,205,304,302,304,205,202,202,10017,205,10020,204,205,204,303,303,205,202,304,304,205,305,304,205,305,302,305,205,203,204,202,202,203,205,204,204,10019,204,10020,303,302,204,302,302,305,302,305,303,302,204,303,203,303,302,305,204,205,203,204,204,303,204,205,303,202,203]},{"id":2,"name":"ground-detail","type":"tilelayer","visible":true,"opacity":1,"x":0,"y":0,"width":75,"height":50,"data":[10182,10181,10184,10181,10181,10184,10181,10181,10182,10184,10183,10182,10182,10184,10182,10182,10183,10182,10181,10181,10181,10181,10183,10182,10182,10182,10183,10184,10183,10182,10184,10184,10183,10184,10181,10181,10183,10181,10184,10181,10184,10181,10181,10189,10021,10005,10006,10007,10021,10188,10183,10184,10183,10182,10183,10184,10182,10184,10182,10184,10181,10182,10181,10182,10184,10182,10183,10183,10183,10183,10183,10182,10184,10183,10181,10184,10183,10183,10181,10184,10182,10183,10183,10183,10181,10181,10181,10181,10183,10184,10184,10183,10183,10181,10182,10184,10184,10181,10183,10181,10184,10182,10183,10183,10181,10184,10183,10183,10183,10182,10184,10184,10181,10183,10183,10182,10183,10183,10189,10024,10008,10036,10009,10024,10190,10181,10181,10184,10182,10181,10181,10183,10183,10181,10184,10182,10184,10182,10183,10182,10182,10181,10184,10184,10181,10182,10184,10184,10183,10184,10184,10181,10184,10191,10191,10191,10181,10184,10184,10191,10191,10191,10191,10191,10191,10191,10191,10191,10191,10191,10191,10191,10191,10191,10191,10191,10191,10184,10181,10184,10183,10184,10191,10191,10191,10184,10181,10181,10191,10191,10181,10184,10183,10192,10024,10008,10001,10009,10024,10194,10190,10191,10191,10191,10191,10191,10191,10191,10191,10191,10191,10191,10191,10191,10191,10191,10191,10191,10191,10191,10191,10191,10183,10181,10182,10184,10183,10189,1902,1904,1903,10188,10182,10189,1902,0,0,1902,0,0,0,0,0,0,0,0,0,0,0,0,0,10194,10188,10181,10183,10181,10189,10193,0,10194,10188,10181,10189,10193,10194,10188,10181,10189,10193,10024,10008,10001,10009,10024,0,0,0,0,0,0,0,0,0,0,0,0,0,0,0,0,0,0,0,0,0,0,10194,10188,10181,10184,10182,10184,10182,10187,2003,2004,10188,10181,10189,2103,1903,1903,2003,1904,1905,0,0,0,0,0,0,0,0,0,0,0,10196,10188,10182,10181,10191,10192,0,0,10196,10188,10182,10189,0,0,10190,10191,10192,0,10024,10008,10036,10009,10024,0,0,0,0,0,0,0,0,0,0,0,0,0,0,0,0,0,0,0,0,0,0,0,10188,10184,10183,10183,10181,10183,10189,2002,2003,10190,10191,10191,10186,10186,10186,10186,10187,0,10185,10186,10186,10186,10186,10187,0,10185,10186,10186,10186,10186,10191,10191,10192,10193,0,10185,10186,10186,10191,10191,10192,0,0,0,0,0,0,10024,10008,10001,10009,10024,0,0,0,0,0,0,0,0,0,10021,10022,10022,10022,10022,10022,10022,10023,0,0,0,0,0,0,10188,10182,10183,10184,10183,10181,10192,2202,2203,2205,0,2202,0,0,0,0,0,1902,0,0,0,0,0,0,0,0,0,0,0,0,0,0,0,0,0,0,0,0,0,0,0,0,0,0,0,0,0,10024,10008,10002,10009,10024,0,0,0,0,0,0,0,0,0,10024,10019,10017,10019,10017,10017,10018,10025,0,0,0,0,0,0,10188,10182,10184,10181,10183,10189,10193,0,0,0,0,0,0,0,0,0,0,0,0,0,0,0,0,0,0,0,0,0,0,0,0,0,0,0,10180,0,0,0,0,0,0,0,0,0,10180,0,0,10024,10008,10036,10009,10024,10022,10022,10022,10022,10022,10022,10022,10022,10022,10020,10019,10018,10017,10019,10019,10020,10025,0,0,0,0,0,0,10188,10184,10182,10181,10181,10189,0,0,0,0,0,0,0,0,0,0,0,0,0,0,0,0,0,0,0,0,0,0,0,0,0,0,0,0,10179,0,0,0,0,0,0,0,0,0,10180,0,0,10024,10008,10003,10009,10026,10027,10027,10027,10027,10027,10027,10027,10027,10027,10018,10017,10020,10020,10017,10018,10018,10025,0,0,0,0,0,0,10188,10181,10182,10183,10181,10189,0,0,0,0,0,0,0,0,0,0,0,0,0,0,0,0,0,0,0,0,0,0,0,0,0,0,0,0,10180,0,0,0,0,0,0,0,0,0,10180,0,0,10024,10008,10001,10009,10185,10186,10186,10186,10186,10186,10186,10187,0,0,10026,10027,10027,10027,10027,10027,10019,10025,0,0,0,0,0,0,10190,10184,10181,10184,10184,10189,0,0,0,0,0,0,0,0,0,0,0,0,0,0,0,0,0,0,0,0,0,0,0,0,0,0,0,0,10179,0,0,0,0,0,0,0,0,0,10180,0,0,10024,10008,10036,10009,0,0,0,0,0,0,0,0,0,0,0,0,0,0,0,0,10026,10027,10022,785,784,783,784,782,10023,10188,10181,10182,10181,10189,0,0,0,0,0,0,0,0,0,0,0,0,0,0,0,0,0,0,0,0,0,0,0,0,0,0,0,0,10179,0,0,0,0,0,0,0,0,0,10179,0,0,10024,10008,10003,10009,0,0,0,0,0,0,0,0,0,0,0,0,0,0,0,0,0,0,0,0,10264,10264,0,10185,10186,10181,10184,10181,10183,10189,0,0,0,0,0,0,0,0,0,0,0,0,0,0,0,0,0,0,10179,10179,0,0,0,0,0,10021,10023,0,10180,0,0,0,0,0,0,10021,10023,0,10180,0,0,10024,10008,10004,10009,0,0,0,0,0,0,0,0,0,0,0,0,0,0,0,0,0,0,0,0,0,0,0,10188,10184,10183,10182,10182,10182,10189,0,0,0,0,0,0,0,0,0,0,0,0,0,0,0,0,0,0,10180,10180,0,0,0,0,0,10024,10025,0,10180,0,0,0,0,0,0,10024,10025,0,10180,0,0,10024,10008,10036,10009,0,0,0,0,0,0,0,0,0,0,10185,10186,10186,10186,10186,10186,10186,10186,10187,0,0,0,0,10190,10191,10181,10183,10184,10181,10189,10195,0,0,0,0,0,784,783,782,785,10022,10022,10022,782,882,885,785,10022,10022,10022,883,884,784,783,10022,10027,10027,10022,10022,10022,785,785,785,885,10022,10027,10027,10022,10023,0,0,10024,10008,10003,10009,0,0,0,0,0,0,0,0,0,0,0,0,0,0,0,0,0,0,0,0,0,0,0,0,10194,10188,10181,10183,10183,10183,10186,10186,10186,10187,0,0,0,10264,10264,10024,10025,10185,10186,10187,10264,10264,10185,10186,10186,10186,10187,10264,10264,10185,10187,0,0,0,0,0,0,10264,10264,0,0,0,0,0,0,0,0,10024,10008,10002,10009,0,0,0,0,0,0,0,0,0,0,0,0,0,0,0,0,0,0,0,0,0,0,0,0,0,10188,10184,10182,10184,10189,10193,0,0,0,0,0,0,0,0,10024,10025,0,0,0,0,0,0,0,0,0,0,0,0,0,0,0,0,0,0,0,0,0,0,0,0,0,0,0,0,0,0,10024,10008,10036,10009,0,0,0,0,0,0,0,0,0,0,0,0,0,0,0,0,0,0,0,0,0,0,0,0,0,10188,10181,10182,10182,10189,0,0,0,0,0,0,0,0,0,10024,10025,0,0,0,0,0,0,0,0,0,0,0,0,0,0,0,0,0,0,0,0,0,0,0,0,0,0,0,0,0,0,10024,10008,10001,10009,10021,0,0,10021,10023,0,0,10179,0,0,0,0,0,0,0,0,0,0,0,0,0,0,0,0,0,10188,10181,10184,10181,10189,0,0,0,0,0,0,0,0,0,10024,10025,0,0,0,0,0,0,0,0,0,0,0,0,0,0,0,0,10179,10180,0,0,0,0,0,0,0,0,0,0,0,0,10024,10008,10002,10009,10024,0,0,10024,10025,0,10180,10180,0,0,0,0,0,0,0,0,0,0,0,0,0,0,0,0,0,10188,10184,10183,10181,10189,0,0,0,0,0,0,0,0,0,10024,10025,0,0,0,0,0,0,0,0,0,0,0,0,0,0,5809,5807,5807,10179,0,0,0,0,0,0,0,0,0,0,0,0,10024,10008,10036,10009,10024,0,0,10024,10025,0,10179,10179,0,0,0,0,0,0,0,0,0,0,0,0,0,0,0,0,0,10188,10181,10183,10181,10192,0,0,0,0,0,0,0,0,0,10024,10025,0,0,0,0,0,0,0,0,0,0,0,0,0,0,5908,5709,5709,0,0,0,0,0,0,0,0,0,0,0,0,0,10024,10008,10002,10009,10024,0,0,10024,10025,0,0,0,0,0,0,0,0,0,0,0,0,0,0,0,0,0,0,0,0,10188,10182,10191,10192,10193,0,0,0,0,0,0,0,0,0,10024,10025,0,0,0,0,0,0,0,0,0,0,0,0,0,0,5908,5907,5810,0,0,0,0,0,0,0,0,0,0,0,0,0,10024,10008,10002,10009,10024,0,0,10024,10025,0,0,0,0,0,0,0,0,0,0,0,0,0,0,0,0,0,0,0,0,10190,10191,10021,10022,10022,10022,10022,10022,10022,10022,10022,10022,10022,10022,10027,10027,10022,10022,10022,10022,10022,10022,10022,10022,10022,10022,10022,10022,10022,10022,10022,10022,10022,10022,10022,10022,10022,10022,10022,10022,10022,10022,10022,10022,10022,10022,10028,10034,10034,10034,10026,10022,10022,10027,10027,10022,10022,10022,10022,10022,10022,10022,10022,10022,10022,10022,10022,10022,10022,10022,10022,10022,10022,10022,10022,10022,10023,10005,10006,10006,10006,10006,10006,10006,10006,10006,10006,10006,10006,10006,10006,10006,10006,10033,10006,10006,10006,10033,10006,10006,10006,10006,10006,10006,10006,10006,10006,10006,10006,10006,10006,10006,10006,10006,10006,10006,10006,10006,10006,10006,10006,10033,10001,10002,10004,10033,10006,10006,10006,10006,10006,10006,10006,10006,10006,10006,10006,10006,10006,10006,10006,10006,10006,10006,10006,10006,10006,10006,10006,10006,10006,10007,10008,10035,10001,10004,10035,10004,10002,10035,10004,10003,10035,10002,10004,10035,10003,10003,10033,10004,10001,10004,10033,10003,10035,10002,10003,10035,10003,10003,10035,10002,10002,10035,10004,10002,10035,10004,10002,10035,10003,10003,10035,10004,10002,10035,10033,10003,10004,10002,10033,10035,10002,10004,10035,10004,10001,10035,10002,10004,10035,10001,10003,10035,10001,10004,10035,10003,10003,10035,10002,10004,10035,10003,10003,10035,10009,10010,10011,10011,10011,10011,10011,10011,10011,10011,10011,10011,10011,10042,10011,10011,10011,10033,10001,10003,10004,10033,10011,10011,10011,10011,10011,10011,10011,10011,10011,10011,10011,10011,10011,10011,10011,10011,10011,10011,10011,10011,10011,10011,10011,10033,10003,10003,10002,10033,10011,10011,10011,10011,10011,10011,10011,10011,10042,10041,10011,10041,10011,10041,10011,10041,10011,10041,10011,10011,10011,10011,10011,10011,10011,10012,10021,10022,10022,10022,10022,10022,10022,10022,10022,10022,10022,10022,10022,10022,10022,10022,10023,10034,10034,10034,10021,10022,10022,10022,10022,10022,10022,10022,10022,10022,10022,10022,10022,10022,10022,10022,10022,10022,10022,10022,10022,10022,10022,10022,10023,10034,10034,10034,10021,10022,10022,10022,10022,10022,10022,10022,10022,10022,10022,10022,10022,10022,10022,10022,10022,10022,10022,10022,10022,10022,10022,10022,10022,10022,10023,10186,10186,10187,0,0,10185,10186,10187,0,0,0,0,0,0,0,0,10024,10008,10001,10009,10024,10017,10019,10019,10020,10019,10018,10017,10019,10025,0,0,0,0,0,0,0,0,0,0,0,0,0,0,10024,10008,10002,10009,10024,0,10185,10186,10186,10186,10186,10186,10186,10186,10186,10186,10186,10186,10186,10186,10187,0,10185,10186,10186,10186,10186,10187,10196,10185,10186,10183,10182,10189,10195,10196,10188,10182,10189,0,0,0,0,0,0,0,0,10024,10008,10036,10009,10024,10020,10018,10018,10019,10019,10017,10019,10019,10025,0,0,0,0,10185,10186,10186,10186,10186,10186,10186,10186,10187,0,10024,10008,10036,10009,10024,0,0,0,0,0,0,0,0,0,0,0,0,0,0,0,0,0,0,0,0,0,0,0,10185,10182,10184,10182,10182,10181,10186,10186,10191,10182,10189,10195,0,0,0,0,0,0,0,10024,10008,10001,10009,10024,10019,10018,10017,10017,10019,10018,10019,10019,10025,0,0,0,0,0,0,0,0,0,0,0,0,0,0,10024,10008,10001,10009,10024,0,0,0,0,0,0,0,0,0,0,0,0,0,0,0,0,0,0,0,0,0,0,0,10188,10181,10184,10184,10183,10183,10181,10189,0,10190,10191,10186,10186,10186,10186,10186,10186,10187,0,10024,10008,10002,10009,10024,10018,10017,10017,10020,10018,10017,10017,10018,10025,0,0,0,0,0,0,0,0,0,0,0,0,0,0,10024,10008,10001,10009,10024,0,0,0,0,0,0,0,0,0,0,0,0,0,0,0,0,0,0,0,0,0,0,0,10188,10181,10183,10182,10181,10181,10191,10192,0,0,0,0,0,0,0,0,0,0,0,10024,10008,10036,10009,10024,10017,10020,10017,10020,10018,10017,10020,10018,10025,0,0,0,0,0,0,0,0,0,0,0,0,0,0,10024,10008,10036,10009,10024,0,0,0,0,0,0,0,0,0,0,0,0,0,0,0,0,0,0,0,0,0,0,0,10188,10184,10183,10181,10184,10189,10193,0,0,0,0,0,0,0,0,0,0,0,0,10024,10008,10004,10009,10026,10027,10017,10018,10020,10017,10019,10017,10020,10025,0,0,0,0,0,0,0,0,0,0,0,0,0,0,10024,10008,10001,10009,10024,0,0,0,0,0,0,0,0,0,0,0,0,0,0,0,0,0,0,0,0,0,0,0,10188,10182,10181,10182,10183,10189,0,0,0,0,0,0,0,0,0,0,0,0,0,10024,10008,10001,10001,10006,10007,10024,10019,10019,10020,10019,10020,10017,10025,0,0,0,0,0,0,0,0,0,0,0,0,0,0,10024,10008,10001,10009,10024,0,0,0,0,0,0,0,0,0,0,0,0,0,0,0,0,0,0,0,0,0,0,0,10188,10182,10184,10182,10181,10189,10195,0,0,0,0,0,0,0,0,0,0,0,0,10024,10008,10036,10002,10002,10009,10024,10027,10027,10027,10027,10027,10027,10028,0,0,0,0,0,0,0,0,0,0,0,0,0,0,10024,10008,10036,10009,10024,10022,10022,10022,10022,10022,10022,10022,10022,10022,10022,10022,10022,10022,10022,10022,10022,10022,10023,10185,10187,0,0,0,10188,10182,10182,10182,10183,10182,10187,0,0,0,0,0,0,0,0,0,0,0,0,10024,10008,10002,10001,10004,10009,10024,0,0,0,0,1902,0,1902,1912,1915,1902,1905,0,1902,0,10020,10018,10020,0,0,0,0,10024,10008,10002,10009,10024,0,1902,1903,1904,1904,1903,1905,0,10024,0,0,0,0,0,0,0,0,0,0,0,0,0,0,10188,10184,10184,10181,10183,10184,10189,0,0,0,0,0,0,0,0,0,0,0,0,10024,10008,10004,10002,10001,10009,10024,0,0,0,1902,2103,1904,2104,2012,2015,2104,2004,1904,2103,1903,1905,1912,1915,0,0,0,0,10024,10008,10003,10009,10024,0,2002,2104,2003,2104,2005,0,0,10024,10179,0,0,0,0,0,0,0,0,0,0,0,0,0,10188,10182,10182,10181,10183,10183,10192,0,0,0,0,0,0,0,0,0,0,0,0,10024,10008,10036,10001,10011,10012,10024,0,0,0,1912,1914,1913,1913,2214,2213,1913,1913,1914,1914,1915,2018,2212,2215,0,0,0,0,10024,10008,10036,10009,10024,0,2202,2103,2004,2104,2104,1905,0,10024,10179,0,0,0,0,0,0,0,0,0,0,0,0,0,10188,10183,10183,10184,10183,10189,182,183,184,185,183,184,185,183,184,185,183,184,185,186,10008,10001,10009,10021,10022,10028,0,0,0,2012,2102,2004,10201,2104,2003,2103,2103,2103,2104,2112,1914,1913,1913,1914,1913,1913,1915,10024,10008,10004,10009,10024,0,0,2102,2004,2004,2105,0,0,10024,10179,0,0,0,0,0,0,0,0,0,0,0,0,0,10188,10182,10182,10182,10181,10189,282,283,284,285,283,284,285,283,284,285,283,284,285,286,10008,10001,10009,10024,0,0,0,0,0,2012,2004,2103,2004,2103,2103,2004,2103,10201,2004,2112,2213,2214,2213,2214,2214,2214,2215,10024,10008,10003,10009,10024,0,0,2002,2104,2003,2203,1905,0,10024,10180,0,0,0,0,0,0,0,0,0,0,0,0,0,10188,10182,10183,10181,10184,10192,382,383,384,385,383,384,385,383,384,385,383,384,385,386,10008,10036,10009,10024,0,0,0,0,0,2212,1914,1913,1914,1914,1913,1913,1914,1913,1913,2215,1918,0,0,0,0,0,0,10024,10008,10036,10009,10024,0,1902,2204,2203,2205,0,2202,0,10024,0,0,0,0,0,0,0,0,0,0,0,0,0,0,10190,10182,10182,10191,10192,10193,682,683,684,685,683,684,685,683,684,685,683,684,685,686,10008,10003,10009,10026,0,0,0,0,0,0,0,2202,0,2202,2205,0,0,0,0,0,1902,0,0,0,0,0,0,10026,10008,10001,10009,10026,10022,10022,10022,10022,10022,10022,10022,10022,10027,10022,10022,10022,10022,10022,10022,10022,10022,10022,10022,10022,10022,10022,10022,10023,10190,10191,2502,2504,2503,2504,2504,2504,2504,2503,2504,2504,2503,2504,2503,2503,2503,2503,2504,10008,10001,10009,2503,2503,2504,2503,2504,2503,2504,2503,2504,2504,2503,2503,2504,2503,2503,2504,2504,2504,2503,2504,2503,2503,2503,2504,2503,10008,10002,10009,2503,2503,2503,2503,2504,2503,2504,2503,2503,2504,2504,2503,2504,2503,2504,2503,2504,2503,2504,2503,2503,2504,2504,2503,2504,2504,2505,10056,10056,10056,10056,10056,10056,10056,10056,10056,10056,10056,10056,10056,10056,10056,10056,10056,10057,10057,10057,10056,10056,10056,10056,10056,10056,10056,10056,10056,10056,10056,10056,10056,10056,10056,10056,10056,10056,10056,10056,10056,10056,10056,10056,10056,10057,10057,10057,10056,10056,10056,10056,10056,10056,10056,10056,10056,10056,10056,10056,10056,10056,10056,10056,10056,10056,10056,10056,10056,10056,10056,10056,10056,10056,10056,2602,2704,2704,2603,2604,2603,2703,2604,2604,2704,2704,2603,2703,2603,2603,2703,2603,10008,10002,10009,2703,2703,2604,2703,2604,2604,2603,2704,2704,2704,2604,2703,2703,2603,2704,2704,2603,2703,2703,2704,2604,2604,2704,2704,2703,10008,10002,10009,2603,2703,2603,2704,2704,2704,2604,2604,2703,2703,2604,2704,2704,2603,2703,2603,2604,2603,2604,2604,2604,2603,2703,2704,2603,2703,2705,10056,10056,10056,10056,10056,10056,10056,10056,10056,10056,10056,10056,10056,10056,10056,10056,10056,10057,10057,10057,10056,10056,10056,10056,10056,10056,10056,10056,10056,10056,10056,10056,10056,10056,10056,10056,10056,10056,10056,10056,10056,10056,10056,10056,10056,10057,10057,10057,10056,10056,10056,10056,10056,10056,10056,10056,10056,10056,10056,10056,10056,10056,10056,10056,10056,10056,10056,10056,10056,10056,10056,10056,10056,10056,10056,2802,2804,2804,2804,2804,2803,2804,2803,2803,2803,2804,2803,2804,2803,2804,2804,2803,10008,10036,10009,2804,2804,2804,2804,2803,2803,2803,2804,2803,2803,2803,2803,2804,2803,2803,2803,2804,2803,2804,2804,2804,2804,2804,2804,2803,10008,10036,10009,2803,2803,2804,2804,2804,2803,2803,2803,2804,2803,2804,2803,2803,2803,2804,2804,2803,2804,2803,2803,2804,2804,2804,2803,2804,2804,2805,10186,10186,10187,10195,0,0,0,0,0,0,0,0,0,0,0,0,10021,10008,10004,10009,10021,0,0,0,0,0,0,0,0,0,0,0,0,0,0,0,0,0,0,0,0,0,0,0,10021,10008,10002,10009,10021,0,0,0,0,0,0,0,0,0,0,0,0,0,0,0,0,0,0,0,0,0,0,10196,10185,10186,10186,10184,10183,10182,10186,10186,10186,10186,10186,10186,10186,10186,10187,10195,10196,10185,10187,10024,10008,10002,10009,10024,10185,10186,10186,10186,10186,10186,10186,10186,10186,10186,10186,10187,10195,10196,10185,10186,10186,10186,10186,10186,10186,10186,10187,10024,10008,10002,10009,10024,10185,10186,10186,10186,10186,10186,10186,10186,10186,10186,10186,10186,10186,10187,10195,10196,10185,10195,10196,10185,10186,10186,10186,10184,10181,10183,10184,10183,10182,10181,10184,10183,10182,10184,10182,10182,10183,10182,10186,10186,10182,10189,10026,10010,10036,10012,10026,10188,10182,10183,10184,10181,10183,10182,10182,10183,10184,10183,10181,10186,10186,10184,10182,10183,10181,10184,10182,10181,10181,10189,10026,10010,10036,10012,10026,10188,10183,10181,10182,10184,10181,10182,10182,10183,10181,10184,10184,10182,10181,10186,10186,10184,10186,10186,10182,10183,10183,10183,10183,10184,10183]},{"id":3,"name":"deco-below","type":"tilelayer","visible":true,"opacity":1,"x":0,"y":0,"width":75,"height":50,"data":[0,0,0,0,0,0,0,0,0,0,0,0,0,0,0,0,0,0,0,0,0,0,0,0,0,0,0,0,0,0,0,0,0,0,0,0,0,0,0,0,0,0,0,0,0,0,0,0,0,0,0,0,0,0,0,0,0,0,0,0,0,0,0,0,0,0,0,0,0,0,0,0,0,0,0,0,0,0,0,0,0,0,0,0,0,0,0,0,0,0,0,0,0,0,0,0,0,0,0,0,0,0,0,0,0,0,0,0,0,0,0,0,0,0,0,0,0,0,0,0,0,0,0,0,0,0,0,0,0,0,0,0,0,0,0,0,0,0,0,10178,0,0,0,0,0,0,0,0,0,0,0,0,0,0,0,0,0,0,0,0,0,0,0,0,0,0,0,0,0,0,0,0,0,0,0,0,0,0,0,0,0,0,0,0,0,0,0,0,10177,0,0,0,0,0,0,0,0,0,10292,0,0,0,0,0,0,10178,10177,0,0,0,0,0,0,0,0,0,0,0,0,0,0,0,0,0,0,0,0,0,0,0,10172,0,0,0,0,0,0,0,0,0,0,0,0,0,0,0,0,0,0,0,0,0,0,0,0,0,0,0,0,0,0,0,0,0,0,0,0,0,0,0,0,0,0,0,0,0,0,0,0,0,0,0,0,0,0,0,0,0,0,0,0,0,0,0,0,0,0,0,0,0,10178,0,0,0,0,10171,0,0,0,0,0,0,0,0,0,0,0,0,0,0,0,0,0,0,0,0,0,0,0,0,0,0,0,0,0,0,0,0,0,0,0,0,0,0,0,0,0,0,0,0,0,0,0,0,0,0,0,0,0,0,0,0,0,0,0,0,0,0,0,0,0,0,0,10172,0,0,0,0,10173,10171,10171,0,0,0,0,0,0,0,0,0,0,0,0,0,0,0,0,0,0,0,0,0,0,0,0,0,0,0,0,0,0,0,0,0,0,0,0,0,0,0,0,0,0,0,0,0,0,0,0,0,0,0,0,2147493867,2147493868,0,0,0,2147493879,2147493880,0,0,0,0,0,5401,5402,0,0,0,0,0,0,0,0,0,0,0,0,0,0,0,0,0,10172,0,0,0,0,0,0,10172,0,0,0,0,0,0,10172,0,0,0,0,0,0,0,0,0,10172,0,0,0,0,0,0,0,0,0,0,0,0,0,0,0,0,0,0,0,2147493863,2147493864,0,10216,10215,0,0,0,0,0,0,0,5501,5502,0,10172,0,0,0,0,0,0,0,0,0,0,0,0,0,0,0,10171,0,0,0,0,0,0,5401,5402,0,0,0,0,0,1073751996,0,0,10248,0,0,0,0,0,0,1073751996,0,0,10248,5401,5402,0,0,0,0,0,0,0,0,0,0,0,0,0,0,10232,10231,0,0,0,0,0,0,0,0,0,0,0,0,0,0,0,0,10177,0,0,0,0,0,0,0,0,0,0,0,0,10171,0,0,0,0,0,0,5501,5502,0,0,0,0,0,0,0,0,10245,0,0,0,0,0,0,0,0,0,10245,5501,5502,0,0,0,0,10039,0,0,0,0,0,0,0,0,0,10220,10219,0,2147493879,2147493880,10212,10211,0,0,0,0,0,0,0,0,10172,0,0,0,2936,2937,3138,3139,2940,2941,0,0,0,0,0,0,10171,0,0,0,0,0,0,10172,0,0,0,0,0,0,0,0,0,10245,0,0,0,0,0,0,0,0,0,10245,0,0,0,0,0,0,0,0,0,0,0,0,0,0,0,0,0,0,0,10220,10219,2147493867,2147493868,10295,0,0,0,0,0,0,0,0,0,0,0,3036,3037,3238,3239,3040,3041,0,0,0,0,0,0,10171,0,0,0,0,0,0,10171,0,0,0,0,0,0,0,0,0,10245,0,0,0,0,0,0,0,0,0,10245,0,5426,0,0,0,0,0,0,0,0,0,0,0,0,10172,0,0,0,0,0,0,0,0,0,10173,10171,10171,10171,10171,10171,10171,2147493821,0,0,0,2740,4827,4927,5127,2740,2741,0,0,0,0,0,0,1073751996,0,0,0,0,0,0,1073751996,0,0,0,0,0,0,0,0,0,10245,0,0,0,0,0,0,0,0,0,10245,0,0,0,0,0,0,0,0,0,0,0,0,0,0,10171,2936,2937,3138,3139,3138,2940,2941,0,0,0,0,0,0,0,0,0,0,0,0,0,2840,5127,5128,5027,2840,2841,0,0,0,0,0,0,0,0,0,0,0,0,0,3165,3166,0,0,0,0,0,0,0,0,10245,0,0,0,0,0,0,1073752053,10173,2147493821,10245,0,5424,0,0,0,0,0,0,0,0,0,0,0,0,10171,3036,3037,3238,3239,3238,3040,3041,0,0,0,0,0,0,0,10177,0,0,0,0,0,3136,3137,3139,3138,3140,3141,0,0,0,0,0,0,0,0,0,0,0,0,0,3265,3266,0,0,0,0,0,10172,0,0,10249,0,0,0,0,0,0,1073752054,0,0,10249,0,0,0,0,0,0,0,0,0,0,0,0,0,0,10171,0,0,0,0,0,0,0,0,0,0,0,0,0,0,0,0,0,0,0,0,3236,3237,3239,3238,3240,3241,0,0,0,0,0,0,0,0,0,0,0,0,0,0,0,0,0,0,0,0,1073751996,0,0,0,0,0,0,0,0,0,0,0,0,0,0,0,0,0,0,0,0,0,0,0,0,0,0,0,10171,0,0,0,0,0,0,0,0,0,0,10172,0,0,0,0,0,0,0,0,0,0,0,0,0,0,0,0,0,0,0,0,0,0,0,0,0,0,0,0,0,0,0,0,0,0,0,0,0,0,0,0,0,0,0,0,0,0,0,0,0,0,0,0,0,0,0,0,0,0,0,0,0,0,0,10171,0,0,0,0,0,0,0,0,0,0,0,0,0,0,0,0,0,0,0,0,0,0,0,0,0,10172,0,0,0,0,10172,0,0,0,0,0,0,0,0,0,0,0,0,0,0,0,10172,0,0,0,0,0,0,0,0,0,0,0,0,0,0,10172,0,0,0,0,0,0,0,0,0,0,0,0,10171,0,0,0,0,0,0,0,0,0,0,0,0,0,0,10172,0,0,0,0,0,0,0,0,0,0,10171,0,0,0,0,10171,0,0,0,0,0,0,0,0,0,0,0,0,0,0,0,10171,0,0,0,0,0,0,0,0,0,0,0,0,0,0,10171,0,0,0,0,10037,0,0,0,0,0,0,10244,1073751996,0,0,0,0,0,0,0,0,0,0,0,0,0,0,2959,2960,0,0,0,0,0,0,0,0,0,10171,0,0,0,0,10171,0,0,0,0,0,0,0,0,0,0,0,0,0,0,0,1073751996,0,3165,3166,0,0,0,0,0,0,0,0,0,0,0,10171,0,0,0,0,3159,3160,0,0,0,0,3163,3164,0,5424,0,0,0,0,0,0,0,0,0,0,0,0,0,3059,3060,0,0,0,0,0,0,0,0,0,10171,0,0,0,0,10171,0,0,0,0,0,0,0,0,0,0,0,0,0,0,0,4565,4566,3265,3266,0,0,0,0,0,0,0,0,0,0,0,10171,0,0,0,0,3259,3260,5524,0,0,0,3263,3264,0,5424,0,0,0,0,0,0,0,0,0,0,0,0,0,2959,2960,0,0,0,0,0,0,0,0,0,1073751996,0,0,0,0,10171,0,0,0,0,0,0,0,0,0,0,0,0,0,0,0,4665,4565,4566,0,0,0,0,0,0,0,0,0,0,0,0,10171,0,0,0,0,3359,3360,0,0,0,0,0,0,0,0,0,0,0,0,0,0,0,0,0,0,0,0,0,3059,3060,0,0,10177,0,0,0,0,0,0,0,0,0,0,0,10171,0,0,0,0,0,0,0,0,0,0,0,0,0,0,0,2949,2950,4666,0,0,0,0,0,0,0,0,0,0,0,0,1073751996,0,0,0,0,0,0,0,0,0,0,0,0,0,0,0,0,0,0,0,0,0,0,0,0,0,0,0,10172,2961,2962,0,0,0,10173,10171,10171,10171,10171,2147493821,10173,10171,10171,10171,10171,0,10173,10171,10171,10171,10171,10171,2147493821,10047,0,0,0,0,0,0,3049,10043,0,0,0,0,10044,0,0,0,0,0,10173,2147493821,10047,10046,10260,0,0,0,10260,0,0,0,0,0,0,0,0,0,0,0,0,0,0,0,0,10173,10171,2147493821,10173,10171,10171,10171,3061,3062,0,0,0,0,0,0,0,0,0,0,0,0,0,0,0,0,0,0,0,0,0,0,0,0,0,0,0,0,0,0,0,0,0,0,0,0,0,0,0,0,0,0,0,0,0,0,0,0,0,0,0,0,0,0,0,0,0,0,0,0,0,0,0,0,0,0,0,0,0,0,0,0,0,0,0,0,0,0,0,0,0,0,0,0,0,0,0,0,0,0,0,0,0,0,0,0,0,0,0,0,0,0,0,0,0,0,0,0,0,0,0,0,0,0,0,0,0,0,0,0,0,0,0,0,0,0,0,0,0,0,0,0,0,0,0,0,0,0,0,0,0,0,0,0,0,0,0,0,0,0,0,0,0,0,0,0,0,0,0,0,0,0,0,0,0,0,0,0,0,0,0,0,0,0,0,0,0,0,0,0,0,0,0,0,0,0,0,0,0,0,0,0,0,0,0,0,0,0,0,0,0,0,0,0,0,0,0,0,0,0,0,0,0,0,0,0,0,0,0,0,0,0,0,0,0,0,0,0,0,0,0,0,0,0,0,0,0,0,0,0,0,0,10038,0,0,0,10037,0,0,0,0,0,0,0,0,0,10048,0,0,0,0,0,0,0,0,0,0,0,0,0,10038,0,0,0,10037,10045,0,0,0,0,0,0,0,0,0,0,0,0,0,0,0,0,0,0,0,0,0,0,0,0,0,0,0,4825,4826,10292,0,0,0,0,10255,0,0,0,0,0,10255,0,0,0,0,10262,5229,0,0,0,0,0,10255,5229,0,0,0,0,10255,0,0,0,0,0,10255,0,0,0,0,10260,0,0,0,10260,10055,0,10255,0,0,0,0,0,10255,0,0,0,0,0,0,0,5426,0,0,0,10255,0,0,10292,0,0,0,0,4925,4926,0,0,0,0,0,0,0,0,0,0,0,0,0,0,0,0,0,5329,0,0,0,0,0,0,5329,0,0,0,0,0,0,0,0,0,0,0,0,0,0,0,0,0,0,0,0,0,0,0,0,0,0,0,0,0,0,0,0,0,0,0,0,10172,0,0,0,0,0,0,10172,0,0,0,0,0,0,0,0,0,0,0,0,0,0,0,0,0,0,0,0,0,0,0,0,3557,3558,3559,3560,3561,3562,0,0,0,0,0,0,0,0,0,0,0,0,0,0,0,10172,0,0,0,0,0,0,0,0,0,0,0,0,0,0,0,0,0,0,0,0,0,10171,0,0,0,0,0,0,10177,0,0,0,0,0,0,10177,0,0,0,0,0,0,0,0,0,0,0,0,0,0,0,0,0,3657,3658,3659,3660,3661,3662,3157,3158,0,0,0,0,0,0,0,0,0,0,0,0,0,10171,0,0,0,0,0,0,0,0,0,0,0,0,0,0,0,0,0,0,0,0,0,10171,0,0,0,0,0,0,10172,0,0,0,0,0,0,0,0,0,0,0,0,0,0,0,0,0,10172,0,0,0,0,0,0,3757,3758,3759,3760,3761,3762,3257,3258,0,0,0,0,0,0,0,0,0,0,0,0,0,10171,0,0,0,0,0,0,0,0,0,0,0,0,0,0,0,0,0,0,0,0,0,10171,0,0,0,0,0,0,10171,0,0,0,0,0,0,0,0,0,0,0,0,0,0,0,0,0,10171,0,0,0,0,10039,0,0,0,0,0,0,0,0,0,0,0,0,0,0,0,0,0,0,0,0,0,0,1073751996,0,0,0,0,0,0,0,0,0,0,0,0,0,0,0,0,0,0,0,0,0,10171,0,0,0,0,0,0,10171,0,0,0,0,0,0,4819,4820,0,0,0,0,0,0,0,0,0,10171,0,0,0,0,0,0,10045,2959,2960,2961,2962,3163,3164,0,0,0,0,0,0,0,0,0,0,0,0,0,0,2947,2948,0,0,0,0,0,0,0,0,0,0,0,0,0,0,0,0,0,0,0,0,1073751996,0,0,0,0,0,0,1073751996,0,0,0,0,0,0,4919,4920,0,0,0,0,0,0,0,0,0,10171,0,0,0,0,1073752062,0,10055,3059,3060,3061,3062,3263,3264,0,0,0,0,0,0,0,0,0,0,0,0,0,0,3047,3048,0,0,0,0,0,10173,10171,10171,10171,10171,2147493821,10048,10173,10171,2147493821,0,0,0,0,0,10046,0,0,0,10173,0,0,0,0,10177,0,0,10178,0,0,0,0,0,0,0,0,0,0,0,0,10171,0,0,0,0,1073752063,0,0,0,0,0,0,0,0,0,0,0,10153,10154,5424,0,0,0,0,0,0,10173,10171,2147493821,0,0,0,0,0,0,0,0,0,0,0,0,0,0,0,0,0,0,0,0,0,0,0,0,0,10172,0,0,0,0,0,0,0,0,0,0,0,0,0,0,0,0,0,0,0,0,10171,0,0,0,0,1073752064,0,0,0,0,0,0,0,0,0,0,0,10155,10156,0,0,0,0,0,0,0,0,0,0,0,0,0,0,0,5426,0,0,602,603,604,605,606,0,10248,0,0,0,0,0,0,0,0,0,0,10171,0,0,0,10172,0,0,0,0,0,0,0,0,0,0,0,0,0,0,0,0,1073751996,0,0,0,0,0,0,0,0,0,0,0,0,0,0,5217,5218,5219,5220,0,0,0,0,0,0,0,0,0,0,0,0,0,0,0,0,0,0,702,703,704,705,706,0,10245,0,0,0,0,0,0,0,0,0,0,10171,0,0,0,0,0,0,0,0,0,0,0,10173,0,0,0,0,0,0,10173,2147493821,0,0,0,0,0,10037,0,0,0,0,0,0,0,10049,0,5317,5318,5319,5320,10049,0,0,0,0,0,0,0,0,0,0,0,0,0,0,0,10049,0,802,803,804,805,806,0,10245,0,0,0,0,0,0,0,0,0,0,10171,0,0,0,10172,0,0,0,0,0,0,0,0,0,0,0,0,0,0,0,10049,0,0,0,0,0,0,0,0,0,0,0,0,0,0,10176,5417,5418,5419,5420,0,0,0,0,0,0,0,0,0,0,0,0,0,0,0,0,0,0,902,903,904,905,906,0,10249,0,0,0,0,0,0,0,0,0,0,10171,0,0,0,0,0,0,0,0,0,0,0,0,0,0,0,0,0,0,0,0,0,0,0,0,0,0,0,0,0,0,0,0,0,0,0,5517,5518,5519,5520,0,0,0,0,0,0,0,0,0,0,0,0,0,0,0,0,0,0,1002,1003,1004,1005,1006,0,0,0,0,0,0,0,0,0,0,0,0,10171,0,0,0,10172,0,0,0,0,0,0,0,0,0,0,0,0,0,0,0,0,0,0,0,0,0,10039,0,0,0,0,0,0,5524,0,0,0,0,0,0,0,10176,0,0,0,0,0,0,0,0,0,0,0,0,10039,0,0,0,0,0,0,0,0,0,0,0,10173,10171,10171,10171,10171,10171,10171,10171,10171,10171,10173,10171,2147493821,0,0,0,0,0,0,0,0,0,0,0,0,0,0,0,0,0,0,0,0,0,0,0,0,0,0,0,0,0,0,0,0,0,0,0,0,0,0,0,0,0,0,0,0,0,0,0,0,0,0,0,0,0,0,0,0,0,0,0,0,0,0,0,0,0,0,0,0,0,0,0,0,0,0,0,0,0,0,0,0,0,0,0,0,0,0,0,0,0,0,0,0,0,0,0,0,0,0,0,0,0,0,0,0,0,0,0,0,0,0,0,0,0,0,0,0,0,0,0,0,0,0,0,0,0,0,0,0,0,0,0,0,0,0,0,0,0,0,0,0,0,0,0,0,0,0,0,0,0,0,0,0,0,0,0,0,0,0,0,0,0,0,0,0,0,0,0,0,0,0,0,0,0,0,0,0,0,0,0,0,0,0,0,0,0,0,0,0,0,0,0,0,0,0,0,0,0,0,0,0,0,0,0,0,0,0,0,0,0,0,0,0,0,0,0,0,0,0,0,0,0,0,0,0,0,0,0,0,0,0,0,0,0,0,0,0,0,0,0,0,0,0,0,0,0,0,0,0,0,0,0,0,0,0,0,0,0,0,0,0,0,0,0,0,0,0,0,0,0,0,0,0,0,0,0,0,0,0,0,0,0,0,0,0,0,0,0,0,0,0,0,0,0,0,0,0,0,0,0,0,0,0,0,0,0,0,0,0,0,0,0,0,0,0,0,0,0,0,0,0,0,0,0,0,0,0,0,0,0,0,0,0,0,0,0,0,0,0,0,0,0,0,0,0,0,0,0,0,0,0,0,0,0,0,0,0,0,0,0,0,0,0,0,0,0,0,0,0,0,0,0,0,0,0,0,0,0,0,0,0,0,0,0,0,0,0,0,0,0,0,0,0,0,10292,0,0,0,10037,0,0,5524,0,0,0,0,0,0,0,0,0,0,0,0,0,0,0,0,0,0,0,0,10292,0,0,0,10037,0,0,0,0,0,0,0,0,0,0,0,0,0,0,0,0,0,0,0,0,0,0,0,0,0,0,0,0,0,0,0,0,0,0,0,0,0,0,5401,5402,0,0,0,0,0,0,0,0,0,0,5524,0,0,0,0,0,0,10177,10177,5401,5402,0,0,10178,0,0,0,0,0,0,0,0,0,0,0,5426,0,0,0,0,0,0,0,0,0,0,0,0,0,5401,5402,0,4825,4826,0,0,0,0,0,0,0,0,0,0,0,0,0,0,0,0,0,0,0,5501,5502,0,0,0,0,0,0,0,0,0,5424,0,0,0,0,0,0,0,0,0,5501,5502,0,0,0,0,0,0,0,0,0,0,0,0,0,0,0,0,0,0,0,0,0,0,0,0,0,0,0,0,5501,5502,0,4925,4926,0,0,0,0,0,0,0]},{"id":4,"name":"buildings-base","type":"tilelayer","visible":true,"opacity":1,"x":0,"y":0,"width":75,"height":50,"data":[0,0,0,0,0,0,0,0,0,0,0,0,0,0,0,0,0,0,0,0,0,0,0,0,0,0,0,0,0,0,0,0,0,0,0,0,0,0,0,0,0,0,0,0,0,0,0,0,0,0,0,0,0,0,0,0,0,0,0,0,0,0,0,0,0,0,0,0,0,0,0,0,0,0,0,0,0,0,0,0,0,0,0,0,0,0,0,0,0,0,0,0,0,0,0,0,0,0,0,0,0,0,0,0,0,0,0,0,0,0,0,0,0,0,0,0,0,0,0,0,0,0,0,0,0,0,0,0,0,0,0,0,0,0,0,0,0,0,0,0,0,0,0,0,0,0,0,0,0,0,0,0,0,0,0,0,0,0,0,0,0,0,0,0,0,0,0,0,0,0,0,0,0,0,0,0,0,0,0,0,0,0,0,0,0,0,0,0,0,0,0,0,0,0,0,0,0,0,0,0,0,0,0,0,0,0,0,0,0,0,0,0,0,0,0,0,0,0,0,0,0,0,0,0,0,0,0,0,0,0,0,0,0,0,0,0,0,0,0,0,0,0,0,0,0,0,0,0,0,0,0,0,0,0,0,0,0,0,0,0,0,0,0,0,0,0,0,0,0,0,0,0,0,0,0,0,0,0,0,0,0,0,0,0,0,0,0,0,0,0,0,0,0,0,0,0,0,0,0,0,0,0,0,10273,10274,0,0,0,0,0,0,0,0,0,0,0,0,0,0,0,0,0,0,0,0,0,0,0,0,0,0,0,0,0,0,0,0,0,0,0,0,0,0,0,0,0,0,0,0,0,0,0,0,0,0,0,0,0,0,0,0,0,0,0,0,0,0,0,0,0,0,0,0,0,0,0,0,0,0,0,0,0,0,0,0,0,0,0,0,0,0,0,0,0,0,0,0,0,0,0,0,0,0,0,0,0,0,0,0,0,0,0,0,0,0,0,0,0,0,0,0,0,0,0,0,0,0,0,0,0,0,0,0,0,0,0,0,0,0,0,0,0,0,0,0,0,0,0,0,0,0,0,0,0,0,0,0,0,0,0,0,0,0,0,0,0,0,0,0,0,0,0,0,0,0,0,0,0,0,0,0,0,0,0,0,0,0,0,0,0,0,0,0,0,0,0,0,0,0,0,0,0,0,0,0,0,0,0,0,0,0,0,0,0,0,0,4370,10103,10104,4375,10103,10104,4377,0,0,0,0,0,0,0,0,0,0,0,0,0,0,0,0,0,0,0,0,0,0,0,0,0,0,0,0,0,0,0,0,0,0,0,0,0,0,0,0,0,0,0,0,0,0,0,0,0,0,0,0,0,0,0,0,0,0,0,0,0,0,0,0,0,0,0,0,4470,10105,10106,4475,10105,10106,4477,0,0,0,0,0,0,0,0,0,0,0,0,0,0,0,0,0,0,0,0,0,0,0,0,0,0,0,0,0,0,0,0,0,0,0,0,0,0,0,0,0,0,0,0,0,0,0,0,0,0,0,0,0,0,0,0,0,0,0,0,0,0,0,0,0,0,0,0,4570,4575,4576,4575,4576,4575,4577,0,0,0,0,0,0,0,0,0,0,0,0,0,0,0,0,0,0,0,0,0,0,0,0,0,0,0,0,0,0,0,0,0,0,0,0,0,0,0,0,0,0,0,0,0,0,0,0,0,0,0,0,0,0,0,0,0,0,0,0,0,0,0,0,0,0,0,0,4670,4675,3186,3187,4676,4675,4677,0,0,0,0,0,0,0,0,0,0,4370,10103,10104,10103,10104,4377,0,4370,10103,10104,10103,10104,4377,0,4370,10103,10104,10103,10104,4377,10267,10268,4577,0,4370,10103,10104,10103,10104,4377,4570,10267,10268,0,0,0,0,0,0,0,0,0,0,0,0,0,0,0,0,0,0,0,0,0,0,0,0,0,0,0,0,0,0,0,0,0,0,0,0,0,0,0,0,0,0,4470,10105,10106,10105,10106,4477,0,4470,10105,10106,10105,10106,4477,0,4470,10105,10106,10105,10106,4477,10269,10270,4677,0,4470,10105,10106,10105,10106,4477,4670,10269,10270,0,0,0,0,0,0,0,0,0,0,0,0,0,0,0,0,0,0,0,0,0,0,0,0,0,0,0,0,0,0,0,0,0,0,0,0,0,0,0,0,0,0,4570,4575,4576,4575,4576,4577,0,4570,4575,4576,4575,4576,4577,0,4570,4575,4576,4575,4576,4577,0,0,0,0,4570,4575,4576,4575,4576,4577,0,0,0,0,0,0,0,0,0,0,0,0,0,0,0,0,0,0,0,0,0,0,0,0,0,0,0,0,0,0,0,0,0,0,0,0,0,0,0,0,0,0,0,0,0,4670,4675,3186,3187,4676,4677,0,4670,4675,3186,3187,4676,4677,0,4670,4675,3186,3187,4676,4677,0,0,0,0,4670,4675,3186,3187,4676,4677,0,0,0,0,0,0,0,0,0,0,0,0,0,0,0,0,0,0,0,0,0,0,0,0,0,0,0,0,0,0,0,0,0,0,0,0,0,0,0,0,0,0,0,0,0,0,0,0,0,0,0,0,0,0,0,0,0,0,0,0,0,0,0,0,0,0,0,0,0,0,0,0,0,0,0,0,0,0,0,0,0,0,0,0,0,10133,10139,10134,10134,10134,10134,10139,10135,0,0,0,0,0,0,0,0,0,0,0,0,0,0,0,0,0,0,0,0,0,0,0,0,0,0,0,0,0,0,0,0,0,0,0,0,0,0,0,0,0,0,0,0,0,0,0,0,0,0,0,0,0,0,0,0,0,0,0,0,0,0,0,0,0,0,0,10133,10140,10134,10141,10142,10134,10140,10135,0,0,0,0,0,0,0,0,0,0,0,0,0,0,0,0,0,0,0,0,0,0,0,0,0,0,0,0,0,0,0,0,0,0,0,0,0,0,0,0,0,0,0,0,0,0,0,0,0,0,0,0,0,0,0,0,0,0,0,0,0,0,0,0,0,0,0,10136,10137,10137,10143,10144,10137,10137,10138,0,0,0,0,0,0,0,0,0,0,0,0,0,0,0,0,0,0,0,0,0,0,0,0,0,0,0,0,0,0,0,0,0,0,0,0,0,0,0,0,0,0,0,0,0,0,0,0,0,0,0,0,0,0,0,0,0,0,0,0,0,0,0,0,0,0,0,0,0,0,0,0,0,0,0,0,0,3121,3122,3123,3124,3125,3122,3123,3124,3126,0,0,0,0,0,0,0,0,0,0,0,0,0,0,0,0,0,0,0,0,0,0,0,0,0,0,0,0,0,0,0,0,0,0,0,0,0,0,0,0,0,0,0,0,0,0,0,0,0,0,0,0,0,0,0,0,0,0,0,0,0,0,0,0,0,0,3221,3222,3223,3224,3225,3222,3223,3224,3226,0,0,0,0,0,0,0,0,0,0,4478,4483,4484,4483,4485,0,4470,4475,4476,4477,0,0,4478,4483,4484,4483,4484,4483,4484,4485,4478,4483,4484,4483,4484,4485,0,0,0,4470,4475,4476,4477,4478,4483,4484,4485,4470,4475,4476,4477,0,0,0,0,0,0,0,0,0,0,0,0,0,0,0,3321,10051,10052,3324,3325,3322,10051,10052,3326,3327,3328,3329,3330,0,0,0,0,0,0,4578,4583,4584,4583,4585,0,4570,4575,4576,4577,0,0,4578,10051,10052,4583,4584,10051,10052,4585,4578,4583,4584,4583,4584,4585,0,0,0,4570,4575,4576,4577,4578,4583,4584,4585,4570,4575,4576,4577,0,0,0,0,0,0,0,0,0,0,0,0,0,0,0,3421,10053,10054,3424,3425,3422,10053,10054,3426,3427,3428,3429,3430,0,0,0,0,0,0,4678,3186,3187,4683,4685,0,4670,3186,3187,4677,0,0,4678,10053,10054,3186,3187,10053,10054,4685,4678,4683,3186,3187,4684,4685,0,0,0,4670,3186,3187,4677,4678,3186,3187,4685,4670,3186,3187,4677,0,0,0,0,0,0,0,0,0,0,0,0,0,0,0,3521,3522,3523,3186,3187,3522,3523,3524,3526,3527,3186,3187,3530,0,0,0,0,0,0,0,0,0,0,0,0,0,0,0,0,0,0,0,0,0,0,0,0,0,0,0,0,0,0,0,0,0,0,0,0,0,0,0,0,0,0,0,0,0,0,0,0,0,0,0,0,0,0,0,0,0,0,0,0,0,0,0,0,0,0,0,0,0,0,0,0,0,0,0,0,0,0,0,0,0,0,0,0,0,0,0,0,0,0,0,0,0,0,0,0,0,0,0,0,0,0,0,0,0,0,0,0,0,0,0,0,0,0,0,0,0,0,0,0,0,0,0,0,0,0,0,0,0,0,0,0,0,0,0,0,0,0,0,0,0,0,0,0,0,0,0,0,0,0,0,0,0,0,0,0,0,0,0,0,0,0,0,0,0,0,0,0,0,0,0,0,0,0,0,0,0,0,0,0,0,0,0,0,0,0,0,0,0,0,0,0,0,0,0,0,0,0,0,0,0,0,0,0,0,0,0,0,0,0,0,0,0,0,0,0,0,0,0,0,0,0,0,0,0,0,0,0,0,0,0,0,0,0,0,0,0,0,0,0,0,0,0,0,0,0,0,0,0,0,0,0,0,0,0,0,0,0,0,0,0,0,0,0,0,0,0,0,0,0,0,0,0,0,0,0,0,0,0,0,0,0,0,0,0,0,0,0,0,0,0,0,0,0,0,0,0,0,0,0,0,0,0,0,0,0,0,0,0,0,0,0,0,0,0,0,0,0,0,0,0,0,0,0,0,0,0,0,0,0,0,0,0,0,0,0,0,0,0,0,0,0,0,0,0,0,0,0,0,0,0,0,0,0,0,0,0,0,0,0,0,0,0,0,0,0,0,0,0,0,0,0,0,0,0,0,0,0,0,0,0,0,0,0,0,0,0,0,0,0,0,0,0,0,0,0,0,0,0,0,0,0,0,0,0,0,0,0,0,0,0,0,0,0,0,0,0,0,0,0,0,0,0,0,0,0,0,0,0,0,0,0,0,0,0,0,0,0,0,0,0,0,0,0,0,0,0,0,0,0,0,0,0,0,0,0,0,0,0,0,0,0,0,0,0,0,0,0,0,0,0,0,0,0,0,0,0,0,0,0,0,0,0,0,0,0,0,0,0,0,0,0,0,0,0,0,0,0,0,0,0,0,0,0,0,0,0,0,0,0,0,0,0,0,0,0,0,0,0,0,0,0,0,0,0,0,0,0,0,0,0,0,0,0,0,0,0,0,0,0,0,0,0,0,0,0,0,0,0,0,0,0,0,0,0,0,0,0,0,0,0,0,0,0,0,0,0,0,0,0,0,0,0,0,0,0,0,0,0,0,0,0,0,0,0,0,0,0,0,0,0,0,0,0,0,0,0,0,0,0,0,0,0,0,0,0,0,0,0,0,0,0,0,0,0,0,0,0,0,0,0,0,0,0,0,0,0,0,0,0,0,0,0,0,0,0,0,0,3121,3122,3123,3124,3125,3122,3123,3124,3126,0,0,0,0,0,0,0,0,0,0,0,0,0,0,0,0,0,0,0,0,0,0,0,0,0,0,0,0,0,0,0,0,0,0,0,0,0,0,0,0,0,0,0,0,0,0,0,0,0,0,0,0,0,0,0,0,0,0,0,0,0,0,0,0,0,0,3221,3222,3223,3224,3225,3222,3223,3224,3226,0,0,0,0,0,0,0,4478,4483,4484,4483,4485,4470,4475,4476,4475,4477,4478,4483,4484,4483,4485,0,4470,4475,4476,4475,4476,4477,0,0,0,0,0,0,0,0,0,0,0,0,0,0,0,0,0,0,0,0,0,0,0,0,0,0,0,0,0,0,0,0,0,0,0,0,0,3321,10051,10052,3324,3325,3322,10051,10052,3326,0,0,0,0,0,0,0,4578,4583,4584,4583,4585,4570,4575,4576,4575,4577,4578,4583,4584,4583,4585,0,4570,4575,4576,4575,4576,4577,0,0,0,0,0,0,0,0,0,3121,3122,3123,3124,3125,3122,3123,3124,3126,0,0,0,0,0,0,0,0,0,0,0,0,0,0,0,0,0,0,0,3421,10053,10054,3424,3425,3422,10053,10054,3426,0,0,0,0,0,0,0,4678,3186,3187,4683,4685,4670,3186,3187,4675,4677,4678,3186,3187,4683,4685,0,4670,4675,3186,3187,4676,4677,0,0,0,0,0,0,0,0,0,3221,3222,3223,3224,3225,3222,3223,3224,3226,0,0,0,0,0,0,0,0,0,0,0,0,0,0,0,0,0,0,0,3521,3522,3523,3186,3187,3522,3523,3524,3526,0,0,0,0,0,0,0,0,0,0,0,0,0,0,0,0,0,0,0,0,0,0,0,0,0,0,0,0,0,0,0,0,0,0,0,0,0,0,3321,3153,3154,3324,3325,3322,3323,3324,3326,0,0,0,0,0,0,0,0,0,0,0,0,0,0,0,0,0,0,0,0,0,0,0,0,0,0,0,0,0,0,0,0,0,0,0,0,0,0,0,0,0,0,0,0,0,0,0,0,0,0,0,0,0,0,0,0,0,0,0,0,0,0,0,0,0,0,3421,3422,3423,3424,3425,3422,3423,3424,3426,0,0,0,0,0,0,0,10278,10279,10280,0,0,0,0,0,0,0,0,0,0,0,0,0,0,0,0,0,0,0,0,0,0,0,0,0,0,0,0,0,0,0,0,0,0,0,4286,4287,4288,4289,4290,4291,4287,4292,4293,0,0,0,0,0,0,0,0,0,0,0,0,3521,3522,3523,3188,3189,3522,3523,3524,3526,0,0,0,0,0,0,0,0,0,0,0,0,0,0,0,0,0,0,0,0,0,0,0,0,0,0,0,0,0,0,0,0,0,0,0,0,0,0,0,0,0,0,0,0,0,4386,4387,4388,4389,4390,4391,4387,4392,4393,0,0,0,0,0,0,0,0,0,0,0,0,0,0,0,0,0,0,0,0,0,0,0,0,0,0,0,0,0,0,0,0,0,0,0,0,0,0,0,0,0,0,0,0,0,0,0,0,0,0,0,0,0,0,0,0,0,0,0,0,0,0,0,0,0,0,4486,10051,10052,4489,4490,4491,10051,10052,4493,0,4478,4483,4485,0,0,0,0,0,0,0,0,0,0,0,0,0,0,0,0,0,0,0,0,0,0,0,0,0,0,0,0,0,0,0,0,0,0,0,0,0,0,0,0,0,0,0,0,0,0,0,0,0,0,0,0,0,0,0,0,0,0,0,0,0,0,4586,10053,10054,4589,4590,4591,10053,10054,4593,0,4578,4583,4585,0,0,0,0,0,0,0,0,0,0,0,0,0,0,0,0,0,0,0,0,0,0,0,0,0,0,0,0,0,0,0,0,0,0,0,0,0,0,0,0,0,0,0,0,0,0,0,0,0,0,0,0,0,0,0,0,0,0,0,0,0,0,4686,4687,4688,4689,4690,4691,4687,4692,4693,0,3186,3187,4685,0,0,0,0,0,0,0,0,0,0,0,0,0,0,0,0,0,0,0,0,0,0,0,0,0,0,0,0,0,0,0,0,0,0,0,0,0,0,0,0,0,0,0,0,0,0,0,0,0,0,0,0,0,0,0,0,0,0,0,0,0,0,0,0,0,0,0,0,0,0,0,0,0,0,0,0,0,0,0,0,0,0,0,0,0,0,0,0,0,0,0,0,0,0,0,0,0,0,0,0,0,0,0,0,0,0,0,0,0,0,0,0,0,0,0,0,0,0,0,0,0,0,0,0,0,0,0,0,0,0,0,0,0,0,0,0,0,0,0,0,0,0,0,0,0,0,0,0,0,0,0,0,0,0,0,0,0,0,0,0,0,0,0,0,0,0,0,0,0,0,0,0,0,0,0,0,0,0,0,0,0,0,0,0,0,0,0,0,0,0,0,0,0,0,0,0,0,0,0,0,0,0,0,0,0,0,0,0,0,0,0,0,0,0,0,0,0,0,0,0,0,0,0,0,0,0,0,0,0,0,0,0,0,0,0,0,0,0,0,0,0,0,0,0,0,0,0,0,0,0,0,0,0,0,0,0,0,0,0,0,0,0,0,0,0,0,0,0,0,0,0,0,0,0,0,0,0,0,0,0,0,0,0,0,0,0,0,0,0,0,0,0,0,0,0,0,0,0,0,0,0,0,0,0,0,0,0,0,0,0,0,0,0,0,0,0,0,0,0,0,0,0,0,0,0,0,0,0,0,0,0,0,0,0,0,0,0,0,0,0,0,0,0,0,0,0,0,0,0,0,0,0,0,0,0,0,0,0,0,0,0,0,0,0,0,0,0,0,0,0,0,0,0,0,0,0,0,0,0,0,0,0,0,0,0,0,0,0,0,0,0,0,0,0,0,0,0,0,0,0,0,0,0,0,0,0,0,0,0,0,0,0,0,0,0,0,0,0,0,0,0,0,0,0,0,0,0,0,0,0,0,0,0,0,0,0,0,0,0,0,0,0,0,0,0,0,0,0,0,0,0,0,0,0,0,0,0,0,0,0,0,0,0,0,0,0,0,0,0,0,0,0,0,0,0,0,0,0,0,0,0,0,0,0,0,0,0,0,0,0,0,0,0,0,0,0,0,0,0,0,0,0,0,0,0,0,0,0,0,0,0,0,0,0,0,0,0,0,0,0,0,0,0,0,0,0,0,0,0,0,0,0,0,0,0,0,0,0,0,0,0,0,0,0,0,0,0,0,0,0,0,0,0,0,0,0,0,0,0,0,0,0,0,0,0,0,0,0,0,0,0,0,0,0,0,0,0,0,0,0,0,0,0,0,0,0,0,0,0,0,0,0,0,0,0,0,0,0,0,0,0,0,0,0,0,0,0,0,0,0,0,0,0,0,0,0,0,0,0,0,0,0,0,0,0,0,0,0,0,0,0,0,0,0,0,0,0,0,0,0,0,0,0,0,0,0,0,0,0,0,0,0,0,0,0,0,0,0,0,0,0,0,0,0,0,0,0,0,0,0,0,0,0,0,0,0,0]},{"id":5,"name":"buildings-top","type":"tilelayer","visible":true,"opacity":1,"x":0,"y":0,"width":75,"height":50,"data":[0,0,0,0,0,0,0,0,0,0,0,0,0,0,0,0,0,0,0,0,0,0,0,0,0,0,0,0,0,0,0,0,0,0,0,0,0,0,0,0,0,0,0,0,0,0,0,0,0,0,0,0,0,0,0,0,0,0,0,0,0,0,0,0,0,0,0,0,0,0,0,0,0,0,0,0,0,0,0,0,0,0,0,0,0,0,0,0,0,0,0,0,0,0,0,0,0,0,0,0,0,0,0,0,0,0,0,0,0,0,0,0,0,0,0,0,0,0,0,0,0,0,0,10291,0,0,0,0,0,0,0,0,0,0,0,0,0,0,0,0,0,0,0,0,0,0,0,0,0,0,0,0,0,0,0,0,0,0,0,0,0,0,0,0,0,0,0,0,0,0,0,0,0,0,0,0,0,0,0,0,0,0,0,0,0,0,0,0,0,0,0,0,0,0,0,0,0,0,0,0,0,0,0,0,0,0,0,0,0,0,0,0,0,0,0,0,0,0,0,0,0,10165,0,0,0,0,0,0,10271,10272,0,0,0,0,0,0,0,0,0,0,0,0,0,0,0,0,0,0,0,0,0,0,0,0,0,0,0,0,0,0,0,0,0,0,0,0,0,0,0,0,0,0,0,0,0,0,0,0,0,0,0,0,0,0,0,0,0,0,0,0,0,10081,10082,10082,10082,10082,10082,10083,0,0,0,0,0,0,0,0,0,0,0,0,0,0,0,0,0,0,0,0,0,0,0,0,0,0,0,0,0,0,0,0,0,0,0,0,0,0,0,0,0,0,0,0,0,0,0,0,0,0,0,0,0,0,0,0,0,0,0,0,0,0,0,0,0,0,0,0,10084,10085,10085,10085,10085,10085,10086,0,0,0,0,0,0,0,0,0,0,0,0,0,0,10165,0,0,0,0,0,0,10165,0,0,0,0,0,0,10165,0,0,0,0,0,0,0,0,0,10165,0,0,0,0,0,0,0,0,0,0,0,0,0,0,0,0,0,0,0,0,0,0,0,0,0,0,0,0,0,10087,10088,10088,10088,10088,10088,10089,0,0,0,0,0,0,0,0,0,0,10081,10082,10082,10082,10082,10083,0,10081,10082,10082,10082,10082,10083,0,10081,10082,10082,10082,10082,10083,0,0,0,0,10071,10072,10072,10072,10072,10073,0,0,0,0,0,0,0,0,0,0,0,0,0,0,0,0,0,0,0,0,0,0,0,0,0,0,0,0,0,0,0,0,0,0,0,0,0,0,0,0,0,0,0,0,0,10084,10085,10085,10085,10085,10086,0,10084,10085,10085,10085,10085,10086,0,10084,10085,10085,10085,10085,10086,0,0,0,0,10074,10075,10075,10075,10075,10076,0,0,0,0,0,0,0,0,0,0,0,0,0,0,0,0,0,0,0,0,0,0,0,0,0,0,0,0,0,0,0,0,10266,0,0,0,0,0,0,0,0,0,0,0,0,10084,10085,10085,10085,10085,10086,0,10084,10085,10085,10085,10085,10086,0,10084,10085,10085,10085,10085,10086,0,0,0,0,10074,10075,10075,10075,10075,10076,0,0,0,0,0,0,0,0,0,0,0,0,0,0,0,0,0,0,0,0,0,0,0,0,0,0,0,0,0,0,3086,3087,10265,0,0,0,0,0,0,0,0,0,0,0,0,10087,10088,10088,10088,10088,10089,0,10087,10088,10088,10088,10088,10089,0,10087,10088,10088,10088,10088,10089,10087,10088,10089,0,10077,10078,10078,10078,10078,10079,10077,10078,10079,0,0,0,0,0,0,0,0,0,0,0,0,0,0,0,0,0,0,0,0,0,0,0,0,0,0,0,0,0,0,0,0,0,0,0,0,0,0,0,0,0,0,0,0,0,0,0,0,0,0,0,0,0,0,0,0,0,0,0,0,0,0,0,0,0,0,0,0,0,0,0,0,0,0,0,0,0,0,0,0,0,0,0,0,0,10111,10112,0,0,0,0,0,0,0,0,0,0,0,0,0,0,0,0,0,0,0,0,0,0,0,0,0,0,0,0,0,0,0,0,0,10266,0,0,0,0,0,0,10266,0,0,0,0,0,0,10266,0,0,0,0,0,0,0,0,0,10266,0,0,0,0,0,0,0,0,0,0,0,0,0,0,0,10131,10132,0,0,0,0,0,0,0,0,0,0,0,3027,3030,0,0,0,0,0,0,0,0,0,0,0,0,0,0,0,0,0,0,0,3086,3087,10265,0,0,0,0,3086,3087,10265,0,0,0,0,3086,3087,10265,0,0,0,0,0,0,0,3086,3087,10265,0,0,0,0,0,0,0,0,0,0,0,10071,10072,10072,10129,10130,10072,10072,10073,0,0,0,0,0,0,0,0,3127,3130,0,0,0,0,0,0,0,0,0,0,0,0,0,0,0,0,0,0,0,0,0,0,0,0,0,0,0,0,0,0,0,0,0,0,0,0,0,0,0,0,0,0,0,0,0,0,0,0,0,0,0,0,0,0,0,0,0,10077,10078,10078,10129,10130,10078,10078,10079,0,0,0,0,0,0,0,0,3127,3130,0,0,0,0,0,0,0,0,0,0,0,0,0,0,0,0,0,0,0,0,0,0,0,0,0,0,0,0,0,0,0,0,0,0,0,0,0,0,0,0,0,0,0,0,0,0,0,0,0,0,0,0,0,0,0,0,0,0,0,0,0,0,0,0,0,0,0,194,4959,4960,197,195,196,3227,3230,198,0,0,0,0,0,0,0,0,0,0,0,0,0,10165,0,0,0,0,0,0,0,0,0,0,0,0,0,0,10165,0,0,0,0,0,10165,0,0,0,0,0,0,0,0,0,0,0,0,0,0,0,0,0,0,0,0,0,0,0,0,0,0,0,0,0,0,0,294,5059,5060,297,295,296,297,295,298,0,0,0,0,0,0,0,0,0,0,10071,10072,10072,10072,10073,0,10061,10062,10062,10063,0,0,10061,10062,10062,10062,10062,10062,10062,10063,10061,10062,10062,10062,10062,10063,0,0,0,10061,10062,10062,10063,10061,10062,10062,10063,10061,10062,10062,10063,0,0,0,0,0,0,0,0,0,0,0,0,0,0,0,3021,3022,3023,3024,3025,3022,3023,3024,3026,194,195,196,198,0,0,0,0,0,0,10074,10075,10075,10075,10076,0,10064,10065,10065,10066,0,0,10064,10065,10065,10065,10065,10065,10065,10066,10064,10065,10065,10065,10065,10066,0,0,0,10064,10065,10065,10066,10064,10065,10065,10066,10064,10065,10065,10066,0,0,0,0,0,0,0,0,0,0,0,0,0,0,0,0,0,0,0,0,0,0,0,0,294,295,296,298,0,0,0,0,0,0,10077,10078,10078,10078,10079,0,3557,3558,3559,3562,0,0,10067,10068,10068,10068,10068,10068,10068,10069,3557,3558,3559,3560,3561,3562,0,0,0,3557,3558,3559,3562,10067,10068,10068,10069,3557,3558,3559,3562,0,0,0,0,0,0,0,0,0,0,0,0,0,0,0,0,0,0,0,0,0,0,0,0,594,595,596,598,0,0,0,0,0,0,0,0,3149,3150,0,0,3657,3658,3659,3662,0,0,0,0,0,0,0,3151,3152,0,3657,3658,3659,3660,3661,3662,0,0,0,3657,3658,3659,3662,0,3155,3156,0,3657,3658,3659,3662,0,0,0,0,0,0,0,0,0,0,0,0,0,0,0,0,0,0,0,0,0,0,0,0,0,0,0,0,0,0,0,0,0,0,0,3086,3087,0,0,0,0,3086,3087,0,0,0,0,0,0,3086,3087,0,0,0,0,0,3086,3087,0,0,0,0,0,0,3086,3087,0,0,3086,3087,0,0,3086,3087,0,0,0,0,0,0,0,0,0,0,0,0,0,0,0,0,0,0,0,3086,3087,0,0,0,0,0,3086,3087,0,0,0,0,0,0,0,0,0,0,0,0,0,0,0,0,0,0,0,0,0,0,0,0,0,0,0,0,0,0,0,0,0,0,0,0,0,0,0,0,0,0,0,0,0,0,0,0,0,10258,0,0,0,10258,0,0,0,0,0,0,0,0,0,0,0,0,0,0,0,0,0,0,0,0,0,0,0,0,0,0,0,0,0,0,0,0,0,0,0,0,0,0,0,0,0,0,0,0,0,0,0,0,0,0,0,0,0,0,0,0,0,0,0,0,0,0,0,0,0,0,0,0,0,0,0,0,0,0,0,0,0,0,0,0,0,0,0,0,0,0,0,0,0,0,0,0,0,0,0,0,0,0,0,0,0,0,0,0,0,0,0,0,0,0,0,0,0,0,0,0,0,0,0,0,0,0,0,0,0,0,0,0,0,0,0,0,0,0,0,0,0,0,0,0,0,0,0,0,0,0,0,0,0,0,0,0,0,0,0,0,0,0,0,0,0,0,0,0,0,0,0,0,0,0,0,0,0,0,0,0,0,0,0,0,0,0,0,0,0,0,0,0,0,0,0,0,0,0,0,0,0,0,0,0,0,0,0,0,0,0,0,0,0,0,0,0,0,0,0,0,0,0,0,0,0,0,0,0,0,0,0,0,0,0,0,0,0,0,0,0,0,0,0,0,0,0,0,0,0,0,0,0,0,0,0,0,0,0,0,0,0,0,0,0,0,0,0,0,0,0,0,0,0,0,0,0,0,0,0,0,0,0,0,0,0,0,0,0,0,0,0,0,0,0,0,0,0,0,0,0,0,0,0,0,0,0,0,0,0,0,0,0,0,0,0,0,0,0,0,0,0,0,0,0,0,0,0,0,0,0,0,0,0,0,10291,0,0,0,0,10254,10256,10256,10256,10256,10256,10254,10256,0,0,0,10261,3357,10256,10256,10256,10256,10256,10254,3358,10256,0,10256,10256,10254,10256,10256,10256,10256,10256,10254,10256,10256,10256,10256,10258,0,0,0,10258,0,10256,10254,10256,10256,10256,10256,10256,10254,10256,10256,10256,10256,10256,10256,10256,10256,10256,10256,10256,10254,0,0,10291,0,0,0,0,0,0,0,0,0,0,0,0,0,0,0,0,0,0,0,0,0,0,0,3457,0,0,0,0,0,0,3458,0,0,0,0,0,0,0,0,0,0,0,0,0,0,0,0,0,0,0,0,0,0,0,0,10165,0,0,0,0,10165,0,0,0,0,10165,0,0,0,0,0,0,10165,0,0,0,0,0,0,0,0,0,0,0,0,0,0,0,0,0,0,0,0,0,0,0,0,0,0,0,0,0,0,0,0,0,0,0,0,0,0,0,0,0,0,0,0,0,0,0,0,0,0,0,0,0,0,10071,10072,10072,10072,10073,10061,10062,10062,10062,10063,10081,10082,10082,10082,10083,0,10071,10072,10072,10072,10072,10073,0,0,0,0,0,0,0,0,0,0,0,0,0,0,0,0,0,0,0,0,0,0,0,0,0,0,0,0,0,0,0,0,0,0,0,0,0,3021,3022,3023,3024,3025,3022,3023,3024,3026,0,0,0,0,0,0,0,10074,10075,10075,10075,10076,10064,10065,10065,10065,10066,10084,10085,10085,10085,10086,0,10074,10075,10075,10075,10075,10076,0,0,0,0,0,0,0,0,0,0,0,0,0,0,0,0,0,0,0,0,0,0,0,0,0,0,0,0,0,0,0,0,0,0,0,0,0,0,0,0,0,0,0,0,0,0,0,0,0,0,0,0,0,10077,10078,10078,10078,10079,3557,3558,3559,3560,3562,10087,10088,10088,10088,10089,0,3557,3558,3559,3560,3561,3562,0,0,0,0,0,0,0,0,0,194,195,196,197,195,196,197,195,198,0,0,0,0,0,0,0,0,0,0,0,0,0,0,0,0,0,0,0,0,0,0,0,0,0,0,0,0,0,0,0,0,0,0,0,0,0,3151,3152,0,3657,3658,3659,3660,3662,0,0,3153,3154,0,0,3657,3658,3659,3660,3661,3662,0,0,0,0,0,0,0,0,0,3021,3022,3023,3024,3025,3022,3023,3024,3026,0,0,0,0,0,0,0,0,0,0,0,0,0,0,0,0,0,0,0,0,0,0,0,0,0,0,0,0,0,0,0,0,0,0,0,0,3086,3087,0,0,0,3086,3087,0,0,0,3086,3087,0,0,0,0,0,3086,3087,0,0,0,0,0,0,0,0,0,0,0,0,0,0,0,0,0,0,0,0,0,0,0,0,0,0,0,0,0,0,0,0,0,0,0,0,0,0,0,0,0,0,3086,3087,0,0,0,0,0,0,0,0,0,0,0,0,0,0,0,0,0,0,0,0,0,0,0,0,0,0,0,0,0,0,0,0,0,0,0,0,0,0,0,0,0,0,0,0,0,0,0,0,0,0,0,0,0,0,0,0,0,0,0,0,0,0,0,0,0,0,0,0,0,0,0,0,0,0,0,0,0,0,0,0,0,0,0,0,0,0,0,0,0,0,0,0,0,0,0,0,0,0,0,0,0,0,0,0,0,0,0,0,0,0,0,0,0,0,0,0,0,0,0,0,0,0,0,0,0,0,0,0,0,0,0,0,0,10275,10276,10277,0,0,0,0,0,0,0,0,0,0,0,0,0,0,0,0,0,0,0,0,0,0,0,0,0,0,0,0,0,0,0,0,0,0,0,4186,4187,4188,4189,4190,4191,4187,4192,4193,0,10071,10072,10073,0,0,0,0,0,0,0,0,0,0,0,3088,3089,0,0,0,0,0,0,0,0,0,0,0,0,0,0,0,0,0,0,0,0,0,0,0,0,0,0,0,0,0,0,0,0,0,0,0,0,0,0,0,0,0,0,0,0,0,0,0,0,0,0,0,0,0,0,0,0,0,0,0,10074,10075,10076,0,0,0,0,0,0,0,0,0,0,0,0,0,0,0,0,0,0,0,0,0,0,0,0,0,0,0,0,0,0,0,0,0,0,0,0,0,0,0,0,0,0,0,0,0,0,0,0,0,0,0,0,0,0,0,0,0,0,0,0,0,0,0,0,0,0,0,0,0,0,0,0,10077,10078,10079,0,0,0,0,0,0,0,0,0,0,0,0,0,0,0,0,0,0,0,0,0,0,0,0,0,0,0,0,0,0,0,0,0,0,0,0,0,0,0,0,0,0,0,0,0,0,0,0,0,0,0,0,0,0,0,0,0,0,0,0,0,0,0,0,0,0,0,0,0,0,0,0,0,0,0,0,0,0,0,0,0,0,0,0,0,0,0,0,0,0,0,0,0,0,0,0,0,0,0,0,0,0,0,0,0,0,0,0,0,0,0,0,0,0,0,0,0,0,0,0,0,0,0,0,0,0,0,0,0,0,0,0,0,0,0,0,0,0,0,0,0,0,0,0,0,0,0,3086,3087,0,0,0,0,0,0,0,0,0,0,0,0,0,0,0,0,0,0,0,0,0,0,0,0,0,0,0,0,0,0,0,0,0,0,0,0,0,0,0,0,0,0,0,0,0,0,0,0,0,0,0,0,0,0,0,0,0,0,0,0,0,0,0,0,0,0,0,0,0,0,0,0,0,0,0,0,0,0,0,0,0,0,0,0,0,0,0,0,0,0,0,0,0,0,0,0,0,0,0,0,0,0,0,0,0,0,0,0,0,0,0,0,0,0,0,0,0,0,0,0,0,0,0,0,0,0,0,0,0,0,0,0,0,0,0,0,0,0,0,0,0,0,0,0,0,0,0,0,0,0,0,0,0,0,0,0,0,0,0,0,0,0,0,0,0,0,0,0,0,0,0,0,0,0,0,0,0,0,0,0,0,0,0,0,0,0,0,0,0,0,0,0,0,0,0,0,0,0,0,0,0,0,0,0,0,0,0,0,0,0,0,0,0,0,0,0,0,0,0,0,0,0,0,0,0,0,0,0,0,0,0,0,0,0,0,0,0,0,0,0,0,0,0,0,0,0,0,0,0,0,0,0,0,0,0,0,0,0,0,0,0,0,0,0,0,0,0,0,0,0,0,0,0,0,0,0,0,0,0,0,0,0,0,0,0,0,0,0,0,0,0,0,0,0,0,0,0,0,0,0,0,0,0,0,0,0,0,0,0,0,0,0,0,0,0,0,0,0,0,0,0,0,0,0,0,0,0,0,0,0,0,0,0,0,0,0,0,0,0,0,0,0,0,0,0,0,0,0,0,0,0,0,0,0,0,0,0,0,0,0,0,0,0,0,0,0,0,0,0,0,0,0,0,0,0,0,0,0,0,0,0,0,0,0,0,0,0,0,0,0,0,0,0,0,0,0,0,0,0,0,0,0,0,0,0,0,0,0,0,0,0,0,0,0,0,0,0,0,0,0,0,0,0,0,0,0,0,0,0,0,0,0,0,0,0,0,0,0,0,0,0,0,0,0,0,0,0,0,0,0,0,0,0,0,0,0,0,0,0,0,0,0,0,0,0,0,0,0,0,10291,0,0,0,0,0,0,0,0,0,0,0,0,0,0,0,0,0,0,0,0,0,0,0,0,0,0,0,10291,0,0,0,0,0,0,0,0,0,0,0,0,0,0,0,0,0,0,0,0,0,0,0,0,0,0,0,0,0,0,0,0,0,0,0,0,0,0,0,0,0,0,0,0,0,0,0,0,0,0,0,0,0,0,0,0,0,0,0,0,0,0,0,0,0,0,0,0,0,0,0,0,0,0,0,0,0,0,0,0,0,0,0,0,0,0,0,0,0,0,0,0,0,0,0,0,0,0,0,0,0,0,0,0,0,0,0,0,0,0,0,0,0,0,0,0,0,0,0,0,0,0,0,0,0,0,0,0,0,0,0,0,0,0,0,0,0,0,0,0,0,0,0,0,0,0,0,0,0,0,0,0,0,0,0,0,0,0,0,0,0,0,0,0,0,0,0,0,0,0,0,0,0,0,0,0,0,0,0,0,0,0,0,0,0,0,0,0,0,0,0,0,0,0,0,0,0,0,0,0,0,0,0,0,0,0,0,0,0,0,0,0,0,0,0,0,0,0,0,0,0,0,0,0,0,0,0,0,0,0,0,0,0,0,0,0,0,0,0,0,0,0,0,0,0,0,0,0,0,0,0,0,0,0,0]},{"id":6,"name":"collision","type":"objectgroup","visible":true,"opacity":1,"x":0,"y":0,"draworder":"topdown","objects":[{"id":1,"name":"","type":"","rotation":0,"visible":true,"x":0,"y":672,"width":272,"height":80},{"id":2,"name":"","type":"","rotation":0,"visible":true,"x":320,"y":672,"width":400,"height":80},{"id":3,"name":"","type":"","rotation":0,"visible":true,"x":768,"y":672,"width":432,"height":80},{"id":4,"name":"","type":"","rotation":0,"visible":true,"x":32,"y":256,"width":80,"height":96},{"id":5,"name":"","type":"","rotation":0,"visible":true,"x":128,"y":256,"width":64,"height":96},{"id":6,"name":"","type":"","rotation":0,"visible":true,"x":224,"y":256,"width":128,"height":96},{"id":7,"name":"","type":"","rotation":0,"visible":true,"x":352,"y":256,"width":96,"height":96},{"id":8,"name":"","type":"","rotation":0,"visible":true,"x":496,"y":256,"width":64,"height":96},{"id":9,"name":"","type":"","rotation":0,"visible":true,"x":560,"y":256,"width":64,"height":96},{"id":10,"name":"","type":"","rotation":0,"visible":true,"x":624,"y":256,"width":64,"height":96},{"id":11,"name":"","type":"","rotation":0,"visible":true,"x":768,"y":160,"width":128,"height":112},{"id":12,"name":"","type":"","rotation":0,"visible":true,"x":928,"y":224,"width":144,"height":128},{"id":13,"name":"","type":"","rotation":0,"visible":true,"x":1072,"y":256,"width":64,"height":96},{"id":14,"name":"","type":"","rotation":0,"visible":true,"x":128,"y":96,"width":96,"height":128},{"id":15,"name":"","type":"","rotation":0,"visible":true,"x":240,"y":96,"width":96,"height":128},{"id":16,"name":"","type":"","rotation":0,"visible":true,"x":352,"y":96,"width":96,"height":128},{"id":17,"name":"","type":"","rotation":0,"visible":true,"x":448,"y":144,"width":48,"height":48},{"id":18,"name":"","type":"","rotation":0,"visible":true,"x":512,"y":96,"width":96,"height":128},{"id":19,"name":"","type":"","rotation":0,"visible":true,"x":608,"y":144,"width":48,"height":48},{"id":20,"name":"","type":"","rotation":0,"visible":true,"x":608,"y":192,"width":16,"height":32},{"id":21,"name":"","type":"","rotation":0,"visible":true,"x":1056,"y":48,"width":112,"height":112},{"id":22,"name":"","type":"","rotation":0,"visible":true,"x":48,"y":48,"width":32,"height":32},{"id":23,"name":"","type":"","rotation":0,"visible":true,"x":544,"y":464,"width":144,"height":96},{"id":24,"name":"","type":"","rotation":0,"visible":true,"x":96,"y":496,"width":144,"height":112},{"id":25,"name":"","type":"","rotation":0,"visible":true,"x":800,"y":448,"width":80,"height":96},{"id":26,"name":"","type":"","rotation":0,"visible":true,"x":880,"y":448,"width":80,"height":96},{"id":27,"name":"","type":"","rotation":0,"visible":true,"x":960,"y":448,"width":80,"height":96},{"id":28,"name":"","type":"","rotation":0,"visible":true,"x":1056,"y":448,"width":96,"height":96},{"id":29,"name":"","type":"","rotation":0,"visible":true,"x":960,"y":560,"width":144,"height":96},{"id":30,"name":"","type":"","rotation":0,"visible":true,"x":1120,"y":560,"width":48,"height":96},{"id":31,"name":"","type":"","rotation":0,"visible":true,"x":928,"y":80,"width":32,"height":16},{"id":32,"name":"","type":"","rotation":0,"visible":true,"x":928,"y":96,"width":32,"height":16},{"id":33,"name":"","type":"","rotation":0,"visible":true,"x":928,"y":112,"width":32,"height":16},{"id":34,"name":"","type":"","rotation":0,"visible":true,"x":928,"y":128,"width":32,"height":16},{"id":35,"name":"","type":"","rotation":0,"visible":true,"x":976,"y":96,"width":32,"height":16},{"id":36,"name":"","type":"","rotation":0,"visible":true,"x":976,"y":128,"width":32,"height":16},{"id":37,"name":"","type":"","rotation":0,"visible":true,"x":976,"y":144,"width":32,"height":16},{"id":38,"name":"","type":"","rotation":0,"visible":true,"x":1008,"y":80,"width":32,"height":16},{"id":39,"name":"","type":"","rotation":0,"visible":true,"x":1008,"y":128,"width":32,"height":16},{"id":40,"name":"","type":"","rotation":0,"visible":true,"x":1008,"y":144,"width":32,"height":16},{"id":41,"name":"","type":"","rotation":0,"visible":true,"x":1040,"y":144,"width":16,"height":16},{"id":42,"name":"","type":"","rotation":0,"visible":true,"x":68.0,"y":612.0,"width":8.0,"height":12.0},{"id":43,"name":"","type":"","rotation":0,"visible":true,"x":244.0,"y":612.0,"width":8.0,"height":12.0},{"id":44,"name":"","type":"","rotation":0,"visible":true,"x":224,"y":624,"width":16,"height":16},{"id":45,"name":"","type":"","rotation":0,"visible":true,"x":352,"y":560,"width":48,"height":32},{"id":46,"name":"","type":"","rotation":0,"visible":true,"x":356.8,"y":548.8,"width":6.4,"height":11.2},{"id":47,"name":"","type":"","rotation":0,"visible":true,"x":320,"y":544,"width":16,"height":48},{"id":48,"name":"","type":"","rotation":0,"visible":true,"x":352,"y":480,"width":96,"height":32},{"id":49,"name":"","type":"","rotation":0,"visible":true,"x":448,"y":480,"width":32,"height":32},{"id":50,"name":"","type":"","rotation":0,"visible":true,"x":368,"y":528,"width":64,"height":32},{"id":51,"name":"","type":"","rotation":0,"visible":true,"x":432,"y":528,"width":32,"height":32},{"id":52,"name":"","type":"","rotation":0,"visible":true,"x":324.0,"y":452.0,"width":8.0,"height":12.0},{"id":53,"name":"","type":"","rotation":0,"visible":true,"x":468.0,"y":436.0,"width":8.0,"height":12.0},{"id":54,"name":"","type":"","rotation":0,"visible":true,"x":448,"y":304,"width":48,"height":32},{"id":55,"name":"","type":"","rotation":0,"visible":true,"x":768,"y":304,"width":32,"height":32},{"id":56,"name":"","type":"","rotation":0,"visible":true,"x":864,"y":288,"width":32,"height":32},{"id":57,"name":"","type":"","rotation":0,"visible":true,"x":880,"y":272,"width":16,"height":16},{"id":58,"name":"","type":"","rotation":0,"visible":true,"x":912,"y":176,"width":112,"height":32},{"id":59,"name":"","type":"","rotation":0,"visible":true,"x":1136,"y":272,"width":48,"height":80},{"id":60,"name":"","type":"","rotation":0,"visible":true,"x":1152,"y":192,"width":16,"height":16},{"id":61,"name":"","type":"","rotation":0,"visible":true,"x":32,"y":144,"width":96,"height":16},{"id":62,"name":"","type":"","rotation":0,"visible":true,"x":32,"y":208,"width":96,"height":16},{"id":63,"name":"","type":"","rotation":0,"visible":true,"x":32,"y":160,"width":16,"height":48},{"id":64,"name":"","type":"","rotation":0,"visible":true,"x":112,"y":160,"width":16,"height":48},{"id":65,"name":"","type":"","rotation":0,"visible":true,"x":336,"y":192,"width":32,"height":32},{"id":66,"name":"","type":"","rotation":0,"visible":true,"x":496,"y":112,"width":16,"height":112},{"id":67,"name":"","type":"","rotation":0,"visible":true,"x":656,"y":112,"width":16,"height":112},{"id":68,"name":"","type":"","rotation":0,"visible":true,"x":513.6,"y":569.6,"width":28.8,"height":19.2},{"id":69,"name":"","type":"","rotation":0,"visible":true,"x":688,"y":544,"width":32,"height":16},{"id":70,"name":"","type":"","rotation":0,"visible":true,"x":480,"y":608,"width":64,"height":48},{"id":71,"name":"","type":"","rotation":0,"visible":true,"x":432,"y":576,"width":16,"height":16},{"id":72,"name":"","type":"","rotation":0,"visible":true,"x":560,"y":576,"width":16,"height":16},{"id":73,"name":"","type":"","rotation":0,"visible":true,"x":384,"y":640,"width":16,"height":16},{"id":74,"name":"","type":"","rotation":0,"visible":true,"x":448,"y":608,"width":16,"height":16},{"id":75,"name":"","type":"","rotation":0,"visible":true,"x":544,"y":608,"width":16,"height":16},{"id":76,"name":"","type":"","rotation":0,"visible":true,"x":420.0,"y":660.0,"width":8.0,"height":12.0},{"id":77,"name":"","type":"","rotation":0,"visible":true,"x":580.0,"y":596.0,"width":8.0,"height":12.0},{"id":78,"name":"","type":"","rotation":0,"visible":true,"x":832,"y":576,"width":80,"height":80},{"id":79,"name":"","type":"","rotation":0,"visible":true,"x":800,"y":608,"width":16,"height":16},{"id":80,"name":"","type":"","rotation":0,"visible":true,"x":1043.2,"y":548.8,"width":9.6,"height":11.2},{"id":81,"name":"","type":"","rotation":0,"visible":true,"x":899.2,"y":548.8,"width":9.6,"height":11.2},{"id":82,"name":"","type":"","rotation":0,"visible":true,"x":788.0,"y":532.0,"width":8.0,"height":12.0},{"id":83,"name":"","type":"","rotation":0,"visible":true,"x":1060.0,"y":532.0,"width":8.0,"height":12.0},{"id":84,"name":"","type":"","rotation":0,"visible":true,"x":932.0,"y":644.0,"width":8.0,"height":12.0},{"id":85,"name":"","type":"","rotation":0,"visible":true,"x":1124.0,"y":644.0,"width":8.0,"height":12.0},{"id":86,"name":"","type":"","rotation":0,"visible":true,"x":928,"y":576,"width":16,"height":64},{"id":87,"name":"","type":"","rotation":0,"visible":true,"x":32,"y":80,"width":16,"height":16},{"id":88,"name":"","type":"","rotation":0,"visible":true,"x":112,"y":64,"width":16,"height":16},{"id":89,"name":"","type":"","rotation":0,"visible":true,"x":448,"y":64,"width":16,"height":16},{"id":90,"name":"","type":"","rotation":0,"visible":true,"x":576,"y":48,"width":16,"height":16},{"id":91,"name":"","type":"","rotation":0,"visible":true,"x":480,"y":48,"width":16,"height":16},{"id":92,"name":"","type":"","rotation":0,"visible":true,"x":656,"y":48,"width":16,"height":16},{"id":93,"name":"","type":"","rotation":0,"visible":true,"x":48,"y":480,"width":16,"height":16},{"id":94,"name":"","type":"","rotation":0,"visible":true,"x":96,"y":448,"width":16,"height":16},{"id":95,"name":"","type":"","rotation":0,"visible":true,"x":32,"y":576,"width":16,"height":16},{"id":96,"name":"","type":"","rotation":0,"visible":true,"x":144,"y":464,"width":16,"height":16},{"id":97,"name":"","type":"","rotation":0,"visible":true,"x":80,"y":784,"width":16,"height":16},{"id":98,"name":"","type":"","rotation":0,"visible":true,"x":384,"y":784,"width":16,"height":16},{"id":99,"name":"","type":"","rotation":0,"visible":true,"x":880,"y":784,"width":16,"height":16},{"id":100,"name":"","type":"","rotation":0,"visible":true,"x":1120,"y":784,"width":16,"height":16},{"id":101,"name":"","type":"","rotation":0,"visible":true,"x":116.0,"y":340.0,"width":8.0,"height":12.0},{"id":102,"name":"","type":"","rotation":0,"visible":true,"x":420.0,"y":340.0,"width":8.0,"height":12.0},{"id":103,"name":"","type":"","rotation":0,"visible":true,"x":612.0,"y":340.0,"width":8.0,"height":12.0},{"id":104,"name":"","type":"","rotation":0,"visible":true,"x":868.0,"y":340.0,"width":8.0,"height":12.0},{"id":105,"name":"","type":"","rotation":0,"visible":true,"x":1092.0,"y":340.0,"width":8.0,"height":12.0},{"id":106,"name":"","type":"","rotation":0,"visible":true,"x":164.0,"y":420.0,"width":8.0,"height":12.0},{"id":107,"name":"","type":"","rotation":0,"visible":true,"x":516.0,"y":420.0,"width":8.0,"height":12.0},{"id":108,"name":"","type":"","rotation":0,"visible":true,"x":804.0,"y":420.0,"width":8.0,"height":12.0},{"id":109,"name":"","type":"","rotation":0,"visible":true,"x":996.0,"y":420.0,"width":8.0,"height":12.0},{"id":110,"name":"","type":"","rotation":0,"visible":true,"x":467.2,"y":356.8,"width":9.6,"height":11.2},{"id":111,"name":"","type":"","rotation":0,"visible":true,"x":547.2,"y":355.2,"width":9.6,"height":12.8},{"id":112,"name":"","type":"","rotation":0,"visible":true,"x":691.2,"y":356.8,"width":9.6,"height":11.2},{"id":113,"name":"","type":"","rotation":0,"visible":true,"x":483.2,"y":420.8,"width":9.6,"height":11.2},{"id":114,"name":"","type":"","rotation":0,"visible":true,"x":337.6,"y":356.8,"width":12.8,"height":11.2},{"id":115,"name":"","type":"","rotation":0,"visible":true,"x":673.6,"y":356.8,"width":12.8,"height":11.2},{"id":116,"name":"","type":"","rotation":0,"visible":true,"x":788.8,"y":436.8,"width":6.4,"height":11.2},{"id":117,"name":"","type":"","rotation":0,"visible":true,"x":709.6,"y":356.8,"width":4.8,"height":11.2},{"id":118,"name":"","type":"","rotation":0,"visible":true,"x":773.6,"y":356.8,"width":4.8,"height":11.2},{"id":119,"name":"","type":"","rotation":0,"visible":true,"x":709.6,"y":436.8,"width":4.8,"height":11.2},{"id":120,"name":"","type":"","rotation":0,"visible":true,"x":773.6,"y":436.8,"width":4.8,"height":11.2},{"id":121,"name":"","type":"","rotation":0,"visible":true,"x":325.6,"y":436.8,"width":4.8,"height":11.2},{"id":122,"name":"","type":"","rotation":0,"visible":true,"x":149.6,"y":436.8,"width":4.8,"height":11.2},{"id":123,"name":"","type":"","rotation":0,"visible":true,"x":245.6,"y":436.8,"width":4.8,"height":11.2},{"id":124,"name":"","type":"","rotation":0,"visible":true,"x":437.6,"y":436.8,"width":4.8,"height":11.2},{"id":125,"name":"","type":"","rotation":0,"visible":true,"x":533.6,"y":436.8,"width":4.8,"height":11.2},{"id":126,"name":"","type":"","rotation":0,"visible":true,"x":629.6,"y":436.8,"width":4.8,"height":11.2},{"id":127,"name":"","type":"","rotation":0,"visible":true,"x":821.6,"y":436.8,"width":4.8,"height":11.2},{"id":128,"name":"","type":"","rotation":0,"visible":true,"x":917.6,"y":436.8,"width":4.8,"height":11.2},{"id":129,"name":"","type":"","rotation":0,"visible":true,"x":1109.6,"y":436.8,"width":4.8,"height":11.2},{"id":130,"name":"","type":"","rotation":0,"visible":true,"x":0,"y":-16,"width":1200,"height":16},{"id":131,"name":"","type":"","rotation":0,"visible":true,"x":0,"y":800,"width":1200,"height":16},{"id":132,"name":"","type":"","rotation":0,"visible":true,"x":-16,"y":0,"width":16,"height":800},{"id":133,"name":"","type":"","rotation":0,"visible":true,"x":1200,"y":0,"width":16,"height":800},{"id":134,"name":"","type":"","rotation":0,"visible":true,"x":16,"y":16,"width":16,"height":16},{"id":135,"name":"","type":"","rotation":0,"visible":true,"x":48,"y":16,"width":16,"height":16},{"id":136,"name":"","type":"","rotation":0,"visible":true,"x":80,"y":16,"width":16,"height":16},{"id":137,"name":"","type":"","rotation":0,"visible":true,"x":112,"y":16,"width":16,"height":16},{"id":138,"name":"","type":"","rotation":0,"visible":true,"x":144,"y":16,"width":16,"height":16},{"id":139,"name":"","type":"","rotation":0,"visible":true,"x":176,"y":16,"width":16,"height":16},{"id":140,"name":"","type":"","rotation":0,"visible":true,"x":208,"y":16,"width":16,"height":16},{"id":141,"name":"","type":"","rotation":0,"visible":true,"x":240,"y":16,"width":16,"height":16},{"id":142,"name":"","type":"","rotation":0,"visible":true,"x":272,"y":16,"width":16,"height":16},{"id":143,"name":"","type":"","rotation":0,"visible":true,"x":304,"y":16,"width":16,"height":16},{"id":144,"name":"","type":"","rotation":0,"visible":true,"x":336,"y":16,"width":16,"height":16},{"id":145,"name":"","type":"","rotation":0,"visible":true,"x":368,"y":16,"width":16,"height":16},{"id":146,"name":"","type":"","rotation":0,"visible":true,"x":400,"y":16,"width":16,"height":16},{"id":147,"name":"","type":"","rotation":0,"visible":true,"x":432,"y":16,"width":16,"height":16},{"id":148,"name":"","type":"","rotation":0,"visible":true,"x":464,"y":16,"width":16,"height":16},{"id":149,"name":"","type":"","rotation":0,"visible":true,"x":496,"y":16,"width":16,"height":16},{"id":150,"name":"","type":"","rotation":0,"visible":true,"x":528,"y":16,"width":16,"height":16},{"id":151,"name":"","type":"","rotation":0,"visible":true,"x":560,"y":16,"width":16,"height":16},{"id":152,"name":"","type":"","rotation":0,"visible":true,"x":592,"y":16,"width":16,"height":16},{"id":153,"name":"","type":"","rotation":0,"visible":true,"x":624,"y":16,"width":16,"height":16},{"id":154,"name":"","type":"","rotation":0,"visible":true,"x":656,"y":16,"width":16,"height":16},{"id":155,"name":"","type":"","rotation":0,"visible":true,"x":688,"y":16,"width":16,"height":16},{"id":156,"name":"","type":"","rotation":0,"visible":true,"x":784,"y":16,"width":16,"height":16},{"id":157,"name":"","type":"","rotation":0,"visible":true,"x":816,"y":16,"width":16,"height":16},{"id":158,"name":"","type":"","rotation":0,"visible":true,"x":848,"y":16,"width":16,"height":16},{"id":159,"name":"","type":"","rotation":0,"visible":true,"x":880,"y":16,"width":16,"height":16},{"id":160,"name":"","type":"","rotation":0,"visible":true,"x":912,"y":16,"width":16,"height":16},{"id":161,"name":"","type":"","rotation":0,"visible":true,"x":944,"y":16,"width":16,"height":16},{"id":162,"name":"","type":"","rotation":0,"visible":true,"x":976,"y":16,"width":16,"height":16},{"id":163,"name":"","type":"","rotation":0,"visible":true,"x":1008,"y":16,"width":16,"height":16},{"id":164,"name":"","type":"","rotation":0,"visible":true,"x":1040,"y":16,"width":16,"height":16},{"id":165,"name":"","type":"","rotation":0,"visible":true,"x":1072,"y":16,"width":16,"height":16},{"id":166,"name":"","type":"","rotation":0,"visible":true,"x":1104,"y":16,"width":16,"height":16},{"id":167,"name":"","type":"","rotation":0,"visible":true,"x":1136,"y":16,"width":16,"height":16},{"id":168,"name":"","type":"","rotation":0,"visible":true,"x":1168,"y":16,"width":16,"height":16},{"id":169,"name":"","type":"","rotation":0,"visible":true,"x":832,"y":80,"width":16,"height":16},{"id":170,"name":"","type":"","rotation":0,"visible":true,"x":16,"y":784,"width":16,"height":16},{"id":171,"name":"","type":"","rotation":0,"visible":true,"x":48,"y":784,"width":16,"height":16},{"id":172,"name":"","type":"","rotation":0,"visible":true,"x":112,"y":784,"width":16,"height":16},{"id":173,"name":"","type":"","rotation":0,"visible":true,"x":144,"y":784,"width":16,"height":16},{"id":174,"name":"","type":"","rotation":0,"visible":true,"x":176,"y":784,"width":16,"height":16},{"id":175,"name":"","type":"","rotation":0,"visible":true,"x":240,"y":784,"width":16,"height":16},{"id":176,"name":"","type":"","rotation":0,"visible":true,"x":336,"y":784,"width":16,"height":16},{"id":177,"name":"","type":"","rotation":0,"visible":true,"x":432,"y":784,"width":16,"height":16},{"id":178,"name":"","type":"","rotation":0,"visible":true,"x":464,"y":784,"width":16,"height":16},{"id":179,"name":"","type":"","rotation":0,"visible":true,"x":496,"y":784,"width":16,"height":16},{"id":180,"name":"","type":"","rotation":0,"visible":true,"x":560,"y":784,"width":16,"height":16},{"id":181,"name":"","type":"","rotation":0,"visible":true,"x":592,"y":784,"width":16,"height":16},{"id":182,"name":"","type":"","rotation":0,"visible":true,"x":624,"y":784,"width":16,"height":16},{"id":183,"name":"","type":"","rotation":0,"visible":true,"x":656,"y":784,"width":16,"height":16},{"id":184,"name":"","type":"","rotation":0,"visible":true,"x":688,"y":784,"width":16,"height":16},{"id":185,"name":"","type":"","rotation":0,"visible":true,"x":784,"y":784,"width":16,"height":16},{"id":186,"name":"","type":"","rotation":0,"visible":true,"x":816,"y":784,"width":16,"height":16},{"id":187,"name":"","type":"","rotation":0,"visible":true,"x":848,"y":784,"width":16,"height":16},{"id":188,"name":"","type":"","rotation":0,"visible":true,"x":912,"y":784,"width":16,"height":16},{"id":189,"name":"","type":"","rotation":0,"visible":true,"x":944,"y":784,"width":16,"height":16},{"id":190,"name":"","type":"","rotation":0,"visible":true,"x":976,"y":784,"width":16,"height":16},{"id":191,"name":"","type":"","rotation":0,"visible":true,"x":1040,"y":784,"width":16,"height":16},{"id":192,"name":"","type":"","rotation":0,"visible":true,"x":1168,"y":784,"width":16,"height":16},{"id":193,"name":"","type":"","rotation":0,"visible":true,"x":16,"y":48,"width":16,"height":16},{"id":194,"name":"","type":"","rotation":0,"visible":true,"x":1168,"y":48,"width":16,"height":16},{"id":195,"name":"","type":"","rotation":0,"visible":true,"x":1168,"y":80,"width":16,"height":16},{"id":196,"name":"","type":"","rotation":0,"visible":true,"x":16,"y":112,"width":16,"height":16},{"id":197,"name":"","type":"","rotation":0,"visible":true,"x":1168,"y":112,"width":16,"height":16},{"id":198,"name":"","type":"","rotation":0,"visible":true,"x":16,"y":144,"width":16,"height":16},{"id":199,"name":"","type":"","rotation":0,"visible":true,"x":1168,"y":144,"width":16,"height":16},{"id":200,"name":"","type":"","rotation":0,"visible":true,"x":16,"y":176,"width":16,"height":16},{"id":201,"name":"","type":"","rotation":0,"visible":true,"x":16,"y":208,"width":16,"height":16},{"id":202,"name":"","type":"","rotation":0,"visible":true,"x":16,"y":240,"width":16,"height":16},{"id":203,"name":"","type":"","rotation":0,"visible":true,"x":1168,"y":240,"width":16,"height":16},{"id":204,"name":"","type":"","rotation":0,"visible":true,"x":16,"y":272,"width":16,"height":16},{"id":205,"name":"","type":"","rotation":0,"visible":true,"x":16,"y":304,"width":16,"height":16},{"id":206,"name":"","type":"","rotation":0,"visible":true,"x":16,"y":336,"width":16,"height":16},{"id":207,"name":"","type":"","rotation":0,"visible":true,"x":16,"y":432,"width":16,"height":16},{"id":208,"name":"","type":"","rotation":0,"visible":true,"x":1168,"y":432,"width":16,"height":16},{"id":209,"name":"","type":"","rotation":0,"visible":true,"x":16,"y":464,"width":16,"height":16},{"id":210,"name":"","type":"","rotation":0,"visible":true,"x":1168,"y":464,"width":16,"height":16},{"id":211,"name":"","type":"","rotation":0,"visible":true,"x":16,"y":496,"width":16,"height":16},{"id":212,"name":"","type":"","rotation":0,"visible":true,"x":1168,"y":496,"width":16,"height":16},{"id":213,"name":"","type":"","rotation":0,"visible":true,"x":16,"y":528,"width":16,"height":16},{"id":214,"name":"","type":"","rotation":0,"visible":true,"x":1168,"y":528,"width":16,"height":16},{"id":215,"name":"","type":"","rotation":0,"visible":true,"x":1168,"y":560,"width":16,"height":16},{"id":216,"name":"","type":"","rotation":0,"visible":true,"x":1168,"y":592,"width":16,"height":16},{"id":217,"name":"","type":"","rotation":0,"visible":true,"x":16,"y":624,"width":16,"height":16},{"id":218,"name":"","type":"","rotation":0,"visible":true,"x":1168,"y":624,"width":16,"height":16},{"id":219,"name":"","type":"","rotation":0,"visible":true,"x":16,"y":656,"width":16,"height":16},{"id":220,"name":"","type":"","rotation":0,"visible":true,"x":1168,"y":656,"width":16,"height":16},{"id":221,"name":"","type":"","rotation":0,"visible":true,"x":16,"y":752,"width":16,"height":16},{"id":222,"name":"","type":"","rotation":0,"visible":true,"x":1168,"y":752,"width":16,"height":16},{"id":223,"name":"","type":"","rotation":0,"visible":true,"x":69.6,"y":436.8,"width":4.8,"height":11.2},{"id":224,"name":"","type":"","rotation":0,"visible":true,"x":1157.6,"y":436.8,"width":4.8,"height":11.2},{"id":225,"name":"","type":"","rotation":0,"visible":true,"x":773.6,"y":36.8,"width":4.8,"height":11.2},{"id":226,"name":"","type":"","rotation":0,"visible":true,"x":709.6,"y":756.8,"width":4.8,"height":11.2},{"id":227,"name":"","type":"","rotation":0,"visible":true,"x":261.6,"y":756.8,"width":4.8,"height":11.2},{"id":228,"name":"","type":"","rotation":0,"visible":true,"x":228.8,"y":215.2,"width":6.4,"height":8.0},{"id":229,"name":"","type":"","rotation":0,"visible":true,"x":228.8,"y":199.2,"width":6.4,"height":8.0},{"id":230,"name":"","type":"","rotation":0,"visible":true,"x":228.8,"y":215.2,"width":6.4,"height":8.0},{"id":231,"name":"","type":"","rotation":0,"visible":true,"x":228.8,"y":199.2,"width":6.4,"height":8.0}]},{"id":7,"name":"anchors","type":"objectgroup","visible":true,"opacity":1,"x":0,"y":0,"draworder":"topdown","objects":[{"id":232,"name":"","type":"","rotation":0,"point":true,"visible":true,"x":88.0,"y":250.4,"width":0,"height":0,"properties":[{"name":"kind","type":"string","value":"smoke"},{"name":"mode","type":"string","value":"hearth"}]},{"id":233,"name":"","type":"","rotation":0,"point":true,"visible":true,"x":328.0,"y":250.4,"width":0,"height":0,"properties":[{"name":"kind","type":"string","value":"smoke"},{"name":"mode","type":"string","value":"hearth"}]},{"id":234,"name":"","type":"","rotation":0,"point":true,"visible":true,"x":424.0,"y":250.4,"width":0,"height":0,"properties":[{"name":"kind","type":"string","value":"smoke"},{"name":"mode","type":"string","value":"hearth"}]},{"id":235,"name":"","type":"","rotation":0,"point":true,"visible":true,"x":1040.0,"y":176.0,"width":0,"height":0,"properties":[{"name":"kind","type":"string","value":"smoke"}]},{"id":236,"name":"","type":"","rotation":0,"point":true,"visible":true,"x":200.0,"y":90.4,"width":0,"height":0,"properties":[{"name":"kind","type":"string","value":"smoke"},{"name":"mode","type":"string","value":"hearth"}]},{"id":237,"name":"","type":"","rotation":0,"point":true,"visible":true,"x":312.0,"y":90.4,"width":0,"height":0,"properties":[{"name":"kind","type":"string","value":"smoke"},{"name":"mode","type":"string","value":"hearth"}]},{"id":238,"name":"","type":"","rotation":0,"point":true,"visible":true,"x":424.0,"y":90.4,"width":0,"height":0,"properties":[{"name":"kind","type":"string","value":"smoke"},{"name":"mode","type":"string","value":"hearth"}]},{"id":239,"name":"","type":"","rotation":0,"point":true,"visible":true,"x":584.0,"y":90.4,"width":0,"height":0,"properties":[{"name":"kind","type":"string","value":"smoke"},{"name":"mode","type":"string","value":"hearth"}]},{"id":240,"name":"","type":"","rotation":0,"point":true,"visible":true,"x":1144.0,"y":42.4,"width":0,"height":0,"properties":[{"name":"kind","type":"string","value":"smoke"},{"name":"mode","type":"string","value":"hearth"}]},{"id":241,"name":"","type":"","rotation":0,"point":true,"visible":true,"x":856.0,"y":442.4,"width":0,"height":0,"properties":[{"name":"kind","type":"string","value":"smoke"},{"name":"mode","type":"string","value":"hearth"}]},{"id":242,"name":"","type":"","rotation":0,"point":true,"visible":true,"x":936.0,"y":442.4,"width":0,"height":0,"properties":[{"name":"kind","type":"string","value":"smoke"},{"name":"mode","type":"string","value":"hearth"}]},{"id":243,"name":"","type":"","rotation":0,"point":true,"visible":true,"x":1016.0,"y":442.4,"width":0,"height":0,"properties":[{"name":"kind","type":"string","value":"smoke"},{"name":"mode","type":"string","value":"hearth"}]},{"id":244,"name":"","type":"","rotation":0,"point":true,"visible":true,"x":1128.0,"y":442.4,"width":0,"height":0,"properties":[{"name":"kind","type":"string","value":"smoke"},{"name":"mode","type":"string","value":"hearth"}]},{"id":245,"name":"","type":"","rotation":0,"point":true,"visible":true,"x":72.0,"y":624.0,"width":0,"height":0,"properties":[{"name":"kind","type":"string","value":"lamp"}]},{"id":246,"name":"","type":"","rotation":0,"point":true,"visible":true,"x":248.0,"y":624.0,"width":0,"height":0,"properties":[{"name":"kind","type":"string","value":"lamp"}]},{"id":247,"name":"","type":"","rotation":0,"point":true,"visible":true,"x":328.0,"y":464.0,"width":0,"height":0,"properties":[{"name":"kind","type":"string","value":"lamp"}]},{"id":248,"name":"","type":"","rotation":0,"point":true,"visible":true,"x":472.0,"y":448.0,"width":0,"height":0,"properties":[{"name":"kind","type":"string","value":"lamp"}]},{"id":249,"name":"","type":"","rotation":0,"point":true,"visible":true,"x":1160.0,"y":208.0,"width":0,"height":0,"properties":[{"name":"kind","type":"string","value":"tree"},{"name":"stamp","type":"string","value":"tree_round_small"}]},{"id":250,"name":"Town Park","type":"","rotation":0,"point":true,"visible":true,"x":528.0,"y":592.0,"width":0,"height":0,"properties":[{"name":"kind","type":"string","value":"noticeboard"}]},{"id":251,"name":"","type":"","rotation":0,"point":true,"visible":true,"x":440.0,"y":592.0,"width":0,"height":0,"properties":[{"name":"kind","type":"string","value":"tree"},{"name":"stamp","type":"string","value":"tree_round_small"}]},{"id":252,"name":"","type":"","rotation":0,"point":true,"visible":true,"x":568.0,"y":592.0,"width":0,"height":0,"properties":[{"name":"kind","type":"string","value":"tree"},{"name":"stamp","type":"string","value":"tree_round_small"}]},{"id":253,"name":"","type":"","rotation":0,"point":true,"visible":true,"x":392.0,"y":656.0,"width":0,"height":0,"properties":[{"name":"kind","type":"string","value":"tree"},{"name":"stamp","type":"string","value":"tree_fruit_a"}]},{"id":254,"name":"","type":"","rotation":0,"point":true,"visible":true,"x":408.0,"y":624.0,"width":0,"height":0,"properties":[{"name":"kind","type":"string","value":"flower"}]},{"id":255,"name":"","type":"","rotation":0,"point":true,"visible":true,"x":424.0,"y":672.0,"width":0,"height":0,"properties":[{"name":"kind","type":"string","value":"lamp"}]},{"id":256,"name":"","type":"","rotation":0,"point":true,"visible":true,"x":584.0,"y":608.0,"width":0,"height":0,"properties":[{"name":"kind","type":"string","value":"lamp"}]},{"id":257,"name":"","type":"","rotation":0,"point":true,"visible":true,"x":872.0,"y":624.0,"width":0,"height":0,"properties":[{"name":"kind","type":"string","value":"water-foam"}]},{"id":258,"name":"","type":"","rotation":0,"point":true,"visible":true,"x":792.0,"y":544.0,"width":0,"height":0,"properties":[{"name":"kind","type":"string","value":"lamp"}]},{"id":259,"name":"","type":"","rotation":0,"point":true,"visible":true,"x":1064.0,"y":544.0,"width":0,"height":0,"properties":[{"name":"kind","type":"string","value":"lamp"}]},{"id":260,"name":"","type":"","rotation":0,"point":true,"visible":true,"x":936.0,"y":656.0,"width":0,"height":0,"properties":[{"name":"kind","type":"string","value":"lamp"}]},{"id":261,"name":"","type":"","rotation":0,"point":true,"visible":true,"x":1128.0,"y":656.0,"width":0,"height":0,"properties":[{"name":"kind","type":"string","value":"lamp"}]},{"id":262,"name":"","type":"","rotation":0,"point":true,"visible":true,"x":40.0,"y":96.0,"width":0,"height":0,"properties":[{"name":"kind","type":"string","value":"tree"},{"name":"stamp","type":"string","value":"tree_dark"}]},{"id":263,"name":"","type":"","rotation":0,"point":true,"visible":true,"x":120.0,"y":80.0,"width":0,"height":0,"properties":[{"name":"kind","type":"string","value":"tree"},{"name":"stamp","type":"string","value":"tree_dark"}]},{"id":264,"name":"","type":"","rotation":0,"point":true,"visible":true,"x":456.0,"y":80.0,"width":0,"height":0,"properties":[{"name":"kind","type":"string","value":"tree"},{"name":"stamp","type":"string","value":"tree_dark"}]},{"id":265,"name":"","type":"","rotation":0,"point":true,"visible":true,"x":584.0,"y":64.0,"width":0,"height":0,"properties":[{"name":"kind","type":"string","value":"tree"},{"name":"stamp","type":"string","value":"tree_light"}]},{"id":266,"name":"","type":"","rotation":0,"point":true,"visible":true,"x":488.0,"y":64.0,"width":0,"height":0,"properties":[{"name":"kind","type":"string","value":"tree"},{"name":"stamp","type":"string","value":"tree_light"}]},{"id":267,"name":"","type":"","rotation":0,"point":true,"visible":true,"x":664.0,"y":64.0,"width":0,"height":0,"properties":[{"name":"kind","type":"string","value":"tree"},{"name":"stamp","type":"string","value":"tree_light"}]},{"id":268,"name":"","type":"","rotation":0,"point":true,"visible":true,"x":56.0,"y":496.0,"width":0,"height":0,"properties":[{"name":"kind","type":"string","value":"tree"},{"name":"stamp","type":"string","value":"tree_dark"}]},{"id":269,"name":"","type":"","rotation":0,"point":true,"visible":true,"x":104.0,"y":464.0,"width":0,"height":0,"properties":[{"name":"kind","type":"string","value":"tree"},{"name":"stamp","type":"string","value":"tree_light"}]},{"id":270,"name":"","type":"","rotation":0,"point":true,"visible":true,"x":40.0,"y":592.0,"width":0,"height":0,"properties":[{"name":"kind","type":"string","value":"tree"},{"name":"stamp","type":"string","value":"tree_dark"}]},{"id":271,"name":"","type":"","rotation":0,"point":true,"visible":true,"x":152.0,"y":480.0,"width":0,"height":0,"properties":[{"name":"kind","type":"string","value":"tree"},{"name":"stamp","type":"string","value":"tree_light"}]},{"id":272,"name":"","type":"","rotation":0,"point":true,"visible":true,"x":88.0,"y":800.0,"width":0,"height":0,"properties":[{"name":"kind","type":"string","value":"tree"},{"name":"stamp","type":"string","value":"tree_round_small"}]},{"id":273,"name":"","type":"","rotation":0,"point":true,"visible":true,"x":392.0,"y":800.0,"width":0,"height":0,"properties":[{"name":"kind","type":"string","value":"tree"},{"name":"stamp","type":"string","value":"tree_round_small"}]},{"id":274,"name":"","type":"","rotation":0,"point":true,"visible":true,"x":888.0,"y":800.0,"width":0,"height":0,"properties":[{"name":"kind","type":"string","value":"tree"},{"name":"stamp","type":"string","value":"tree_round_small"}]},{"id":275,"name":"","type":"","rotation":0,"point":true,"visible":true,"x":1128.0,"y":800.0,"width":0,"height":0,"properties":[{"name":"kind","type":"string","value":"tree"},{"name":"stamp","type":"string","value":"tree_round_small"}]},{"id":276,"name":"","type":"","rotation":0,"point":true,"visible":true,"x":120.0,"y":352.0,"width":0,"height":0,"properties":[{"name":"kind","type":"string","value":"lamp"}]},{"id":277,"name":"","type":"","rotation":0,"point":true,"visible":true,"x":424.0,"y":352.0,"width":0,"height":0,"properties":[{"name":"kind","type":"string","value":"lamp"}]},{"id":278,"name":"","type":"","rotation":0,"point":true,"visible":true,"x":616.0,"y":352.0,"width":0,"height":0,"properties":[{"name":"kind","type":"string","value":"lamp"}]},{"id":279,"name":"","type":"","rotation":0,"point":true,"visible":true,"x":872.0,"y":352.0,"width":0,"height":0,"properties":[{"name":"kind","type":"string","value":"lamp"}]},{"id":280,"name":"","type":"","rotation":0,"point":true,"visible":true,"x":1096.0,"y":352.0,"width":0,"height":0,"properties":[{"name":"kind","type":"string","value":"lamp"}]},{"id":281,"name":"","type":"","rotation":0,"point":true,"visible":true,"x":168.0,"y":432.0,"width":0,"height":0,"properties":[{"name":"kind","type":"string","value":"lamp"}]},{"id":282,"name":"","type":"","rotation":0,"point":true,"visible":true,"x":520.0,"y":432.0,"width":0,"height":0,"properties":[{"name":"kind","type":"string","value":"lamp"}]},{"id":283,"name":"","type":"","rotation":0,"point":true,"visible":true,"x":808.0,"y":432.0,"width":0,"height":0,"properties":[{"name":"kind","type":"string","value":"lamp"}]},{"id":284,"name":"","type":"","rotation":0,"point":true,"visible":true,"x":1000.0,"y":432.0,"width":0,"height":0,"properties":[{"name":"kind","type":"string","value":"lamp"}]},{"id":285,"name":"","type":"","rotation":0,"point":true,"visible":true,"x":712.0,"y":344.0,"width":0,"height":0,"properties":[{"name":"axis","type":"string","value":"v"},{"name":"kind","type":"string","value":"signal"}]},{"id":286,"name":"","type":"","rotation":0,"point":true,"visible":true,"x":776.0,"y":344.0,"width":0,"height":0,"properties":[{"name":"axis","type":"string","value":"h"},{"name":"kind","type":"string","value":"signal"}]},{"id":287,"name":"","type":"","rotation":0,"point":true,"visible":true,"x":712.0,"y":424.0,"width":0,"height":0,"properties":[{"name":"axis","type":"string","value":"h"},{"name":"kind","type":"string","value":"signal"}]},{"id":288,"name":"","type":"","rotation":0,"point":true,"visible":true,"x":776.0,"y":424.0,"width":0,"height":0,"properties":[{"name":"axis","type":"string","value":"v"},{"name":"kind","type":"string","value":"signal"}]},{"id":289,"name":"","type":"","rotation":0,"point":true,"visible":true,"x":24.0,"y":32.0,"width":0,"height":0,"properties":[{"name":"kind","type":"string","value":"tree"},{"name":"stamp","type":"string","value":"tree_round_small"}]},{"id":290,"name":"","type":"","rotation":0,"point":true,"visible":true,"x":56.0,"y":32.0,"width":0,"height":0,"properties":[{"name":"kind","type":"string","value":"tree"},{"name":"stamp","type":"string","value":"tree_round_small"}]},{"id":291,"name":"","type":"","rotation":0,"point":true,"visible":true,"x":88.0,"y":32.0,"width":0,"height":0,"properties":[{"name":"kind","type":"string","value":"tree"},{"name":"stamp","type":"string","value":"tree_round_small"}]},{"id":292,"name":"","type":"","rotation":0,"point":true,"visible":true,"x":120.0,"y":32.0,"width":0,"height":0,"properties":[{"name":"kind","type":"string","value":"tree"},{"name":"stamp","type":"string","value":"tree_round_small"}]},{"id":293,"name":"","type":"","rotation":0,"point":true,"visible":true,"x":152.0,"y":32.0,"width":0,"height":0,"properties":[{"name":"kind","type":"string","value":"tree"},{"name":"stamp","type":"string","value":"tree_round_small"}]},{"id":294,"name":"","type":"","rotation":0,"point":true,"visible":true,"x":184.0,"y":32.0,"width":0,"height":0,"properties":[{"name":"kind","type":"string","value":"tree"},{"name":"stamp","type":"string","value":"tree_round_small"}]},{"id":295,"name":"","type":"","rotation":0,"point":true,"visible":true,"x":216.0,"y":32.0,"width":0,"height":0,"properties":[{"name":"kind","type":"string","value":"tree"},{"name":"stamp","type":"string","value":"tree_round_small"}]},{"id":296,"name":"","type":"","rotation":0,"point":true,"visible":true,"x":248.0,"y":32.0,"width":0,"height":0,"properties":[{"name":"kind","type":"string","value":"tree"},{"name":"stamp","type":"string","value":"tree_round_small"}]},{"id":297,"name":"","type":"","rotation":0,"point":true,"visible":true,"x":280.0,"y":32.0,"width":0,"height":0,"properties":[{"name":"kind","type":"string","value":"tree"},{"name":"stamp","type":"string","value":"tree_round_small"}]},{"id":298,"name":"","type":"","rotation":0,"point":true,"visible":true,"x":312.0,"y":32.0,"width":0,"height":0,"properties":[{"name":"kind","type":"string","value":"tree"},{"name":"stamp","type":"string","value":"tree_round_small"}]},{"id":299,"name":"","type":"","rotation":0,"point":true,"visible":true,"x":344.0,"y":32.0,"width":0,"height":0,"properties":[{"name":"kind","type":"string","value":"tree"},{"name":"stamp","type":"string","value":"tree_round_small"}]},{"id":300,"name":"","type":"","rotation":0,"point":true,"visible":true,"x":376.0,"y":32.0,"width":0,"height":0,"properties":[{"name":"kind","type":"string","value":"tree"},{"name":"stamp","type":"string","value":"tree_round_small"}]},{"id":301,"name":"","type":"","rotation":0,"point":true,"visible":true,"x":408.0,"y":32.0,"width":0,"height":0,"properties":[{"name":"kind","type":"string","value":"tree"},{"name":"stamp","type":"string","value":"tree_round_small"}]},{"id":302,"name":"","type":"","rotation":0,"point":true,"visible":true,"x":440.0,"y":32.0,"width":0,"height":0,"properties":[{"name":"kind","type":"string","value":"tree"},{"name":"stamp","type":"string","value":"tree_round_small"}]},{"id":303,"name":"","type":"","rotation":0,"point":true,"visible":true,"x":472.0,"y":32.0,"width":0,"height":0,"properties":[{"name":"kind","type":"string","value":"tree"},{"name":"stamp","type":"string","value":"tree_round_small"}]},{"id":304,"name":"","type":"","rotation":0,"point":true,"visible":true,"x":504.0,"y":32.0,"width":0,"height":0,"properties":[{"name":"kind","type":"string","value":"tree"},{"name":"stamp","type":"string","value":"tree_round_small"}]},{"id":305,"name":"","type":"","rotation":0,"point":true,"visible":true,"x":536.0,"y":32.0,"width":0,"height":0,"properties":[{"name":"kind","type":"string","value":"tree"},{"name":"stamp","type":"string","value":"tree_round_small"}]},{"id":306,"name":"","type":"","rotation":0,"point":true,"visible":true,"x":568.0,"y":32.0,"width":0,"height":0,"properties":[{"name":"kind","type":"string","value":"tree"},{"name":"stamp","type":"string","value":"tree_round_small"}]},{"id":307,"name":"","type":"","rotation":0,"point":true,"visible":true,"x":600.0,"y":32.0,"width":0,"height":0,"properties":[{"name":"kind","type":"string","value":"tree"},{"name":"stamp","type":"string","value":"tree_round_small"}]},{"id":308,"name":"","type":"","rotation":0,"point":true,"visible":true,"x":632.0,"y":32.0,"width":0,"height":0,"properties":[{"name":"kind","type":"string","value":"tree"},{"name":"stamp","type":"string","value":"tree_round_small"}]},{"id":309,"name":"","type":"","rotation":0,"point":true,"visible":true,"x":664.0,"y":32.0,"width":0,"height":0,"properties":[{"name":"kind","type":"string","value":"tree"},{"name":"stamp","type":"string","value":"tree_round_small"}]},{"id":310,"name":"","type":"","rotation":0,"point":true,"visible":true,"x":696.0,"y":32.0,"width":0,"height":0,"properties":[{"name":"kind","type":"string","value":"tree"},{"name":"stamp","type":"string","value":"tree_round_small"}]},{"id":311,"name":"","type":"","rotation":0,"point":true,"visible":true,"x":792.0,"y":32.0,"width":0,"height":0,"properties":[{"name":"kind","type":"string","value":"tree"},{"name":"stamp","type":"string","value":"tree_round_small"}]},{"id":312,"name":"","type":"","rotation":0,"point":true,"visible":true,"x":824.0,"y":32.0,"width":0,"height":0,"properties":[{"name":"kind","type":"string","value":"tree"},{"name":"stamp","type":"string","value":"tree_round_small"}]},{"id":313,"name":"","type":"","rotation":0,"point":true,"visible":true,"x":856.0,"y":32.0,"width":0,"height":0,"properties":[{"name":"kind","type":"string","value":"tree"},{"name":"stamp","type":"string","value":"tree_round_small"}]},{"id":314,"name":"","type":"","rotation":0,"point":true,"visible":true,"x":888.0,"y":32.0,"width":0,"height":0,"properties":[{"name":"kind","type":"string","value":"tree"},{"name":"stamp","type":"string","value":"tree_round_small"}]},{"id":315,"name":"","type":"","rotation":0,"point":true,"visible":true,"x":920.0,"y":32.0,"width":0,"height":0,"properties":[{"name":"kind","type":"string","value":"tree"},{"name":"stamp","type":"string","value":"tree_round_small"}]},{"id":316,"name":"","type":"","rotation":0,"point":true,"visible":true,"x":952.0,"y":32.0,"width":0,"height":0,"properties":[{"name":"kind","type":"string","value":"tree"},{"name":"stamp","type":"string","value":"tree_round_small"}]},{"id":317,"name":"","type":"","rotation":0,"point":true,"visible":true,"x":984.0,"y":32.0,"width":0,"height":0,"properties":[{"name":"kind","type":"string","value":"tree"},{"name":"stamp","type":"string","value":"tree_round_small"}]},{"id":318,"name":"","type":"","rotation":0,"point":true,"visible":true,"x":1016.0,"y":32.0,"width":0,"height":0,"properties":[{"name":"kind","type":"string","value":"tree"},{"name":"stamp","type":"string","value":"tree_round_small"}]},{"id":319,"name":"","type":"","rotation":0,"point":true,"visible":true,"x":1048.0,"y":32.0,"width":0,"height":0,"properties":[{"name":"kind","type":"string","value":"tree"},{"name":"stamp","type":"string","value":"tree_round_small"}]},{"id":320,"name":"","type":"","rotation":0,"point":true,"visible":true,"x":1080.0,"y":32.0,"width":0,"height":0,"properties":[{"name":"kind","type":"string","value":"tree"},{"name":"stamp","type":"string","value":"tree_round_small"}]},{"id":321,"name":"","type":"","rotation":0,"point":true,"visible":true,"x":1112.0,"y":32.0,"width":0,"height":0,"properties":[{"name":"kind","type":"string","value":"tree"},{"name":"stamp","type":"string","value":"tree_round_small"}]},{"id":322,"name":"","type":"","rotation":0,"point":true,"visible":true,"x":1144.0,"y":32.0,"width":0,"height":0,"properties":[{"name":"kind","type":"string","value":"tree"},{"name":"stamp","type":"string","value":"tree_round_small"}]},{"id":323,"name":"","type":"","rotation":0,"point":true,"visible":true,"x":1176.0,"y":32.0,"width":0,"height":0,"properties":[{"name":"kind","type":"string","value":"tree"},{"name":"stamp","type":"string","value":"tree_round_small"}]},{"id":324,"name":"","type":"","rotation":0,"point":true,"visible":true,"x":840.0,"y":96.0,"width":0,"height":0,"properties":[{"name":"kind","type":"string","value":"tree"},{"name":"stamp","type":"string","value":"tree_dark"}]},{"id":325,"name":"","type":"","rotation":0,"point":true,"visible":true,"x":24.0,"y":800.0,"width":0,"height":0,"properties":[{"name":"kind","type":"string","value":"tree"},{"name":"stamp","type":"string","value":"tree_round_small"}]},{"id":326,"name":"","type":"","rotation":0,"point":true,"visible":true,"x":56.0,"y":800.0,"width":0,"height":0,"properties":[{"name":"kind","type":"string","value":"tree"},{"name":"stamp","type":"string","value":"tree_round_small"}]},{"id":327,"name":"","type":"","rotation":0,"point":true,"visible":true,"x":120.0,"y":800.0,"width":0,"height":0,"properties":[{"name":"kind","type":"string","value":"tree"},{"name":"stamp","type":"string","value":"tree_round_small"}]},{"id":328,"name":"","type":"","rotation":0,"point":true,"visible":true,"x":152.0,"y":800.0,"width":0,"height":0,"properties":[{"name":"kind","type":"string","value":"tree"},{"name":"stamp","type":"string","value":"tree_round_small"}]},{"id":329,"name":"","type":"","rotation":0,"point":true,"visible":true,"x":184.0,"y":800.0,"width":0,"height":0,"properties":[{"name":"kind","type":"string","value":"tree"},{"name":"stamp","type":"string","value":"tree_round_small"}]},{"id":330,"name":"","type":"","rotation":0,"point":true,"visible":true,"x":248.0,"y":800.0,"width":0,"height":0,"properties":[{"name":"kind","type":"string","value":"tree"},{"name":"stamp","type":"string","value":"tree_round_small"}]},{"id":331,"name":"","type":"","rotation":0,"point":true,"visible":true,"x":344.0,"y":800.0,"width":0,"height":0,"properties":[{"name":"kind","type":"string","value":"tree"},{"name":"stamp","type":"string","value":"tree_round_small"}]},{"id":332,"name":"","type":"","rotation":0,"point":true,"visible":true,"x":440.0,"y":800.0,"width":0,"height":0,"properties":[{"name":"kind","type":"string","value":"tree"},{"name":"stamp","type":"string","value":"tree_round_small"}]},{"id":333,"name":"","type":"","rotation":0,"point":true,"visible":true,"x":472.0,"y":800.0,"width":0,"height":0,"properties":[{"name":"kind","type":"string","value":"tree"},{"name":"stamp","type":"string","value":"tree_round_small"}]},{"id":334,"name":"","type":"","rotation":0,"point":true,"visible":true,"x":504.0,"y":800.0,"width":0,"height":0,"properties":[{"name":"kind","type":"string","value":"tree"},{"name":"stamp","type":"string","value":"tree_round_small"}]},{"id":335,"name":"","type":"","rotation":0,"point":true,"visible":true,"x":568.0,"y":800.0,"width":0,"height":0,"properties":[{"name":"kind","type":"string","value":"tree"},{"name":"stamp","type":"string","value":"tree_round_small"}]},{"id":336,"name":"","type":"","rotation":0,"point":true,"visible":true,"x":600.0,"y":800.0,"width":0,"height":0,"properties":[{"name":"kind","type":"string","value":"tree"},{"name":"stamp","type":"string","value":"tree_round_small"}]},{"id":337,"name":"","type":"","rotation":0,"point":true,"visible":true,"x":632.0,"y":800.0,"width":0,"height":0,"properties":[{"name":"kind","type":"string","value":"tree"},{"name":"stamp","type":"string","value":"tree_round_small"}]},{"id":338,"name":"","type":"","rotation":0,"point":true,"visible":true,"x":664.0,"y":800.0,"width":0,"height":0,"properties":[{"name":"kind","type":"string","value":"tree"},{"name":"stamp","type":"string","value":"tree_round_small"}]},{"id":339,"name":"","type":"","rotation":0,"point":true,"visible":true,"x":696.0,"y":800.0,"width":0,"height":0,"properties":[{"name":"kind","type":"string","value":"tree"},{"name":"stamp","type":"string","value":"tree_round_small"}]},{"id":340,"name":"","type":"","rotation":0,"point":true,"visible":true,"x":792.0,"y":800.0,"width":0,"height":0,"properties":[{"name":"kind","type":"string","value":"tree"},{"name":"stamp","type":"string","value":"tree_round_small"}]},{"id":341,"name":"","type":"","rotation":0,"point":true,"visible":true,"x":824.0,"y":800.0,"width":0,"height":0,"properties":[{"name":"kind","type":"string","value":"tree"},{"name":"stamp","type":"string","value":"tree_round_small"}]},{"id":342,"name":"","type":"","rotation":0,"point":true,"visible":true,"x":856.0,"y":800.0,"width":0,"height":0,"properties":[{"name":"kind","type":"string","value":"tree"},{"name":"stamp","type":"string","value":"tree_round_small"}]},{"id":343,"name":"","type":"","rotation":0,"point":true,"visible":true,"x":920.0,"y":800.0,"width":0,"height":0,"properties":[{"name":"kind","type":"string","value":"tree"},{"name":"stamp","type":"string","value":"tree_round_small"}]},{"id":344,"name":"","type":"","rotation":0,"point":true,"visible":true,"x":952.0,"y":800.0,"width":0,"height":0,"properties":[{"name":"kind","type":"string","value":"tree"},{"name":"stamp","type":"string","value":"tree_round_small"}]},{"id":345,"name":"","type":"","rotation":0,"point":true,"visible":true,"x":984.0,"y":800.0,"width":0,"height":0,"properties":[{"name":"kind","type":"string","value":"tree"},{"name":"stamp","type":"string","value":"tree_round_small"}]},{"id":346,"name":"","type":"","rotation":0,"point":true,"visible":true,"x":1048.0,"y":800.0,"width":0,"height":0,"properties":[{"name":"kind","type":"string","value":"tree"},{"name":"stamp","type":"string","value":"tree_round_small"}]},{"id":347,"name":"","type":"","rotation":0,"point":true,"visible":true,"x":1176.0,"y":800.0,"width":0,"height":0,"properties":[{"name":"kind","type":"string","value":"tree"},{"name":"stamp","type":"string","value":"tree_round_small"}]},{"id":348,"name":"","type":"","rotation":0,"point":true,"visible":true,"x":24.0,"y":64.0,"width":0,"height":0,"properties":[{"name":"kind","type":"string","value":"tree"},{"name":"stamp","type":"string","value":"tree_round_small"}]},{"id":349,"name":"","type":"","rotation":0,"point":true,"visible":true,"x":1176.0,"y":64.0,"width":0,"height":0,"properties":[{"name":"kind","type":"string","value":"tree"},{"name":"stamp","type":"string","value":"tree_round_small"}]},{"id":350,"name":"","type":"","rotation":0,"point":true,"visible":true,"x":1176.0,"y":96.0,"width":0,"height":0,"properties":[{"name":"kind","type":"string","value":"tree"},{"name":"stamp","type":"string","value":"tree_round_small"}]},{"id":351,"name":"","type":"","rotation":0,"point":true,"visible":true,"x":24.0,"y":128.0,"width":0,"height":0,"properties":[{"name":"kind","type":"string","value":"tree"},{"name":"stamp","type":"string","value":"tree_round_small"}]},{"id":352,"name":"","type":"","rotation":0,"point":true,"visible":true,"x":1176.0,"y":128.0,"width":0,"height":0,"properties":[{"name":"kind","type":"string","value":"tree"},{"name":"stamp","type":"string","value":"tree_round_small"}]},{"id":353,"name":"","type":"","rotation":0,"point":true,"visible":true,"x":24.0,"y":160.0,"width":0,"height":0,"properties":[{"name":"kind","type":"string","value":"tree"},{"name":"stamp","type":"string","value":"tree_round_small"}]},{"id":354,"name":"","type":"","rotation":0,"point":true,"visible":true,"x":1176.0,"y":160.0,"width":0,"height":0,"properties":[{"name":"kind","type":"string","value":"tree"},{"name":"stamp","type":"string","value":"tree_round_small"}]},{"id":355,"name":"","type":"","rotation":0,"point":true,"visible":true,"x":24.0,"y":192.0,"width":0,"height":0,"properties":[{"name":"kind","type":"string","value":"tree"},{"name":"stamp","type":"string","value":"tree_round_small"}]},{"id":356,"name":"","type":"","rotation":0,"point":true,"visible":true,"x":24.0,"y":224.0,"width":0,"height":0,"properties":[{"name":"kind","type":"string","value":"tree"},{"name":"stamp","type":"string","value":"tree_round_small"}]},{"id":357,"name":"","type":"","rotation":0,"point":true,"visible":true,"x":24.0,"y":256.0,"width":0,"height":0,"properties":[{"name":"kind","type":"string","value":"tree"},{"name":"stamp","type":"string","value":"tree_round_small"}]},{"id":358,"name":"","type":"","rotation":0,"point":true,"visible":true,"x":1176.0,"y":256.0,"width":0,"height":0,"properties":[{"name":"kind","type":"string","value":"tree"},{"name":"stamp","type":"string","value":"tree_round_small"}]},{"id":359,"name":"","type":"","rotation":0,"point":true,"visible":true,"x":24.0,"y":288.0,"width":0,"height":0,"properties":[{"name":"kind","type":"string","value":"tree"},{"name":"stamp","type":"string","value":"tree_round_small"}]},{"id":360,"name":"","type":"","rotation":0,"point":true,"visible":true,"x":24.0,"y":320.0,"width":0,"height":0,"properties":[{"name":"kind","type":"string","value":"tree"},{"name":"stamp","type":"string","value":"tree_round_small"}]},{"id":361,"name":"","type":"","rotation":0,"point":true,"visible":true,"x":24.0,"y":352.0,"width":0,"height":0,"properties":[{"name":"kind","type":"string","value":"tree"},{"name":"stamp","type":"string","value":"tree_round_small"}]},{"id":362,"name":"","type":"","rotation":0,"point":true,"visible":true,"x":24.0,"y":448.0,"width":0,"height":0,"properties":[{"name":"kind","type":"string","value":"tree"},{"name":"stamp","type":"string","value":"tree_round_small"}]},{"id":363,"name":"","type":"","rotation":0,"point":true,"visible":true,"x":1176.0,"y":448.0,"width":0,"height":0,"properties":[{"name":"kind","type":"string","value":"tree"},{"name":"stamp","type":"string","value":"tree_round_small"}]},{"id":364,"name":"","type":"","rotation":0,"point":true,"visible":true,"x":24.0,"y":480.0,"width":0,"height":0,"properties":[{"name":"kind","type":"string","value":"tree"},{"name":"stamp","type":"string","value":"tree_round_small"}]},{"id":365,"name":"","type":"","rotation":0,"point":true,"visible":true,"x":1176.0,"y":480.0,"width":0,"height":0,"properties":[{"name":"kind","type":"string","value":"tree"},{"name":"stamp","type":"string","value":"tree_round_small"}]},{"id":366,"name":"","type":"","rotation":0,"point":true,"visible":true,"x":24.0,"y":512.0,"width":0,"height":0,"properties":[{"name":"kind","type":"string","value":"tree"},{"name":"stamp","type":"string","value":"tree_round_small"}]},{"id":367,"name":"","type":"","rotation":0,"point":true,"visible":true,"x":1176.0,"y":512.0,"width":0,"height":0,"properties":[{"name":"kind","type":"string","value":"tree"},{"name":"stamp","type":"string","value":"tree_round_small"}]},{"id":368,"name":"","type":"","rotation":0,"point":true,"visible":true,"x":24.0,"y":544.0,"width":0,"height":0,"properties":[{"name":"kind","type":"string","value":"tree"},{"name":"stamp","type":"string","value":"tree_round_small"}]},{"id":369,"name":"","type":"","rotation":0,"point":true,"visible":true,"x":1176.0,"y":544.0,"width":0,"height":0,"properties":[{"name":"kind","type":"string","value":"tree"},{"name":"stamp","type":"string","value":"tree_round_small"}]},{"id":370,"name":"","type":"","rotation":0,"point":true,"visible":true,"x":1176.0,"y":576.0,"width":0,"height":0,"properties":[{"name":"kind","type":"string","value":"tree"},{"name":"stamp","type":"string","value":"tree_round_small"}]},{"id":371,"name":"","type":"","rotation":0,"point":true,"visible":true,"x":1176.0,"y":608.0,"width":0,"height":0,"properties":[{"name":"kind","type":"string","value":"tree"},{"name":"stamp","type":"string","value":"tree_round_small"}]},{"id":372,"name":"","type":"","rotation":0,"point":true,"visible":true,"x":24.0,"y":640.0,"width":0,"height":0,"properties":[{"name":"kind","type":"string","value":"tree"},{"name":"stamp","type":"string","value":"tree_light"}]},{"id":373,"name":"","type":"","rotation":0,"point":true,"visible":true,"x":1176.0,"y":640.0,"width":0,"height":0,"properties":[{"name":"kind","type":"string","value":"tree"},{"name":"stamp","type":"string","value":"tree_round_small"}]},{"id":374,"name":"","type":"","rotation":0,"point":true,"visible":true,"x":24.0,"y":672.0,"width":0,"height":0,"properties":[{"name":"kind","type":"string","value":"tree"},{"name":"stamp","type":"string","value":"tree_round_small"}]},{"id":375,"name":"","type":"","rotation":0,"point":true,"visible":true,"x":1176.0,"y":672.0,"width":0,"height":0,"properties":[{"name":"kind","type":"string","value":"tree"},{"name":"stamp","type":"string","value":"tree_round_small"}]},{"id":376,"name":"","type":"","rotation":0,"point":true,"visible":true,"x":24.0,"y":768.0,"width":0,"height":0,"properties":[{"name":"kind","type":"string","value":"tree"},{"name":"stamp","type":"string","value":"tree_round_small"}]},{"id":377,"name":"","type":"","rotation":0,"point":true,"visible":true,"x":1176.0,"y":768.0,"width":0,"height":0,"properties":[{"name":"kind","type":"string","value":"tree"},{"name":"stamp","type":"string","value":"tree_round_small"}]},{"id":378,"name":"TO WHARTON","type":"","rotation":0,"point":true,"visible":true,"x":72.0,"y":448.0,"width":0,"height":0,"properties":[{"name":"kind","type":"string","value":"roadsign"},{"name":"text","type":"string","value":"TO WHARTON"}]},{"id":379,"name":"TO ROCKAWAY","type":"","rotation":0,"point":true,"visible":true,"x":1160.0,"y":448.0,"width":0,"height":0,"properties":[{"name":"kind","type":"string","value":"roadsign"},{"name":"text","type":"string","value":"TO ROCKAWAY"}]},{"id":380,"name":"TO RT 46","type":"","rotation":0,"point":true,"visible":true,"x":776.0,"y":48.0,"width":0,"height":0,"properties":[{"name":"kind","type":"string","value":"roadsign"},{"name":"text","type":"string","value":"TO RT 46"}]},{"id":381,"name":"TO RANDOLPH","type":"","rotation":0,"point":true,"visible":true,"x":712.0,"y":768.0,"width":0,"height":0,"properties":[{"name":"kind","type":"string","value":"roadsign"},{"name":"text","type":"string","value":"TO RANDOLPH"}]},{"id":382,"name":"TO RT 10","type":"","rotation":0,"point":true,"visible":true,"x":264.0,"y":768.0,"width":0,"height":0,"properties":[{"name":"kind","type":"string","value":"roadsign"},{"name":"text","type":"string","value":"TO RT 10"}]},{"id":383,"name":"Blackwell Street","type":"","rotation":0,"point":true,"visible":true,"x":592.0,"y":400.0,"width":0,"height":0,"properties":[{"name":"kind","type":"string","value":"label"},{"name":"text","type":"string","value":"Blackwell Street"}]},{"id":384,"name":"Dover Station","type":"","rotation":0,"point":true,"visible":true,"x":168.0,"y":592.0,"width":0,"height":0,"properties":[{"name":"kind","type":"string","value":"label"},{"name":"text","type":"string","value":"Dover Station"}]},{"id":385,"name":"St. Mary's Church","type":"","rotation":0,"point":true,"visible":true,"x":808.0,"y":240.0,"width":0,"height":0,"properties":[{"name":"kind","type":"string","value":"label"},{"name":"text","type":"string","value":"St. Mary's Church"}]},{"id":386,"name":"La Finca Restaurant","type":"","rotation":0,"point":true,"visible":true,"x":400.0,"y":320.0,"width":0,"height":0,"properties":[{"name":"kind","type":"string","value":"label"},{"name":"text","type":"string","value":"La Finca Restaurant"}]},{"id":387,"name":"Public Library","type":"","rotation":0,"point":true,"visible":true,"x":608.0,"y":536.0,"width":0,"height":0,"properties":[{"name":"kind","type":"string","value":"label"},{"name":"text","type":"string","value":"Public Library"}]},{"id":388,"name":"Factory","type":"","rotation":0,"point":true,"visible":true,"x":1024.0,"y":368.0,"width":0,"height":0,"properties":[{"name":"kind","type":"string","value":"label"},{"name":"text","type":"string","value":"Factory"}]},{"id":389,"name":"Public Housing","type":"","rotation":0,"point":true,"visible":true,"x":216.0,"y":192.0,"width":0,"height":0,"properties":[{"name":"kind","type":"string","value":"label"},{"name":"text","type":"string","value":"Public Housing"}]},{"id":390,"name":"Bodega Row","type":"","rotation":0,"point":true,"visible":true,"x":560.0,"y":320.0,"width":0,"height":0,"properties":[{"name":"kind","type":"string","value":"label"},{"name":"text","type":"string","value":"Bodega Row"}]},{"id":391,"name":"Town Park","type":"","rotation":0,"point":true,"visible":true,"x":488.0,"y":680.0,"width":0,"height":0,"properties":[{"name":"kind","type":"string","value":"label"},{"name":"text","type":"string","value":"Town Park"}]},{"id":392,"name":"","type":"","rotation":0,"point":true,"visible":true,"x":232.0,"y":224.0,"width":0,"height":0,"properties":[{"name":"home","type":"string","value":"Public Housing"},{"name":"kind","type":"string","value":"yardsign"},{"name":"seat","type":"string","value":"0"}]},{"id":393,"name":"","type":"","rotation":0,"point":true,"visible":true,"x":232.0,"y":208.0,"width":0,"height":0,"properties":[{"name":"home","type":"string","value":"Public Housing"},{"name":"kind","type":"string","value":"yardsign"},{"name":"seat","type":"string","value":"1"}]},{"id":394,"name":"","type":"","rotation":0,"point":true,"visible":true,"x":232.0,"y":224.0,"width":0,"height":0,"properties":[{"name":"home","type":"string","value":"Public Housing"},{"name":"kind","type":"string","value":"yardsign"},{"name":"seat","type":"string","value":"2"}]},{"id":395,"name":"","type":"","rotation":0,"point":true,"visible":true,"x":232.0,"y":208.0,"width":0,"height":0,"properties":[{"name":"home","type":"string","value":"Public Housing"},{"name":"kind","type":"string","value":"yardsign"},{"name":"seat","type":"string","value":"3"}]},{"id":396,"name":"Public Library","type":"","rotation":0,"point":true,"visible":true,"x":608.0,"y":576.0,"width":0,"height":0,"properties":[{"name":"kind","type":"string","value":"pollplace"}]},{"id":397,"name":"Public Library","type":"","rotation":0,"point":true,"visible":true,"x":584.0,"y":512.0,"width":0,"height":0,"properties":[{"name":"kind","type":"string","value":"banner"},{"name":"mount","type":"string","value":"facade"}]},{"id":398,"name":"Public Library","type":"","rotation":0,"point":true,"visible":true,"x":632.0,"y":512.0,"width":0,"height":0,"properties":[{"name":"kind","type":"string","value":"banner"},{"name":"mount","type":"string","value":"facade"}]},{"id":399,"name":"Public Library","type":"","rotation":0,"point":true,"visible":true,"x":616.0,"y":496.0,"width":0,"height":0,"properties":[{"name":"kind","type":"string","value":"bunting"},{"name":"span","type":"string","value":"9"}]},{"id":400,"name":"Dover Station","type":"","rotation":0,"point":true,"visible":true,"x":56.0,"y":669.6,"width":0,"height":0,"properties":[{"name":"cap","type":"string","value":"1"},{"name":"facing","type":"string","value":"down"},{"name":"kind","type":"string","value":"spot"},{"name":"order","type":"string","value":"0"},{"name":"role","type":"string","value":"platform"}]},{"id":401,"name":"Dover Station","type":"","rotation":0,"point":true,"visible":true,"x":88.0,"y":669.6,"width":0,"height":0,"properties":[{"name":"cap","type":"string","value":"1"},{"name":"facing","type":"string","value":"down"},{"name":"kind","type":"string","value":"spot"},{"name":"order","type":"string","value":"1"},{"name":"role","type":"string","value":"platform"}]},{"id":402,"name":"Dover Station","type":"","rotation":0,"point":true,"visible":true,"x":120.0,"y":669.6,"width":0,"height":0,"properties":[{"name":"cap","type":"string","value":"1"},{"name":"facing","type":"string","value":"down"},{"name":"kind","type":"string","value":"spot"},{"name":"order","type":"string","value":"2"},{"name":"role","type":"string","value":"platform"}]},{"id":403,"name":"Dover Station","type":"","rotation":0,"point":true,"visible":true,"x":152.0,"y":669.6,"width":0,"height":0,"properties":[{"name":"cap","type":"string","value":"1"},{"name":"facing","type":"string","value":"down"},{"name":"kind","type":"string","value":"spot"},{"name":"order","type":"string","value":"3"},{"name":"role","type":"string","value":"platform"}]},{"id":404,"name":"Dover Station","type":"","rotation":0,"point":true,"visible":true,"x":184.0,"y":669.6,"width":0,"height":0,"properties":[{"name":"cap","type":"string","value":"1"},{"name":"facing","type":"string","value":"down"},{"name":"kind","type":"string","value":"spot"},{"name":"order","type":"string","value":"4"},{"name":"role","type":"string","value":"platform"}]},{"id":405,"name":"Dover Station","type":"","rotation":0,"point":true,"visible":true,"x":216.0,"y":669.6,"width":0,"height":0,"properties":[{"name":"cap","type":"string","value":"1"},{"name":"facing","type":"string","value":"down"},{"name":"kind","type":"string","value":"spot"},{"name":"order","type":"string","value":"5"},{"name":"role","type":"string","value":"platform"}]},{"id":406,"name":"Dover Station","type":"","rotation":0,"point":true,"visible":true,"x":248.0,"y":669.6,"width":0,"height":0,"properties":[{"name":"cap","type":"string","value":"1"},{"name":"facing","type":"string","value":"down"},{"name":"kind","type":"string","value":"spot"},{"name":"order","type":"string","value":"6"},{"name":"role","type":"string","value":"platform"}]},{"id":407,"name":"Dover Station","type":"","rotation":0,"point":true,"visible":true,"x":216.0,"y":637.6,"width":0,"height":0,"properties":[{"name":"cap","type":"string","value":"1"},{"name":"facing","type":"string","value":"down"},{"name":"kind","type":"string","value":"spot"},{"name":"order","type":"string","value":"7"},{"name":"role","type":"string","value":"bench"}]},{"id":408,"name":"Dover Station","type":"","rotation":0,"point":true,"visible":true,"x":248.0,"y":637.6,"width":0,"height":0,"properties":[{"name":"cap","type":"string","value":"1"},{"name":"facing","type":"string","value":"down"},{"name":"kind","type":"string","value":"spot"},{"name":"order","type":"string","value":"8"},{"name":"role","type":"string","value":"bench"}]},{"id":409,"name":"Dover Station","type":"","rotation":0,"point":true,"visible":true,"x":360.0,"y":605.6,"width":0,"height":0,"properties":[{"name":"cap","type":"string","value":"1"},{"name":"facing","type":"string","value":"up"},{"name":"kind","type":"string","value":"spot"},{"name":"order","type":"string","value":"9"},{"name":"role","type":"string","value":"bench"}]},{"id":410,"name":"Dover Station","type":"","rotation":0,"point":true,"visible":true,"x":376.0,"y":605.6,"width":0,"height":0,"properties":[{"name":"cap","type":"string","value":"1"},{"name":"facing","type":"string","value":"up"},{"name":"kind","type":"string","value":"spot"},{"name":"order","type":"string","value":"10"},{"name":"role","type":"string","value":"bench"}]},{"id":411,"name":"Dover Station","type":"","rotation":0,"point":true,"visible":true,"x":392.0,"y":605.6,"width":0,"height":0,"properties":[{"name":"cap","type":"string","value":"1"},{"name":"facing","type":"string","value":"up"},{"name":"kind","type":"string","value":"spot"},{"name":"order","type":"string","value":"11"},{"name":"role","type":"string","value":"bench"}]},{"id":412,"name":"Town Park","type":"","rotation":0,"point":true,"visible":true,"x":384.0,"y":525.6,"width":0,"height":0,"properties":[{"name":"cap","type":"string","value":"1"},{"name":"facing","type":"string","value":"up"},{"name":"kind","type":"string","value":"spot"},{"name":"order","type":"string","value":"0"},{"name":"role","type":"string","value":"stall"}]},{"id":413,"name":"Town Park","type":"","rotation":0,"point":true,"visible":true,"x":416.0,"y":525.6,"width":0,"height":0,"properties":[{"name":"cap","type":"string","value":"1"},{"name":"facing","type":"string","value":"up"},{"name":"kind","type":"string","value":"spot"},{"name":"order","type":"string","value":"1"},{"name":"role","type":"string","value":"stall"}]},{"id":414,"name":"La Finca Restaurant","type":"","rotation":0,"point":true,"visible":true,"x":488.0,"y":365.6,"width":0,"height":0,"properties":[{"name":"cap","type":"string","value":"1"},{"name":"facing","type":"string","value":"up"},{"name":"kind","type":"string","value":"spot"},{"name":"order","type":"string","value":"0"},{"name":"role","type":"string","value":"table"}]},{"id":415,"name":"Town Park","type":"","rotation":0,"point":true,"visible":true,"x":440.0,"y":621.6,"width":0,"height":0,"properties":[{"name":"cap","type":"string","value":"1"},{"name":"facing","type":"string","value":"down"},{"name":"kind","type":"string","value":"spot"},{"name":"order","type":"string","value":"2"},{"name":"role","type":"string","value":"bench"}]},{"id":416,"name":"Town Park","type":"","rotation":0,"point":true,"visible":true,"x":472.0,"y":621.6,"width":0,"height":0,"properties":[{"name":"cap","type":"string","value":"1"},{"name":"facing","type":"string","value":"down"},{"name":"kind","type":"string","value":"spot"},{"name":"order","type":"string","value":"3"},{"name":"role","type":"string","value":"bench"}]},{"id":417,"name":"Town Park","type":"","rotation":0,"point":true,"visible":true,"x":568.0,"y":621.6,"width":0,"height":0,"properties":[{"name":"cap","type":"string","value":"1"},{"name":"facing","type":"string","value":"down"},{"name":"kind","type":"string","value":"spot"},{"name":"order","type":"string","value":"4"},{"name":"role","type":"string","value":"bench"}]},{"id":418,"name":"Public Library","type":"","rotation":0,"point":true,"visible":true,"x":792.0,"y":621.6,"width":0,"height":0,"properties":[{"name":"cap","type":"string","value":"1"},{"name":"facing","type":"string","value":"down"},{"name":"kind","type":"string","value":"spot"},{"name":"order","type":"string","value":"4"},{"name":"role","type":"string","value":"bench"}]},{"id":419,"name":"Public Library","type":"","rotation":0,"point":true,"visible":true,"x":824.0,"y":621.6,"width":0,"height":0,"properties":[{"name":"cap","type":"string","value":"1"},{"name":"facing","type":"string","value":"down"},{"name":"kind","type":"string","value":"spot"},{"name":"order","type":"string","value":"5"},{"name":"role","type":"string","value":"bench"}]},{"id":420,"name":"La Finca Restaurant","type":"","rotation":0,"point":true,"visible":true,"x":400.0,"y":365.6,"width":0,"height":0,"properties":[{"name":"cap","type":"string","value":"1"},{"name":"facing","type":"string","value":"up"},{"name":"kind","type":"string","value":"spot"},{"name":"order","type":"string","value":"1"},{"name":"role","type":"string","value":"door"}]},{"id":421,"name":"Bodega Row","type":"","rotation":0,"point":true,"visible":true,"x":528.0,"y":365.6,"width":0,"height":0,"properties":[{"name":"cap","type":"string","value":"1"},{"name":"facing","type":"string","value":"up"},{"name":"kind","type":"string","value":"spot"},{"name":"order","type":"string","value":"0"},{"name":"role","type":"string","value":"door"}]},{"id":422,"name":"Bodega Row","type":"","rotation":0,"point":true,"visible":true,"x":592.0,"y":365.6,"width":0,"height":0,"properties":[{"name":"cap","type":"string","value":"1"},{"name":"facing","type":"string","value":"up"},{"name":"kind","type":"string","value":"spot"},{"name":"order","type":"string","value":"1"},{"name":"role","type":"string","value":"door"}]},{"id":423,"name":"St. Mary's Church","type":"","rotation":0,"point":true,"visible":true,"x":832.0,"y":285.6,"width":0,"height":0,"properties":[{"name":"cap","type":"string","value":"1"},{"name":"facing","type":"string","value":"up"},{"name":"kind","type":"string","value":"spot"},{"name":"order","type":"string","value":"0"},{"name":"role","type":"string","value":"door"}]},{"id":424,"name":"Factory","type":"","rotation":0,"point":true,"visible":true,"x":992.0,"y":365.6,"width":0,"height":0,"properties":[{"name":"cap","type":"string","value":"1"},{"name":"facing","type":"string","value":"up"},{"name":"kind","type":"string","value":"spot"},{"name":"order","type":"string","value":"0"},{"name":"role","type":"string","value":"door"}]},{"id":425,"name":"Public Housing","type":"","rotation":0,"point":true,"visible":true,"x":176.0,"y":237.6,"width":0,"height":0,"properties":[{"name":"cap","type":"string","value":"1"},{"name":"facing","type":"string","value":"up"},{"name":"kind","type":"string","value":"spot"},{"name":"order","type":"string","value":"0"},{"name":"role","type":"string","value":"door"}]},{"id":426,"name":"Public Housing","type":"","rotation":0,"point":true,"visible":true,"x":288.0,"y":237.6,"width":0,"height":0,"properties":[{"name":"cap","type":"string","value":"1"},{"name":"facing","type":"string","value":"up"},{"name":"kind","type":"string","value":"spot"},{"name":"order","type":"string","value":"1"},{"name":"role","type":"string","value":"door"}]},{"id":427,"name":"Public Housing","type":"","rotation":0,"point":true,"visible":true,"x":400.0,"y":237.6,"width":0,"height":0,"properties":[{"name":"cap","type":"string","value":"1"},{"name":"facing","type":"string","value":"up"},{"name":"kind","type":"string","value":"spot"},{"name":"order","type":"string","value":"2"},{"name":"role","type":"string","value":"door"}]},{"id":428,"name":"Public Housing","type":"","rotation":0,"point":true,"visible":true,"x":560.0,"y":237.6,"width":0,"height":0,"properties":[{"name":"cap","type":"string","value":"1"},{"name":"facing","type":"string","value":"up"},{"name":"kind","type":"string","value":"spot"},{"name":"order","type":"string","value":"3"},{"name":"role","type":"string","value":"door"}]},{"id":429,"name":"Public Library","type":"","rotation":0,"point":true,"visible":true,"x":608.0,"y":573.6,"width":0,"height":0,"properties":[{"name":"cap","type":"string","value":"1"},{"name":"facing","type":"string","value":"up"},{"name":"kind","type":"string","value":"spot"},{"name":"order","type":"string","value":"6"},{"name":"role","type":"string","value":"door"}]},{"id":430,"name":"Dover Station","type":"","rotation":0,"point":true,"visible":true,"x":160.0,"y":621.6,"width":0,"height":0,"properties":[{"name":"cap","type":"string","value":"1"},{"name":"facing","type":"string","value":"up"},{"name":"kind","type":"string","value":"spot"},{"name":"order","type":"string","value":"12"},{"name":"role","type":"string","value":"door"}]},{"id":431,"name":"La Finca Restaurant","type":"","rotation":0,"point":true,"visible":true,"x":368.0,"y":365.6,"width":0,"height":0,"properties":[{"name":"cap","type":"string","value":"1"},{"name":"facing","type":"string","value":"down"},{"name":"kind","type":"string","value":"spot"},{"name":"order","type":"string","value":"2"},{"name":"role","type":"string","value":"porch"}]},{"id":432,"name":"La Finca Restaurant","type":"","rotation":0,"point":true,"visible":true,"x":432.0,"y":365.6,"width":0,"height":0,"properties":[{"name":"cap","type":"string","value":"1"},{"name":"facing","type":"string","value":"down"},{"name":"kind","type":"string","value":"spot"},{"name":"order","type":"string","value":"3"},{"name":"role","type":"string","value":"porch"}]},{"id":433,"name":"Bodega Row","type":"","rotation":0,"point":true,"visible":true,"x":624.0,"y":365.6,"width":0,"height":0,"properties":[{"name":"cap","type":"string","value":"1"},{"name":"facing","type":"string","value":"down"},{"name":"kind","type":"string","value":"spot"},{"name":"order","type":"string","value":"2"},{"name":"role","type":"string","value":"porch"}]},{"id":434,"name":"St. Mary's Church","type":"","rotation":0,"point":true,"visible":true,"x":800.0,"y":285.6,"width":0,"height":0,"properties":[{"name":"cap","type":"string","value":"1"},{"name":"facing","type":"string","value":"down"},{"name":"kind","type":"string","value":"spot"},{"name":"order","type":"string","value":"1"},{"name":"role","type":"string","value":"porch"}]},{"id":435,"name":"St. Mary's Church","type":"","rotation":0,"point":true,"visible":true,"x":864.0,"y":285.6,"width":0,"height":0,"properties":[{"name":"cap","type":"string","value":"1"},{"name":"facing","type":"string","value":"down"},{"name":"kind","type":"string","value":"spot"},{"name":"order","type":"string","value":"2"},{"name":"role","type":"string","value":"porch"}]},{"id":436,"name":"Factory","type":"","rotation":0,"point":true,"visible":true,"x":960.0,"y":365.6,"width":0,"height":0,"properties":[{"name":"cap","type":"string","value":"1"},{"name":"facing","type":"string","value":"down"},{"name":"kind","type":"string","value":"spot"},{"name":"order","type":"string","value":"1"},{"name":"role","type":"string","value":"porch"}]},{"id":437,"name":"Factory","type":"","rotation":0,"point":true,"visible":true,"x":1024.0,"y":365.6,"width":0,"height":0,"properties":[{"name":"cap","type":"string","value":"1"},{"name":"facing","type":"string","value":"down"},{"name":"kind","type":"string","value":"spot"},{"name":"order","type":"string","value":"2"},{"name":"role","type":"string","value":"porch"}]},{"id":438,"name":"Public Housing","type":"","rotation":0,"point":true,"visible":true,"x":144.0,"y":237.6,"width":0,"height":0,"properties":[{"name":"cap","type":"string","value":"1"},{"name":"facing","type":"string","value":"down"},{"name":"kind","type":"string","value":"spot"},{"name":"order","type":"string","value":"4"},{"name":"role","type":"string","value":"porch"}]},{"id":439,"name":"Public Housing","type":"","rotation":0,"point":true,"visible":true,"x":208.0,"y":237.6,"width":0,"height":0,"properties":[{"name":"cap","type":"string","value":"1"},{"name":"facing","type":"string","value":"down"},{"name":"kind","type":"string","value":"spot"},{"name":"order","type":"string","value":"5"},{"name":"role","type":"string","value":"porch"}]},{"id":440,"name":"Public Housing","type":"","rotation":0,"point":true,"visible":true,"x":256.0,"y":237.6,"width":0,"height":0,"properties":[{"name":"cap","type":"string","value":"1"},{"name":"facing","type":"string","value":"down"},{"name":"kind","type":"string","value":"spot"},{"name":"order","type":"string","value":"6"},{"name":"role","type":"string","value":"porch"}]},{"id":441,"name":"Public Housing","type":"","rotation":0,"point":true,"visible":true,"x":320.0,"y":237.6,"width":0,"height":0,"properties":[{"name":"cap","type":"string","value":"1"},{"name":"facing","type":"string","value":"down"},{"name":"kind","type":"string","value":"spot"},{"name":"order","type":"string","value":"7"},{"name":"role","type":"string","value":"porch"}]},{"id":442,"name":"Public Housing","type":"","rotation":0,"point":true,"visible":true,"x":368.0,"y":237.6,"width":0,"height":0,"properties":[{"name":"cap","type":"string","value":"1"},{"name":"facing","type":"string","value":"down"},{"name":"kind","type":"string","value":"spot"},{"name":"order","type":"string","value":"8"},{"name":"role","type":"string","value":"porch"}]},{"id":443,"name":"Public Housing","type":"","rotation":0,"point":true,"visible":true,"x":432.0,"y":237.6,"width":0,"height":0,"properties":[{"name":"cap","type":"string","value":"1"},{"name":"facing","type":"string","value":"down"},{"name":"kind","type":"string","value":"spot"},{"name":"order","type":"string","value":"9"},{"name":"role","type":"string","value":"porch"}]},{"id":444,"name":"Public Housing","type":"","rotation":0,"point":true,"visible":true,"x":528.0,"y":237.6,"width":0,"height":0,"properties":[{"name":"cap","type":"string","value":"1"},{"name":"facing","type":"string","value":"down"},{"name":"kind","type":"string","value":"spot"},{"name":"order","type":"string","value":"10"},{"name":"role","type":"string","value":"porch"}]},{"id":445,"name":"Public Housing","type":"","rotation":0,"point":true,"visible":true,"x":592.0,"y":237.6,"width":0,"height":0,"properties":[{"name":"cap","type":"string","value":"1"},{"name":"facing","type":"string","value":"down"},{"name":"kind","type":"string","value":"spot"},{"name":"order","type":"string","value":"11"},{"name":"role","type":"string","value":"porch"}]},{"id":446,"name":"Public Library","type":"","rotation":0,"point":true,"visible":true,"x":576.0,"y":573.6,"width":0,"height":0,"properties":[{"name":"cap","type":"string","value":"1"},{"name":"facing","type":"string","value":"down"},{"name":"kind","type":"string","value":"spot"},{"name":"order","type":"string","value":"7"},{"name":"role","type":"string","value":"porch"}]},{"id":447,"name":"Public Library","type":"","rotation":0,"point":true,"visible":true,"x":640.0,"y":573.6,"width":0,"height":0,"properties":[{"name":"cap","type":"string","value":"1"},{"name":"facing","type":"string","value":"down"},{"name":"kind","type":"string","value":"spot"},{"name":"order","type":"string","value":"8"},{"name":"role","type":"string","value":"porch"}]},{"id":448,"name":"Dover Station","type":"","rotation":0,"point":true,"visible":true,"x":128.0,"y":621.6,"width":0,"height":0,"properties":[{"name":"cap","type":"string","value":"1"},{"name":"facing","type":"string","value":"down"},{"name":"kind","type":"string","value":"spot"},{"name":"order","type":"string","value":"13"},{"name":"role","type":"string","value":"porch"}]},{"id":449,"name":"Dover Station","type":"","rotation":0,"point":true,"visible":true,"x":192.0,"y":621.6,"width":0,"height":0,"properties":[{"name":"cap","type":"string","value":"1"},{"name":"facing","type":"string","value":"down"},{"name":"kind","type":"string","value":"spot"},{"name":"order","type":"string","value":"14"},{"name":"role","type":"string","value":"porch"}]},{"id":450,"name":"La Finca Restaurant","type":"","rotation":0,"point":true,"visible":true,"x":360.0,"y":445.6,"width":0,"height":0,"properties":[{"name":"cap","type":"string","value":"1"},{"name":"facing","type":"string","value":"face"},{"name":"kind","type":"string","value":"spot"},{"name":"order","type":"string","value":"4"},{"name":"pair","type":"string","value":"La Finca Restaurant#0"},{"name":"role","type":"string","value":"chat"},{"name":"side","type":"string","value":"a"}]},{"id":451,"name":"La Finca Restaurant","type":"","rotation":0,"point":true,"visible":true,"x":392.0,"y":445.6,"width":0,"height":0,"properties":[{"name":"cap","type":"string","value":"1"},{"name":"facing","type":"string","value":"face"},{"name":"kind","type":"string","value":"spot"},{"name":"order","type":"string","value":"5"},{"name":"pair","type":"string","value":"La Finca Restaurant#0"},{"name":"role","type":"string","value":"chat"},{"name":"side","type":"string","value":"b"}]},{"id":452,"name":"Bodega Row","type":"","rotation":0,"point":true,"visible":true,"x":488.0,"y":445.6,"width":0,"height":0,"properties":[{"name":"cap","type":"string","value":"1"},{"name":"facing","type":"string","value":"face"},{"name":"kind","type":"string","value":"spot"},{"name":"order","type":"string","value":"3"},{"name":"pair","type":"string","value":"Bodega Row#0"},{"name":"role","type":"string","value":"chat"},{"name":"side","type":"string","value":"a"}]},{"id":453,"name":"Bodega Row","type":"","rotation":0,"point":true,"visible":true,"x":520.0,"y":445.6,"width":0,"height":0,"properties":[{"name":"cap","type":"string","value":"1"},{"name":"facing","type":"string","value":"face"},{"name":"kind","type":"string","value":"spot"},{"name":"order","type":"string","value":"4"},{"name":"pair","type":"string","value":"Bodega Row#0"},{"name":"role","type":"string","value":"chat"},{"name":"side","type":"string","value":"b"}]},{"id":454,"name":"Bodega Row","type":"","rotation":0,"point":true,"visible":true,"x":552.0,"y":445.6,"width":0,"height":0,"properties":[{"name":"cap","type":"string","value":"1"},{"name":"facing","type":"string","value":"face"},{"name":"kind","type":"string","value":"spot"},{"name":"order","type":"string","value":"5"},{"name":"pair","type":"string","value":"Bodega Row#1"},{"name":"role","type":"string","value":"chat"},{"name":"side","type":"string","value":"a"}]},{"id":455,"name":"Bodega Row","type":"","rotation":0,"point":true,"visible":true,"x":584.0,"y":445.6,"width":0,"height":0,"properties":[{"name":"cap","type":"string","value":"1"},{"name":"facing","type":"string","value":"face"},{"name":"kind","type":"string","value":"spot"},{"name":"order","type":"string","value":"6"},{"name":"pair","type":"string","value":"Bodega Row#1"},{"name":"role","type":"string","value":"chat"},{"name":"side","type":"string","value":"b"}]},{"id":456,"name":"St. Mary's Church","type":"","rotation":0,"point":true,"visible":true,"x":808.0,"y":301.6,"width":0,"height":0,"properties":[{"name":"cap","type":"string","value":"1"},{"name":"facing","type":"string","value":"face"},{"name":"kind","type":"string","value":"spot"},{"name":"order","type":"string","value":"3"},{"name":"pair","type":"string","value":"St. Mary's Church#0"},{"name":"role","type":"string","value":"chat"},{"name":"side","type":"string","value":"a"}]},{"id":457,"name":"St. Mary's Church","type":"","rotation":0,"point":true,"visible":true,"x":840.0,"y":301.6,"width":0,"height":0,"properties":[{"name":"cap","type":"string","value":"1"},{"name":"facing","type":"string","value":"face"},{"name":"kind","type":"string","value":"spot"},{"name":"order","type":"string","value":"4"},{"name":"pair","type":"string","value":"St. Mary's Church#0"},{"name":"role","type":"string","value":"chat"},{"name":"side","type":"string","value":"b"}]},{"id":458,"name":"Factory","type":"","rotation":0,"point":true,"visible":true,"x":904.0,"y":365.6,"width":0,"height":0,"properties":[{"name":"cap","type":"string","value":"1"},{"name":"facing","type":"string","value":"face"},{"name":"kind","type":"string","value":"spot"},{"name":"order","type":"string","value":"3"},{"name":"pair","type":"string","value":"Factory#0"},{"name":"role","type":"string","value":"chat"},{"name":"side","type":"string","value":"a"}]},{"id":459,"name":"Factory","type":"","rotation":0,"point":true,"visible":true,"x":936.0,"y":365.6,"width":0,"height":0,"properties":[{"name":"cap","type":"string","value":"1"},{"name":"facing","type":"string","value":"face"},{"name":"kind","type":"string","value":"spot"},{"name":"order","type":"string","value":"4"},{"name":"pair","type":"string","value":"Factory#0"},{"name":"role","type":"string","value":"chat"},{"name":"side","type":"string","value":"b"}]},{"id":460,"name":"Public Housing","type":"","rotation":0,"point":true,"visible":true,"x":456.0,"y":205.6,"width":0,"height":0,"properties":[{"name":"cap","type":"string","value":"1"},{"name":"facing","type":"string","value":"face"},{"name":"kind","type":"string","value":"spot"},{"name":"order","type":"string","value":"12"},{"name":"pair","type":"string","value":"Public Housing#2"},{"name":"role","type":"string","value":"chat"},{"name":"side","type":"string","value":"a"}]},{"id":461,"name":"Public Housing","type":"","rotation":0,"point":true,"visible":true,"x":488.0,"y":205.6,"width":0,"height":0,"properties":[{"name":"cap","type":"string","value":"1"},{"name":"facing","type":"string","value":"face"},{"name":"kind","type":"string","value":"spot"},{"name":"order","type":"string","value":"13"},{"name":"pair","type":"string","value":"Public Housing#2"},{"name":"role","type":"string","value":"chat"},{"name":"side","type":"string","value":"b"}]},{"id":462,"name":"Public Housing","type":"","rotation":0,"point":true,"visible":true,"x":472.0,"y":237.6,"width":0,"height":0,"properties":[{"name":"cap","type":"string","value":"1"},{"name":"facing","type":"string","value":"face"},{"name":"kind","type":"string","value":"spot"},{"name":"order","type":"string","value":"14"},{"name":"pair","type":"string","value":"Public Housing#3"},{"name":"role","type":"string","value":"chat"},{"name":"side","type":"string","value":"a"}]},{"id":463,"name":"Public Housing","type":"","rotation":0,"point":true,"visible":true,"x":504.0,"y":237.6,"width":0,"height":0,"properties":[{"name":"cap","type":"string","value":"1"},{"name":"facing","type":"string","value":"face"},{"name":"kind","type":"string","value":"spot"},{"name":"order","type":"string","value":"15"},{"name":"pair","type":"string","value":"Public Housing#3"},{"name":"role","type":"string","value":"chat"},{"name":"side","type":"string","value":"b"}]},{"id":464,"name":"Public Library","type":"","rotation":0,"point":true,"visible":true,"x":584.0,"y":589.6,"width":0,"height":0,"properties":[{"name":"cap","type":"string","value":"1"},{"name":"facing","type":"string","value":"face"},{"name":"kind","type":"string","value":"spot"},{"name":"order","type":"string","value":"9"},{"name":"pair","type":"string","value":"Public Library#0"},{"name":"role","type":"string","value":"chat"},{"name":"side","type":"string","value":"a"}]},{"id":465,"name":"Public Library","type":"","rotation":0,"point":true,"visible":true,"x":616.0,"y":589.6,"width":0,"height":0,"properties":[{"name":"cap","type":"string","value":"1"},{"name":"facing","type":"string","value":"face"},{"name":"kind","type":"string","value":"spot"},{"name":"order","type":"string","value":"10"},{"name":"pair","type":"string","value":"Public Library#0"},{"name":"role","type":"string","value":"chat"},{"name":"side","type":"string","value":"b"}]},{"id":466,"name":"Dover Station","type":"","rotation":0,"point":true,"visible":true,"x":136.0,"y":637.6,"width":0,"height":0,"properties":[{"name":"cap","type":"string","value":"1"},{"name":"facing","type":"string","value":"face"},{"name":"kind","type":"string","value":"spot"},{"name":"order","type":"string","value":"15"},{"name":"pair","type":"string","value":"Dover Station#0"},{"name":"role","type":"string","value":"chat"},{"name":"side","type":"string","value":"a"}]},{"id":467,"name":"Dover Station","type":"","rotation":0,"point":true,"visible":true,"x":168.0,"y":637.6,"width":0,"height":0,"properties":[{"name":"cap","type":"string","value":"1"},{"name":"facing","type":"string","value":"face"},{"name":"kind","type":"string","value":"spot"},{"name":"order","type":"string","value":"16"},{"name":"pair","type":"string","value":"Dover Station#0"},{"name":"role","type":"string","value":"chat"},{"name":"side","type":"string","value":"b"}]},{"id":468,"name":"Blackwell Street","type":"","rotation":0,"point":true,"visible":true,"x":360.0,"y":461.6,"width":0,"height":0,"properties":[{"name":"cap","type":"string","value":"1"},{"name":"facing","type":"string","value":"face"},{"name":"kind","type":"string","value":"spot"},{"name":"order","type":"string","value":"0"},{"name":"pair","type":"string","value":"Blackwell Street#0"},{"name":"role","type":"string","value":"chat"},{"name":"side","type":"string","value":"a"}]},{"id":469,"name":"Blackwell Street","type":"","rotation":0,"point":true,"visible":true,"x":392.0,"y":461.6,"width":0,"height":0,"properties":[{"name":"cap","type":"string","value":"1"},{"name":"facing","type":"string","value":"face"},{"name":"kind","type":"string","value":"spot"},{"name":"order","type":"string","value":"1"},{"name":"pair","type":"string","value":"Blackwell Street#0"},{"name":"role","type":"string","value":"chat"},{"name":"side","type":"string","value":"b"}]},{"id":470,"name":"Blackwell Street","type":"","rotation":0,"point":true,"visible":true,"x":648.0,"y":445.6,"width":0,"height":0,"properties":[{"name":"cap","type":"string","value":"1"},{"name":"facing","type":"string","value":"face"},{"name":"kind","type":"string","value":"spot"},{"name":"order","type":"string","value":"2"},{"name":"pair","type":"string","value":"Blackwell Street#1"},{"name":"role","type":"string","value":"chat"},{"name":"side","type":"string","value":"a"}]},{"id":471,"name":"Blackwell Street","type":"","rotation":0,"point":true,"visible":true,"x":680.0,"y":445.6,"width":0,"height":0,"properties":[{"name":"cap","type":"string","value":"1"},{"name":"facing","type":"string","value":"face"},{"name":"kind","type":"string","value":"spot"},{"name":"order","type":"string","value":"3"},{"name":"pair","type":"string","value":"Blackwell Street#1"},{"name":"role","type":"string","value":"chat"},{"name":"side","type":"string","value":"b"}]},{"id":472,"name":"Blackwell Street","type":"","rotation":0,"point":true,"visible":true,"x":792.0,"y":365.6,"width":0,"height":0,"properties":[{"name":"cap","type":"string","value":"1"},{"name":"facing","type":"string","value":"face"},{"name":"kind","type":"string","value":"spot"},{"name":"order","type":"string","value":"4"},{"name":"pair","type":"string","value":"Blackwell Street#2"},{"name":"role","type":"string","value":"chat"},{"name":"side","type":"string","value":"a"}]},{"id":473,"name":"Blackwell Street","type":"","rotation":0,"point":true,"visible":true,"x":824.0,"y":365.6,"width":0,"height":0,"properties":[{"name":"cap","type":"string","value":"1"},{"name":"facing","type":"string","value":"face"},{"name":"kind","type":"string","value":"spot"},{"name":"order","type":"string","value":"5"},{"name":"pair","type":"string","value":"Blackwell Street#2"},{"name":"role","type":"string","value":"chat"},{"name":"side","type":"string","value":"b"}]},{"id":474,"name":"Town Park","type":"","rotation":0,"point":true,"visible":true,"x":456.0,"y":669.6,"width":0,"height":0,"properties":[{"name":"cap","type":"string","value":"1"},{"name":"facing","type":"string","value":"face"},{"name":"kind","type":"string","value":"spot"},{"name":"order","type":"string","value":"5"},{"name":"pair","type":"string","value":"Town Park#0"},{"name":"role","type":"string","value":"chat"},{"name":"side","type":"string","value":"a"}]},{"id":475,"name":"Town Park","type":"","rotation":0,"point":true,"visible":true,"x":488.0,"y":669.6,"width":0,"height":0,"properties":[{"name":"cap","type":"string","value":"1"},{"name":"facing","type":"string","value":"face"},{"name":"kind","type":"string","value":"spot"},{"name":"order","type":"string","value":"6"},{"name":"pair","type":"string","value":"Town Park#0"},{"name":"role","type":"string","value":"chat"},{"name":"side","type":"string","value":"b"}]},{"id":476,"name":"Town Park","type":"","rotation":0,"point":true,"visible":true,"x":408.0,"y":653.6,"width":0,"height":0,"properties":[{"name":"cap","type":"string","value":"1"},{"name":"facing","type":"string","value":"down"},{"name":"kind","type":"string","value":"spot"},{"name":"order","type":"string","value":"7"},{"name":"role","type":"string","value":"lawn"}]},{"id":477,"name":"Town Park","type":"","rotation":0,"point":true,"visible":true,"x":568.0,"y":637.6,"width":0,"height":0,"properties":[{"name":"cap","type":"string","value":"1"},{"name":"facing","type":"string","value":"down"},{"name":"kind","type":"string","value":"spot"},{"name":"order","type":"string","value":"8"},{"name":"role","type":"string","value":"lawn"}]},{"id":478,"name":"Town Park","type":"","rotation":0,"point":true,"visible":true,"x":536.0,"y":669.6,"width":0,"height":0,"properties":[{"name":"cap","type":"string","value":"1"},{"name":"facing","type":"string","value":"down"},{"name":"kind","type":"string","value":"spot"},{"name":"order","type":"string","value":"9"},{"name":"role","type":"string","value":"lawn"}]},{"id":479,"name":"Town Park","type":"","rotation":0,"point":true,"visible":true,"x":504.0,"y":669.6,"width":0,"height":0,"properties":[{"name":"cap","type":"string","value":"1"},{"name":"facing","type":"string","value":"down"},{"name":"kind","type":"string","value":"spot"},{"name":"order","type":"string","value":"10"},{"name":"role","type":"string","value":"lawn"}]},{"id":480,"name":"Town Park","type":"","rotation":0,"point":true,"visible":true,"x":440.0,"y":637.6,"width":0,"height":0,"properties":[{"name":"cap","type":"string","value":"1"},{"name":"facing","type":"string","value":"down"},{"name":"kind","type":"string","value":"spot"},{"name":"order","type":"string","value":"11"},{"name":"role","type":"string","value":"lawn"}]},{"id":481,"name":"Public Library","type":"","rotation":0,"point":true,"visible":true,"x":584.0,"y":573.6,"width":0,"height":0,"properties":[{"name":"cap","type":"string","value":"1"},{"name":"facing","type":"string","value":"up"},{"name":"kind","type":"string","value":"spot"},{"name":"order","type":"string","value":"0"},{"name":"role","type":"string","value":"queue"}]},{"id":482,"name":"Public Library","type":"","rotation":0,"point":true,"visible":true,"x":504.0,"y":573.6,"width":0,"height":0,"properties":[{"name":"cap","type":"string","value":"1"},{"name":"facing","type":"string","value":"up"},{"name":"kind","type":"string","value":"spot"},{"name":"order","type":"string","value":"1"},{"name":"role","type":"string","value":"queue"}]},{"id":483,"name":"Public Library","type":"","rotation":0,"point":true,"visible":true,"x":472.0,"y":573.6,"width":0,"height":0,"properties":[{"name":"cap","type":"string","value":"1"},{"name":"facing","type":"string","value":"up"},{"name":"kind","type":"string","value":"spot"},{"name":"order","type":"string","value":"2"},{"name":"role","type":"string","value":"queue"}]},{"id":484,"name":"Public Library","type":"","rotation":0,"point":true,"visible":true,"x":440.0,"y":573.6,"width":0,"height":0,"properties":[{"name":"cap","type":"string","value":"1"},{"name":"facing","type":"string","value":"up"},{"name":"kind","type":"string","value":"spot"},{"name":"order","type":"string","value":"3"},{"name":"role","type":"string","value":"queue"}]}]},{"id":8,"name":"traffic","type":"objectgroup","visible":false,"opacity":1,"x":0,"y":0,"draworder":"topdown","objects":[{"id":485,"name":"h23","type":"","rotation":0,"visible":true,"x":0,"y":408.0,"width":0,"height":0,"polyline":[{"x":0,"y":0},{"x":1200,"y":0.0}],"properties":[{"name":"kind","type":"string","value":"lane"},{"name":"dir","type":"string","value":"e"},{"name":"road","type":"string","value":"h23"},{"name":"through","type":"string","value":"1"}]},{"id":486,"name":"","type":"","rotation":0,"point":true,"visible":true,"x":254,"y":408.0,"width":0,"height":0,"properties":[{"name":"kind","type":"string","value":"stopline"},{"name":"axis","type":"string","value":"h"},{"name":"dir","type":"string","value":"e"},{"name":"signal","type":"string","value":"0"}]},{"id":487,"name":"","type":"","rotation":0,"point":true,"visible":true,"x":702,"y":408.0,"width":0,"height":0,"properties":[{"name":"kind","type":"string","value":"stopline"},{"name":"axis","type":"string","value":"h"},{"name":"dir","type":"string","value":"e"},{"name":"signal","type":"string","value":"1"}]},{"id":488,"name":"h23","type":"","rotation":0,"visible":true,"x":1200,"y":376.0,"width":0,"height":0,"polyline":[{"x":0,"y":0},{"x":-1200,"y":0.0}],"properties":[{"name":"kind","type":"string","value":"lane"},{"name":"dir","type":"string","value":"w"},{"name":"road","type":"string","value":"h23"},{"name":"through","type":"string","value":"1"}]},{"id":489,"name":"","type":"","rotation":0,"point":true,"visible":true,"x":338,"y":376.0,"width":0,"height":0,"properties":[{"name":"kind","type":"string","value":"stopline"},{"name":"axis","type":"string","value":"h"},{"name":"dir","type":"string","value":"w"},{"name":"signal","type":"string","value":"0"}]},{"id":490,"name":"","type":"","rotation":0,"point":true,"visible":true,"x":786,"y":376.0,"width":0,"height":0,"properties":[{"name":"kind","type":"string","value":"stopline"},{"name":"axis","type":"string","value":"h"},{"name":"dir","type":"string","value":"w"},{"name":"signal","type":"string","value":"1"}]},{"id":491,"name":"v17","type":"","rotation":0,"visible":true,"x":280.0,"y":400,"width":0,"height":0,"polyline":[{"x":0,"y":0},{"x":0.0,"y":400}],"properties":[{"name":"kind","type":"string","value":"lane"},{"name":"dir","type":"string","value":"s"},{"name":"road","type":"string","value":"v17"},{"name":"through","type":"string","value":"0"}]},{"id":492,"name":"v17","type":"","rotation":0,"visible":true,"x":312.0,"y":800,"width":0,"height":0,"polyline":[{"x":0,"y":0},{"x":0.0,"y":-400}],"properties":[{"name":"kind","type":"string","value":"lane"},{"name":"dir","type":"string","value":"n"},{"name":"road","type":"string","value":"v17"},{"name":"through","type":"string","value":"0"}]},{"id":493,"name":"","type":"","rotation":0,"point":true,"visible":true,"x":312.0,"y":434,"width":0,"height":0,"properties":[{"name":"kind","type":"string","value":"stopline"},{"name":"axis","type":"string","value":"v"},{"name":"dir","type":"string","value":"n"},{"name":"signal","type":"string","value":"0"}]},{"id":494,"name":"v45","type":"","rotation":0,"visible":true,"x":728.0,"y":0,"width":0,"height":0,"polyline":[{"x":0,"y":0},{"x":0.0,"y":800}],"properties":[{"name":"kind","type":"string","value":"lane"},{"name":"dir","type":"string","value":"s"},{"name":"road","type":"string","value":"v45"},{"name":"through","type":"string","value":"1"}]},{"id":495,"name":"","type":"","rotation":0,"point":true,"visible":true,"x":728.0,"y":350,"width":0,"height":0,"properties":[{"name":"kind","type":"string","value":"stopline"},{"name":"axis","type":"string","value":"v"},{"name":"dir","type":"string","value":"s"},{"name":"signal","type":"string","value":"1"}]},{"id":496,"name":"v45","type":"","rotation":0,"visible":true,"x":760.0,"y":800,"width":0,"height":0,"polyline":[{"x":0,"y":0},{"x":0.0,"y":-800}],"properties":[{"name":"kind","type":"string","value":"lane"},{"name":"dir","type":"string","value":"n"},{"name":"road","type":"string","value":"v45"},{"name":"through","type":"string","value":"1"}]},{"id":497,"name":"","type":"","rotation":0,"point":true,"visible":true,"x":760.0,"y":434,"width":0,"height":0,"properties":[{"name":"kind","type":"string","value":"stopline"},{"name":"axis","type":"string","value":"v"},{"name":"dir","type":"string","value":"n"},{"name":"signal","type":"string","value":"1"}]}]}]}