{"type":"map","version":"1.10","tiledversion":"1.10.2","orientation":"orthogonal","renderorder":"right-down","compressionlevel":-1,"infinite":false,"width":75,"height":50,"tilewidth":16,"tileheight":16,"nextlayerid":9,"nextobjectid":562,"tilesets":[{"firstgid":1,"name":"rpg-tileset","image":"../../tilesets/rpg-tileset.png","imagewidth":1600,"imageheight":1600,"tilewidth":16,"tileheight":16,"columns":100,"tilecount":10000,"margin":0,"spacing":0},{"firstgid":10001,"name":"township-modern","image":"../../tilesets/township-modern.png","imagewidth":160,"imageheight":480,"tilewidth":16,"tileheight":16,"columns":10,"tilecount":300,"margin":0,"spacing":0}],"layers":[{"id":1,"name":"ground","type":"tilelayer","visible":true,"opacity":1,"x":0,"y":0,"width":75,"height":50,"data":[204,202,303,304,303,204,202,203,302,205,203,204,202,202,204,202,205,305,305,304,203,305,304,304,204,202,203,204,204,203,205,304,202,203,303,203,205,204,205,304,303,304,204,304,10017,205,10017,203,203,203,305,202,205,205,203,202,202,302,302,203,204,203,204,203,204,203,204,303,202,202,303,205,303,204,304,304,302,203,205,203,303,305,202,302,204,204,302,302,204,304,204,205,205,203,305,202,205,302,303,302,203,204,202,302,205,304,304,205,304,304,303,204,305,304,203,205,205,202,202,202,205,204,205,304,302,302,202,202,305,202,202,305,204,202,205,204,304,303,203,205,204,204,204,205,203,304,303,302,303,203,202,302,304,305,203,204,304,204,204,305,205,203,305,304,205,304,205,204,203,202,204,302,304,203,302,205,202,304,202,304,305,303,205,205,203,303,203,205,203,202,304,203,203,203,304,205,205,204,303,302,302,204,203,203,202,305,304,203,302,302,202,303,203,302,205,204,303,205,202,304,302,205,303,305,304,304,205,304,205,203,303,304,205,202,305,204,302,303,202,202,204,302,202,202,305,302,305,205,204,202,203,205,302,302,305,202,203,202,304,302,302,304,202,302,203,203,302,305,202,302,302,305,305,203,302,304,305,304,304,202,202,303,202,205,205,202,303,304,203,305,203,204,205,202,203,202,303,203,203,304,204,302,205,202,202,302,304,205,304,204,204,203,305,203,202,203,305,304,203,202,202,202,204,205,205,202,205,302,202,304,304,303,302,204,203,202,305,205,202,302,203,203,203,204,204,304,305,303,202,205,202,203,302,203,302,302,304,303,304,205,203,204,205,204,302,303,202,204,302,302,202,202,204,303,202,305,202,304,205,205,205,303,304,205,302,304,302,204,205,303,202,204,303,202,204,203,205,202,304,202,303,304,205,202,204,205,203,304,202,203,203,303,205,204,204,204,305,202,204,305,204,204,203,202,205,204,202,302,302,304,304,205,203,204,204,204,305,305,304,302,304,204,202,203,202,305,204,304,204,204,205,202,203,203,205,305,302,304,203,303,305,205,204,203,305,204,305,202,204,205,202,304,304,304,204,205,203,302,302,203,303,304,303,204,205,304,203,202,203,202,205,205,203,204,302,203,203,305,203,303,305,305,204,202,204,203,202,202,203,202,202,302,305,304,303,305,304,305,303,203,202,205,305,304,303,203,204,304,203,303,305,302,202,202,205,204,302,205,205,302,205,202,303,305,202,204,203,305,204,203,205,204,302,303,303,202,204,303,203,304,205,202,202,303,302,303,202,305,204,305,303,203,205,205,305,203,303,204,204,303,303,302,302,202,304,204,203,202,205,304,205,202,302,302,302,305,303,302,302,303,203,205,304,305,304,302,302,302,304,305,205,305,303,302,304,302,202,304,302,202,202,302,303,305,302,303,202,302,303,302,303,303,203,305,203,302,302,204,202,304,302,205,204,305,203,304,205,205,302,204,202,303,304,303,305,305,202,205,204,302,204,302,203,302,204,302,304,204,302,304,205,302,305,204,305,204,204,202,303,202,305,303,302,203,305,204,203,203,303,303,202,205,305,303,303,303,202,204,203,304,303,204,303,204,303,205,303,202,303,204,305,302,305,304,303,303,304,305,303,304,304,304,303,302,305,204,203,303,302,204,205,302,205,203,204,205,304,304,204,204,302,302,302,304,303,203,204,205,205,202,204,202,305,202,304,203,304,302,205,203,204,204,304,204,303,203,303,302,202,202,304,304,203,305,203,204,204,204,302,203,304,302,202,305,202,303,203,204,203,203,205,202,203,302,205,304,204,202,205,305,204,203,303,304,203,302,303,303,202,302,204,205,203,302,203,305,304,202,302,304,205,305,204,204,203,205,304,204,205,302,205,204,303,303,302,304,203,204,202,304,302,202,203,202,304,305,203,202,303,304,302,305,303,302,304,203,305,303,205,304,302,304,205,305,303,205,305,205,303,303,304,302,205,302,203,205,303,202,305,305,302,204,303,205,203,303,303,205,302,304,204,204,203,302,305,302,305,204,304,305,203,305,304,303,305,302,302,205,302,305,203,202,303,202,304,305,304,203,203,205,303,305,202,203,204,303,202,202,303,204,305,204,203,304,202,302,302,202,304,302,202,305,305,205,204,202,205,203,304,204,204,304,303,304,305,202,202,202,203,205,202,203,204,204,303,302,202,203,304,304,304,304,204,204,205,203,204,202,304,305,204,303,203,302,205,205,305,203,302,303,302,205,204,202,202,304,204,205,202,304,205,205,205,304,305,205,203,205,204,305,203,203,304,205,205,202,202,305,202,204,302,303,204,304,203,305,303,202,204,303,304,302,202,203,202,204,302,202,302,304,305,303,202,202,204,303,305,303,303,204,204,303,205,202,304,205,204,205,202,204,304,203,304,202,202,302,303,305,202,205,303,203,203,205,204,302,305,203,203,303,205,205,304,305,202,204,304,205,304,204,302,305,204,204,203,202,302,303,204,202,305,202,205,205,202,305,204,303,304,203,203,305,205,203,305,303,205,204,303,203,204,202,303,202,305,202,205,204,304,305,205,204,303,204,203,305,204,203,202,202,205,302,202,204,205,303,202,305,303,302,304,202,302,205,303,304,302,205,305,302,305,305,204,304,203,304,202,203,303,302,204,203,304,305,304,205,302,202,202,203,205,303,205,205,204,305,204,302,303,302,202,302,304,304,202,203,202,303,303,205,304,203,305,205,305,204,302,305,205,305,203,302,205,205,203,305,205,304,303,305,202,203,302,303,202,305,205,202,204,302,302,302,204,305,303,305,204,305,205,203,304,204,204,204,304,303,304,302,302,303,305,203,205,202,203,202,203,302,305,305,304,304,305,205,203,202,204,203,205,204,304,304,203,202,304,202,303,205,205,205,203,204,205,302,302,305,202,303,305,303,305,204,203,205,204,302,303,305,302,303,304,302,203,305,305,203,203,305,203,305,204,303,204,203,205,202,205,205,205,303,304,204,305,304,305,302,303,202,305,203,203,202,202,204,305,202,205,205,205,304,304,303,303,203,303,202,305,304,303,304,203,302,205,304,304,304,204,205,304,304,305,203,303,304,205,205,205,202,203,204,302,203,303,302,305,303,202,204,203,202,203,202,305,305,205,302,203,302,205,203,305,302,204,204,303,305,303,205,304,303,303,302,203,302,305,302,305,204,303,305,305,302,202,204,205,205,302,202,304,202,202,303,302,204,305,302,203,305,304,303,305,205,202,203,205,203,202,302,204,205,302,202,202,302,202,304,205,303,302,204,205,304,205,203,305,205,302,205,202,302,304,205,303,305,303,304,203,302,302,203,205,302,302,204,203,302,303,203,302,204,205,304,205,202,302,304,305,203,202,302,203,203,303,204,202,302,204,304,203,203,202,205,305,304,305,303,305,304,204,202,302,202,303,305,303,305,302,304,203,302,203,202,204,302,305,203,305,203,203,303,302,304,204,305,205,303,204,202,303,202,204,204,304,203,205,202,305,305,203,203,304,203,203,204,303,205,202,205,305,304,204,202,302,203,302,203,303,205,305,203,202,304,203,204,303,205,302,305,304,304,202,205,304,304,303,305,302,303,204,202,204,205,203,203,304,303,203,203,305,203,202,303,302,304,202,202,202,302,305,302,205,304,204,302,204,303,302,304,203,205,303,304,203,204,202,202,204,203,204,204,305,203,202,302,205,304,204,204,305,202,302,203,305,302,204,305,202,305,204,302,205,302,305,202,305,203,305,303,205,304,205,302,302,304,203,303,202,303,203,304,302,303,205,305,203,205,304,304,304,205,304,205,302,304,203,204,203,205,203,304,302,303,202,10001,203,205,303,10002,304,305,304,303,303,305,203,303,202,302,305,303,303,204,202,303,303,303,203,304,304,204,304,303,303,205,203,10020,205,303,303,203,202,303,304,302,303,304,205,202,304,302,302,302,203,203,202,203,203,202,305,302,305,304,304,204,204,303,204,204,203,304,204,305,303,205,205,202,204,302,202,203,303,202,202,203,302,205,202,203,305,202,202,303,305,205,205,305,305,305,204,203,302,204,204,304,303,202,303,204,205,10018,303,302,205,205,305,203,202,303,205,202,305,203,203,203,302,305,302,303,203,205,202,303,304,202,204,204,202,202,302,203,204,305,304,204,305,203,202,202,203,204,204,304,202,205,303,303,204,205,202,203,304,204,303,304,302,302,303,205,304,303,203,303,202,203,203,305,205,302,302,305,302,304,302,204,203,10019,202,302,305,303,302,305,305,302,304,202,202,204,302,303,304,305,302,203,205,204,304,203,205,205,203,205,304,302,203,302,204,303,304,303,204,302,203,203,202,204,202,305,304,302,303,205,202,202,303,202,205,303,302,302,302,305,302,205,204,305,202,202,204,205,302,304,304,204,205,303,202,205,204,10020,204,202,205,204,203,303,205,302,302,303,302,303,202,304,303,303,205,204,303,205,304,202,303,302,205,303,10002,302,302,304,10002,302,304,305,302,302,304,304,305,205,305,303,204,302,204,304,302,202,303,202,10004,304,203,203,10003,304,304,303,303,202,305,203,205,305,204,305,303,304,203,302,205,202,204,204,303,204,202,203,305,205,303,202,202,203,203,302,203,205,302,304,204,305,202,302,202,302,302,205,304,204,304,202,204,305,302,305,203,204,304,203,205,302,304,304,304,303,202,204,202,305,205,203,203,202,204,203,303,203,202,205,204,302,203,204,203,304,203,203,203,205,304,303,302,305,204,204,303,304,302,202,203,203,205,302,205,205,305,305,303,302,203,202,204,204,305,203,305,305,202,204,202,205,203,302,302,203,204,203,203,205,203,303,303,304,305,202,202,304,303,202,305,303,305,202,203,204,204,204,205,303,203,303,202,205,205,303,204,302,202,305,202,305,302,305,304,305,202,202,202,205,305,305,303,203,204,305,205,303,303,203,204,202,205,202,204,204,302,202,202,303,205,204,302,302,203,302,302,202,203,303,304,303,305,304,205,304,304,303,202,303,205,202,305,203,203,303,203,304,303,204,202,202,205,302,203,202,204,203,204,203,303,205,304,305,203,302,205,305,302,204,202,202,303,303,204,203,303,304,203,204,203,204,202,303,305,203,304,204,302,204,304,304,303,303,204,204,304,304,302,303,305,304,305,305,203,205,205,303,303,304,303,305,203,303,304,202,203,303,205,305,302,302,305,202,203,303,202,303,203,204,304,305,302,303,205,203,204,202,205,203,304,302,204,205,302,203,304,305,303,302,303,303,205,302,304,304,305,303,203,304,303,302,204,302,305,305,202,302,205,203,303,305,302,203,204,305,203,202,304,204,202,305,203,303,202,202,303,202,305,304,302,202,205,202,303,304,302,304,303,305,205,202,303,205,205,302,202,305,303,304,204,305,202,202,205,304,305,204,203,202,205,203,204,205,304,205,202,202,304,304,304,302,203,305,305,202,202,205,304,202,203,202,204,205,203,305,305,203,302,202,202,305,304,305,203,204,202,202,302,303,204,204,202,203,202,302,303,304,204,205,202,204,205,305,304,304,302,204,303,305,302,304,204,303,204,203,303,204,205,303,303,204,203,304,305,305,305,305,203,203,202,304,204,305,305,305,204,202,302,305,302,202,305,202,204,204,202,302,204,303,204,205,203,202,203,203,302,203,203,203,303,202,304,205,303,305,204,203,203,205,305,203,205,205,305,304,203,203,202,303,203,302,303,202,203,303,203,303,304,303,205,203,203,304,304,303,302,304,203,203,302,305,204,202,202,304,203,303,303,302,204,305,204,204,205,302,303,202,205,205,204,304,304,204,305,305,305,204,302,305,204,303,302,204,302,305,203,305,204,304,204,302,205,305,304,205,204,202,203,303,202,303,305,303,305,205,203,203,205,204,203,305,304,305,205,303,305,203,305,302,205,302,205,204,202,302,305,203,302,303,302,305,302,204,203,204,303,304,304,202,202,302,303,203,305,305,205,205,203,204,202,205,304,303,302,203,202,204,203,303,203,10004,205,204,205,303,205,202,202,204,203,202,304,305,303,202,302,302,303,302,302,302,202,203,204,204,304,202,204,205,305,204,202,305,204,304,202,205,204,305,302,303,304,304,204,302,304,205,305,203,305,302,205,203,303,205,305,202,205,204,304,304,305,205,203,202,302,305,205,302,205,304,303,303,204,303,303,305,202,302,204,204,303,203,204,202,205,303,305,203,203,204,205,305,203,302,302,204,204,304,304,303,203,202,305,205,304,203,304,303,303,305,203,205,303,204,203,302,202,204,304,303,202,204,302,205,203,203,304,304,305,303,305,202,204,205,202,204,205,305,202,303,205,303,205,205,305,202,303,304,302,203,205,205,305,302,303,304,204,302,303,303,305,305,302,302,205,203,202,304,205,202,205,204,202,304,202,302,303,304,303,202,202,305,304,302,204,305,202,305,304,305,304,302,205,302,202,203,205,305,203,304,302,204,202,204,303,302,204,205,204,204,302,302,203,303,302,203,203,205,205,304,205,204,203,305,302,204,303,205,204,302,302,304,205,204,204,302,203,204,205,205,204,305,203,202,204,305,203,205,302,10019,204,10020,303,303,203,202,204,305,303,305,205,304,202,205,304,205,203,305,302,304,205,305,302,305,304,202,205,202,305,302,304,204,202,302,303,304,203,203,205,305,205,203,303,304,303,203,304,205,304,202,302,303,303,302,303,204,204,202,304,203,304,305,204,303,204,302,202,202,204,204,303,304,304,302,203,304,205,304,204,303,303,305,305,302,303,302,304,204,304,304,305,202,202,305,205,203,204,305,305,302,304,304,304,303,303,204,304,302,302,202,204,203,305,303,305,204,302,204,205,302,203,203,305,302,203,305,205,304,305,203,302,302,202,205,304,205,205,202,202,203,302,305,303,205,202,305,305,204,305,202,302,302,205,205,302,302,202,205,305,203,204,205,204,205,304,305,302,205,205,204,303,305,305,303,305,302,202,303,303,302,202,205,205,204,303,205,202,203,202,304,303,203,205,203,304,202,302,302,205,303,204,305,205,304,204,202,305,203,303,302,305,303,305,203,202,205,302,202,204,205,204,304,304,204,202,203,202,204,202,202,305,305,205,204,304,304,305,204,303,302,205,202,302,305,204,302,305,303,203,203,203,204,202,203,302,303,204,204,304,303,303,305,205,304,304,202,305,204,305,305,204,304,203,302,303,203,303,205,303,202,305,303,203,305,205,305,205,203,203,305,303,205,303,305,302,303,202,303,202,304,203,303,304,305,304,302,304,203,204,304,303,204,302,302,204,204,204,204,304,302,302,303,302,202,302,204,203,302,305,302,205,205,202,203,204,202,305,303,304,203,203,302,202,205,204,204,202,302,204,203,202,205,302,304,305,203,205,305,204,202,203,304,304,205,304,205,304,305,302,205,303,302,305,303,305,305,203,302,303,204,205,302,204,202,303,204,305,304,304,202,203,303,303,304,203,205,202,203,205,305,303,202,304,303,302,203,202,304,204,304,304,305,203,205,303,204,304,204,302,303,205,304,202,302,303,205,304,202,304,202,202,205,205,304,305,204,305,205,203,203,204,204,303,203,303,205,304,303,304,305,204,202,203,304,204,205,303,204,205,202,304,303,203,202,302,204,204,204,202,302,304,204,205,204,305,305,202,304,302,304,302,302,202,202,205,202,304,302,304,202,305,304,204,205,304,303,202,304,204,202,303,203,205,303,202,204,203,205,205,305,302,204,302,303,203,204,302,205,205,205,303,303,204,303,304,205,203,203,202,202,203,305,304,202,204,202,202,303,203,305,302,304,203,304,305,305,205,305,303,205,203,205,202,304,304,202,203,304,305,305,202,202,303,302,203,305,304,204,303,205,304,204,204,303,303,205,303,303,305,204,303,305,302,205,303,204,205,202,302,202,205,303,204,303,203,304,203,305,303,205,203,204,304,304,302,202,305,205,205,203,302,203,202,305,304,305,205,202,304,304,305,305,204,204,202,304,303,202,305,205,205,303,302,305,302,305,202,302,303,305,302,304,205,203,305,202,304,304,303,305,204,302,204,202,302,304,303,205,204,204,203,302,203,202,203,302,205,302,205,204,204,304,205,303,202,205,303,304,304,203,204,304,203,204,203,302,303,304,204,205,203,202,205,305,204,203,304,304,204,204,205,202,305,203,305,205,205,305,205,203,202,305,204,202,203,304,304,305,205,205,203,302,203,203,203,303,302,202,305,203,304,302,202,204,205,203,205,204,305,304,303,205,204,305,204,202,305,302,205,304,305,305,305,303,202,205,303,302,304,204,303,202,304,202,204,305,302,305,305,304,305,303,304,302,303,203,304,204,303,305,303,303,204,203,303,302,203,205,304,204,202,202,205,304,202,205,203,205,303,305,10020,203,10019,302,305,205,302,202,305,305,203,202,305,204,205,305,302,205,304,305,305,204,202,305,202,204,204,305,304,305,205,202,304,302,304,203,202,204,305,302,303,302,204,203,305,302,304,202]},{"id":2,"name":"ground-detail","type":"tilelayer","visible":true,"opacity":1,"x":0,"y":0,"width":75,"height":50,"data":[10183,10181,10184,10184,10181,10183,10183,10181,10181,10184,10181,10181,10182,10181,10184,10183,10183,10184,10181,10181,10181,10183,10182,10184,10183,10182,10184,10184,10184,10183,10183,10182,10181,10184,10183,10181,10181,10184,10182,10183,10181,10182,10189,10021,10005,10006,10007,10021,10188,10183,10181,10183,10181,10181,10184,10182,10183,10183,10182,10183,10183,10182,10183,10184,10181,10184,10182,10182,10183,10182,10182,10184,10182,10183,10182,10183,10184,10181,10182,10183,10182,10183,10182,10182,10182,10182,10184,10184,10181,10181,10181,10181,10184,10182,10183,10183,10181,10182,10181,10181,10183,10181,10181,10181,10181,10181,10182,10184,10183,10183,10184,10184,10182,10184,10183,10183,10181,10189,10024,10008,10036,10009,10024,10188,10184,10182,10182,10181,10184,10183,10181,10181,10182,10183,10182,10183,10182,10181,10181,10183,10184,10181,10184,10183,10181,10183,10184,10184,10184,10182,10182,10183,10181,10191,10191,10191,10191,10191,10191,10191,10191,10191,10191,10191,10191,10191,10191,10191,10191,10191,10191,10191,10191,10191,10191,10191,10191,10191,10191,10191,10191,10191,10191,10191,10191,10191,10191,10191,10191,10191,10191,10181,10189,10024,10008,10003,10009,10024,10188,10184,10191,10191,10191,10191,10191,10191,10191,10191,10191,10191,10191,10191,10191,10191,10182,10181,10184,10191,10191,10191,10191,10191,10184,10181,10184,10182,10182,10189,10193,0,0,0,0,0,0,10021,10022,10022,10022,10022,10022,10022,10022,10022,10023,0,0,0,0,0,0,0,0,0,0,0,0,0,0,0,0,0,0,0,0,10194,10188,10189,10024,10008,10002,10009,10024,10188,10189,10193,0,0,0,0,0,0,0,0,0,0,0,0,10194,10188,10182,10189,10193,0,0,0,10194,10188,10183,10184,10182,10183,10189,10195,0,0,0,0,0,0,10024,10019,10019,10020,10019,10017,10020,10019,10018,10025,0,0,0,0,0,0,0,0,0,10180,0,0,0,0,0,0,10180,0,0,0,0,10190,10192,10024,10008,10036,10009,10024,10188,10189,0,0,0,0,0,0,0,0,0,0,0,0,0,0,10188,10183,10189,0,0,0,0,10196,10188,10182,10184,10181,10181,10181,10186,10186,10187,0,0,0,0,10024,10017,10020,10017,10018,10017,10020,10019,10018,10025,0,0,0,0,0,0,0,0,0,10180,0,0,0,0,0,0,10180,0,0,0,0,0,0,10024,10008,10004,10009,10024,10190,10192,0,0,0,0,0,0,0,0,0,0,0,0,0,0,10190,10191,10192,0,0,0,0,10185,10182,10181,10181,10184,10181,10182,10184,10183,10189,0,10021,10023,0,10026,10027,10027,10027,10027,10027,10027,10027,10027,10028,0,0,0,0,0,0,0,0,0,10180,0,0,0,0,0,0,10180,0,0,0,0,0,0,10024,10008,10003,10009,10024,0,0,0,0,0,0,0,0,0,0,0,0,0,0,0,0,0,0,0,0,0,0,0,10188,10182,10182,10183,10181,10181,10183,10191,10191,10192,0,10024,10025,10180,0,0,0,0,0,0,0,0,0,0,0,0,0,0,0,0,0,0,0,10179,0,0,0,0,0,0,10179,0,0,0,0,0,0,10024,10008,10036,10009,10024,0,0,0,0,0,0,0,0,0,0,0,0,0,0,0,0,0,0,0,0,0,0,0,10190,10181,10184,10184,10181,10184,10189,0,0,0,0,10024,10025,10180,10185,10186,10186,10186,10186,10186,10186,10186,10186,10187,0,0,0,0,0,0,0,0,0,10180,0,0,0,0,0,0,10179,0,0,0,0,0,0,10024,10008,10003,10009,10024,1903,1904,1904,1903,1903,1903,1905,0,1902,1904,1905,0,0,0,0,0,0,0,0,0,0,0,0,10194,10188,10183,10182,10182,10183,10183,10186,10186,10187,0,10024,10025,10180,0,0,0,0,0,0,0,0,0,0,0,0,0,0,0,0,0,0,0,10179,0,0,0,0,0,0,10179,0,0,0,0,0,0,10024,10008,10003,10009,10024,10201,2103,2103,2003,2104,2103,2104,1904,2104,2004,2003,1905,0,0,0,0,0,0,0,0,0,0,0,0,10188,10182,10183,10183,10184,10184,10184,10182,10189,0,10024,10025,10180,0,0,0,0,0,0,0,0,0,0,0,0,10021,885,884,882,882,784,10022,10022,10022,885,885,782,782,10022,10022,10022,883,884,783,785,10022,10025,10008,10036,10009,10024,2104,2103,2004,2003,2004,2003,2104,2003,2104,2004,2005,0,0,0,0,0,0,0,0,0,0,0,0,0,10188,10181,10181,10181,10181,10183,10191,10191,10192,0,10024,10025,10180,0,0,0,0,0,0,0,0,0,0,0,0,0,0,10264,10264,0,0,0,0,0,0,10264,10264,0,10185,10186,10186,10187,10264,10264,10185,10187,10024,10008,10003,10009,182,183,184,185,186,2003,2104,2004,2104,2003,2003,2105,0,0,0,0,0,0,0,0,0,0,0,0,0,10190,10182,10182,10181,10181,10189,10193,0,0,0,10024,10025,10180,0,0,0,0,0,0,0,0,0,0,0,10185,10186,10186,10186,10186,10186,10186,10186,10186,10186,10186,10186,10186,10187,0,0,0,0,0,0,0,0,10024,10008,10002,10009,282,283,284,285,286,2004,2003,2103,2103,2004,2103,2103,1905,10021,10022,10022,10022,10022,10022,10022,10022,10022,10022,10022,10022,10023,10188,10181,10182,10183,10189,0,0,0,0,10024,10025,10180,0,0,0,0,0,0,0,0,0,0,0,0,0,0,0,0,0,0,0,0,0,0,0,0,0,0,0,0,0,0,0,0,0,10024,10008,10036,10009,682,683,684,685,686,2104,2003,2103,2103,2104,2003,2004,2205,0,0,0,0,0,0,10024,0,0,0,0,0,10185,10184,10181,10181,10181,10189,0,0,0,0,10024,10025,10179,0,0,0,0,0,0,0,0,0,0,0,0,0,0,0,0,0,0,0,0,0,0,0,0,0,0,0,0,0,0,0,0,0,10024,10008,10004,10009,10024,2102,2103,2104,2003,10201,2104,2003,2004,2104,2103,2105,0,0,0,0,0,0,0,10024,0,0,0,0,0,10188,10181,10183,10183,10184,10189,0,0,0,0,10024,10025,10180,0,0,0,0,0,0,0,0,0,0,0,0,0,0,0,0,0,0,0,0,0,0,0,0,0,0,0,0,0,0,0,0,0,10024,10008,10002,10009,10024,2102,2003,2104,2003,10206,2003,2104,2003,2104,2104,2105,0,0,0,0,0,0,0,10024,0,0,0,0,0,10188,10182,10182,10182,10183,10189,0,0,0,0,10024,10025,0,0,0,0,0,0,0,0,0,0,0,0,0,0,0,0,0,0,0,0,0,0,0,0,0,0,0,0,0,0,0,0,0,0,10024,10008,10036,10009,1912,1913,1913,1913,1913,1913,1913,1914,1914,1915,2003,2105,0,0,0,0,0,0,0,10024,0,0,0,0,0,10188,10181,10182,10183,10181,10189,0,0,0,0,10024,10025,0,5701,5702,5703,5704,5705,5702,5703,5704,5705,5706,0,0,0,0,0,0,0,0,0,0,0,0,0,0,0,0,0,0,0,0,0,0,0,10024,10008,10003,10009,2212,2213,2214,2213,2214,2213,2213,2214,2013,2115,2003,2005,0,0,0,0,0,0,0,10024,0,0,0,0,0,10188,10182,10181,10182,10182,10189,0,0,0,0,10024,10025,0,5801,5802,5803,5804,5805,5802,5803,5804,5805,5806,0,0,0,0,0,0,0,0,0,0,0,0,0,0,0,0,0,0,0,0,0,0,0,10024,10008,10002,10009,10024,10185,10186,10187,2203,2204,2003,2003,2112,2015,2003,2203,1905,0,0,0,0,0,0,10024,0,0,0,0,0,10190,10184,10183,10184,10183,10189,10195,0,0,0,10024,10025,0,5801,5802,5803,5804,5805,5802,5803,5804,5805,5806,0,0,0,0,0,0,0,0,0,0,0,0,0,0,0,0,0,10021,10022,10022,10023,0,0,10024,10008,10036,10009,10024,10188,10184,10184,10187,0,2202,2205,2012,2115,2205,0,2202,0,0,0,0,0,0,10024,0,0,0,0,0,10194,10188,10184,10182,10181,10184,10186,10187,0,0,10024,10025,0,5801,5802,5803,5804,5805,5802,5803,5804,5805,5806,0,0,0,10021,10023,0,0,0,0,0,10021,10023,0,0,0,0,0,10024,10019,10018,10025,0,0,10024,10008,10004,10009,10024,10188,10182,10184,10189,0,0,0,2112,2115,0,0,0,0,0,0,0,0,0,10024,0,0,0,0,0,0,10188,10182,10191,10191,10191,10191,10192,0,0,10024,10025,0,5901,5902,5903,5904,5905,5902,5903,5904,5905,5906,0,10179,10179,10024,10025,10179,10179,10180,10180,10180,10024,10025,10180,10180,10179,0,10180,10024,10018,10020,10025,10179,0,10024,10008,10002,10009,10024,10190,10191,10191,10192,0,0,0,2212,2215,10021,10022,10022,10022,882,885,884,784,10022,10018,10022,885,782,785,885,10023,10190,10191,10021,10022,10022,10022,10022,10022,10022,10027,10027,10022,10022,10022,10022,10022,10022,10022,10022,10022,10022,10022,10022,10022,10022,10027,10027,10022,10022,10022,10022,10022,10027,10027,10022,10022,10022,10022,10022,10027,10027,10027,10027,10022,10022,10028,10034,10034,10034,10026,10022,10022,10022,10022,10022,10022,10022,10022,10022,10027,10027,10027,10027,10027,10027,10027,10027,10027,10027,10027,10027,10027,10027,10027,10027,10022,10023,10005,10006,10006,10006,10006,10006,10006,10006,10006,10006,10006,10006,10006,10006,10006,10006,10006,10006,10006,10006,10006,10006,10006,10006,10006,10006,10033,10006,10006,10006,10033,10006,10006,10006,10006,10006,10006,10006,10006,10006,10006,10006,10006,10033,10002,10004,10002,10033,10006,10006,10033,10006,10006,10006,10033,10006,10006,10006,10006,10006,10006,10006,10006,10006,10006,10006,10006,10006,10006,10006,10006,10006,10006,10006,10007,10008,10035,10004,10001,10035,10002,10002,10035,10002,10001,10035,10001,10002,10035,10004,10002,10035,10003,10001,10035,10004,10004,10035,10001,10002,10035,10033,10003,10003,10002,10033,10035,10002,10002,10035,10002,10004,10035,10001,10001,10035,10004,10003,10033,10002,10002,10003,10033,10001,10035,10033,10004,10001,10003,10033,10035,10004,10004,10035,10003,10004,10035,10001,10001,10035,10004,10004,10035,10003,10003,10035,10004,10003,10035,10009,10010,10011,10011,10011,10011,10011,10011,10011,10011,10011,10011,10011,10011,10011,10011,10011,10042,10011,10011,10011,10011,10011,10011,10011,10011,10011,10033,10004,10001,10004,10033,10011,10011,10011,10011,10011,10011,10011,10011,10011,10011,10011,10011,10033,10011,10011,10011,10033,10042,10011,10033,10003,10002,10002,10033,10011,10041,10011,10041,10011,10041,10011,10041,10011,10011,10011,10011,10011,10011,10011,10011,10011,10011,10011,10012,10021,10022,10022,10022,10022,10022,10022,10022,10022,10022,10022,10022,10022,10022,10022,10022,10022,10022,10022,10022,10022,10022,10022,10022,10022,10022,10023,10034,10034,10034,10021,10022,10022,10022,10022,10022,10022,10022,10022,10022,10022,10022,10022,10022,10022,10022,10022,10022,10022,10022,10023,10034,10034,10034,10021,10022,10022,10022,10022,10022,10022,10022,10022,10022,10022,10022,10022,10022,10022,10022,10022,10022,10022,10022,10023,10186,10186,10186,10186,10187,2003,2005,0,0,0,0,0,0,0,0,0,0,1912,1915,10185,10186,10186,10186,10186,10186,10186,10187,10008,10004,10009,10024,10185,10186,10186,10186,10186,10187,0,10185,10186,10186,10186,10186,10186,10186,10186,10186,10186,10186,10187,10024,10008,10002,10009,10024,0,0,0,0,0,0,0,0,0,0,0,10185,10186,10186,10186,10186,10186,10186,10186,10186,10181,10182,10181,10181,10189,2103,2105,0,0,0,0,0,0,0,0,0,0,2012,2015,0,0,0,0,0,0,0,0,10008,10036,10009,10024,0,0,0,0,0,0,0,0,0,0,0,0,0,0,0,0,0,0,0,10024,10008,10036,10009,10024,0,0,0,0,0,0,0,0,0,0,0,0,0,10194,10190,10191,10191,10181,10181,10183,10184,10181,10184,10181,10184,10187,2103,1905,0,0,0,0,0,0,0,0,0,2112,2115,0,0,0,0,0,0,0,0,10008,10003,10009,10024,0,0,0,0,0,0,0,0,0,0,0,0,0,0,0,0,0,0,0,10024,10008,10002,10009,10024,10185,10186,10186,10186,10186,10186,10186,10186,10187,0,10179,0,0,0,0,0,10194,10188,10183,10183,10183,10184,10184,10181,10182,10189,2005,0,0,0,0,0,0,0,0,0,0,2112,2115,0,0,0,0,0,0,0,0,10008,10002,10009,10024,0,0,0,0,0,0,0,0,0,0,0,0,0,0,0,0,0,0,0,10024,10008,10001,10009,10024,0,0,0,0,0,0,0,0,0,0,10179,0,0,0,0,0,0,10190,10181,10181,10182,10183,10182,10191,10191,10192,2202,1905,10185,10186,10186,10186,10186,10186,10186,10187,0,2112,2015,0,0,0,0,0,0,0,0,10008,10036,10009,10024,0,0,0,0,0,0,0,0,0,0,0,0,0,0,0,0,0,0,0,10024,10008,10036,10009,10024,0,0,0,0,0,0,0,0,0,0,10179,0,0,0,0,0,0,10194,10188,10183,10182,10184,10189,10193,0,0,0,0,0,0,0,0,0,0,0,0,0,2012,2115,0,0,0,0,0,0,0,0,10008,10002,10009,10024,0,0,0,0,0,0,0,0,0,0,0,0,0,0,0,0,0,0,0,10024,10008,10003,10009,10024,0,0,0,0,0,0,0,0,0,0,10180,0,0,0,0,0,0,0,10190,10182,10184,10183,10189,0,0,0,0,0,0,0,0,0,0,0,0,0,0,2112,2115,0,0,0,0,0,0,0,0,10008,10003,10009,10024,0,0,0,0,0,0,0,0,0,0,0,0,0,0,0,0,0,0,0,10024,10008,10001,10009,10024,0,0,0,0,0,0,0,0,0,0,10180,0,0,0,0,0,0,0,0,10188,10182,10183,10189,0,0,0,0,0,0,0,0,0,0,0,0,0,0,2012,2115,0,0,0,0,0,0,0,0,10008,10036,10009,10024,0,0,0,0,0,0,0,0,0,0,0,0,0,0,0,0,0,0,0,10024,10008,10036,10009,10024,0,0,0,0,0,0,0,0,0,0,10179,0,0,0,0,0,0,0,10185,10181,10184,10184,10189,0,0,0,0,0,0,0,0,0,0,0,0,0,0,2012,2115,0,10021,10022,10022,10022,10022,10022,10023,10008,10003,10009,10024,10022,10022,10022,10022,10022,10022,10022,10022,10022,10022,10022,10022,10022,10022,10022,10022,10022,10022,10022,10025,10008,10004,10009,10024,0,0,0,0,0,0,0,0,0,0,0,0,0,0,0,0,0,10196,10188,10182,10184,10183,10189,0,0,0,0,0,0,0,0,0,0,0,0,0,0,2112,2015,0,10026,10027,10027,10027,10027,10027,10025,10008,10003,10009,10024,10018,10019,10018,10017,10018,10018,10020,10018,10020,10025,0,0,0,0,0,0,0,0,0,10024,10008,10001,10009,10024,0,0,0,0,0,0,0,0,0,0,10021,10022,883,785,785,883,10023,10185,10183,10184,10183,10182,10189,0,0,0,0,0,0,0,0,0,0,0,0,0,0,2112,2115,10179,10179,0,0,0,0,0,10024,10008,10036,10009,10024,10019,10018,10019,10020,10019,10019,10017,10018,10017,10025,0,0,0,0,0,0,0,0,0,10024,10008,10036,10009,10024,10022,10022,10022,10022,10022,10022,10022,10022,10022,10022,10025,0,0,10264,10264,0,0,10188,10182,10181,10182,10184,10189,10195,0,0,0,0,0,0,0,0,0,0,0,0,0,2112,2015,10179,10180,0,0,0,0,0,10024,10008,10004,10009,10024,10020,10017,10019,10018,10017,10018,10017,10020,10018,10025,0,0,0,0,0,0,0,0,0,10024,10010,10011,10012,10024,10027,10027,10027,10027,10027,10027,10027,10027,10027,10027,10028,0,0,0,0,0,0,10188,10182,10184,10184,10184,10181,10186,10186,10186,10186,10187,0,0,0,0,0,0,0,0,2019,2112,2015,0,0,0,0,0,0,0,10024,10008,10001,10009,10024,10027,10027,10027,10027,10027,10027,10027,10027,10027,10028,0,0,0,0,0,0,0,0,0,10026,182,183,184,185,183,184,185,183,184,185,183,184,185,183,184,186,0,0,0,0,0,10188,10182,10183,10183,10184,10189,10193,0,0,0,0,0,0,1912,1913,1914,1914,1914,1914,1914,2114,2115,0,0,0,0,0,0,0,10024,10008,10036,10009,10024,0,0,0,0,0,0,0,0,0,0,0,0,0,0,0,0,0,0,0,0,282,283,284,285,283,284,285,283,284,285,283,284,285,283,284,286,0,0,0,0,0,10190,10184,10183,10181,10184,10189,0,0,0,0,0,10021,10023,2212,2213,2213,2213,2214,2213,2213,2214,2215,0,0,0,0,0,0,0,10024,10008,10001,10009,10024,0,0,0,0,0,0,0,0,0,0,0,0,0,0,0,0,0,0,0,0,682,683,684,685,683,684,685,683,684,685,683,684,685,683,684,686,0,0,0,0,0,10194,10190,10191,10181,10182,10189,0,1902,0,1902,0,10024,10025,0,0,0,0,10180,10180,0,0,0,0,0,0,0,0,0,0,10024,10008,10003,10009,10024,0,0,0,0,0,0,0,0,0,0,0,2502,2503,2503,2504,2504,2504,2504,2503,2503,2503,2503,2504,2503,2503,2504,2503,2504,2504,2503,2504,2503,2503,2504,2504,2504,2503,2504,2503,2504,2503,2503,2504,2504,10184,10182,10189,1902,2103,1903,2003,1905,10024,10025,0,0,0,0,10179,10180,0,0,0,0,0,0,0,0,0,0,10024,10008,10036,10009,10024,0,0,0,0,0,0,0,0,0,0,0,2602,2704,2703,589,589,491,591,290,589,290,591,390,591,591,490,289,489,291,491,489,389,390,290,391,591,489,489,591,390,491,589,389,491,10182,10182,10189,0,2002,2104,2103,2005,10024,10025,0,0,0,0,0,0,0,0,0,0,0,0,0,0,0,0,10024,10008,10003,10009,10024,0,0,0,0,0,0,0,0,0,0,0,2702,2604,2604,489,590,490,289,590,289,391,491,391,290,590,389,491,591,591,389,591,490,490,490,391,591,589,291,490,391,589,289,291,490,10181,10183,10189,0,2202,2203,2103,2105,10024,10025,0,0,0,0,0,0,0,0,0,10185,10186,10187,0,0,0,0,10024,10008,10001,10009,10024,0,0,0,0,0,0,0,0,0,0,0,2602,2604,2603,391,591,389,589,389,391,290,589,389,389,290,290,391,590,389,489,389,589,289,589,390,591,490,589,289,591,289,389,289,289,10183,10184,10192,0,0,0,2202,2205,10024,10025,0,0,10185,10186,10187,0,0,0,0,10188,10183,10189,0,0,0,0,10024,10008,10036,10009,10024,0,0,0,0,0,0,0,0,0,0,0,2802,2803,2803,2804,2803,2803,2804,2803,2804,2804,2804,2804,2803,2803,2803,2803,2803,2803,2803,2804,2803,2804,2803,2803,2803,2804,2803,2804,2804,2804,2804,2803,2803,10181,10189,10021,784,783,883,883,10022,10027,10028,0,10196,10188,10181,10189,10195,0,0,10196,10188,10183,10189,10195,0,0,0,10024,10008,10001,10009,10024,10022,10022,10022,10022,10022,10022,10022,10022,10022,10022,10023,0,0,0,0,0,0,0,0,0,0,0,0,0,0,0,0,0,0,0,0,0,0,0,0,0,0,0,0,0,10196,10185,10186,10186,10182,10181,10186,10187,10264,10264,10185,10186,10186,10186,10186,10186,10182,10183,10184,10186,10186,10186,10186,10182,10183,10183,10186,10186,10186,10187,10024,10008,10001,10009,10024,10185,10186,10186,10186,10186,10187,0,10185,10186,10186,10186,10186,10186,10186,10186,10186,10186,10186,10186,10186,10186,10186,10186,10186,10186,10186,10186,10186,10186,10186,10186,10186,10186,10186,10186,10186,10186,10186,10186,10186,10186,10183,10182,10184,10184,10181,10183,10184,10186,10186,10183,10183,10183,10181,10181,10183,10182,10182,10184,10184,10181,10181,10184,10184,10183,10184,10183,10184,10181,10189,10026,10010,10036,10012,10026,10188,10181,10183,10189,0,10188,0,10188,10182,10184,10183,10184,10184,10182,10184,10181,10182,10184,10181,10182,10182,10181,10181,10183,10181,10181,10184,10184,10182,10181,10184,10183,10184,10181,10184,10182,10184,10181,10182,10181,10184,10184,10181,10184]},{"id":3,"name":"deco-below","type":"tilelayer","visible":true,"opacity":1,"x":0,"y":0,"width":75,"height":50,"data":[0,0,0,0,0,0,0,0,0,0,0,0,0,0,0,0,0,0,0,0,0,0,0,0,0,0,0,0,0,0,0,10178,0,0,0,0,0,10177,0,0,0,0,0,0,0,0,0,0,0,0,0,0,0,0,0,0,0,0,0,0,0,0,0,0,0,0,0,0,0,0,10178,0,0,0,0,0,0,0,0,0,0,0,0,0,0,0,0,0,0,0,0,0,0,0,0,10178,0,0,0,0,0,0,0,0,0,0,0,0,0,0,0,0,0,0,0,0,0,0,0,0,0,0,0,10178,0,0,0,0,0,0,0,0,0,0,0,0,0,0,0,0,0,0,0,0,0,0,0,0,0,0,0,0,0,0,0,0,0,0,0,10177,0,0,0,0,0,0,0,0,0,0,0,0,0,0,0,0,0,0,0,0,0,0,0,0,0,0,0,0,0,0,0,0,0,0,0,0,0,10292,0,0,0,0,0,0,0,0,0,0,0,0,0,0,0,0,0,0,0,0,0,0,0,0,0,10178,0,0,0,0,0,0,0,0,0,0,0,10216,10215,0,10228,10227,10216,10215,0,0,0,0,0,0,0,0,0,0,0,0,10172,0,0,0,0,0,0,10172,0,0,0,0,0,0,10172,0,0,0,0,0,0,0,0,0,0,0,0,0,0,0,0,0,0,0,0,0,0,0,0,0,0,0,0,0,0,0,10177,0,0,0,0,0,0,0,0,0,0,0,0,2147493879,2147493880,0,0,0,2147493867,2147493868,0,0,0,0,0,0,0,0,0,10248,0,0,0,0,0,0,10248,0,0,0,0,0,0,10171,0,0,0,0,0,10177,0,0,0,0,0,0,0,0,0,0,0,0,0,0,0,0,0,0,0,0,0,0,0,0,0,0,0,0,0,0,0,0,0,0,0,2147493859,2147493860,0,0,0,0,0,0,0,0,0,0,0,0,0,0,0,0,0,10245,0,0,0,0,0,0,10245,0,0,0,0,0,0,10171,0,0,0,0,0,0,0,0,0,0,0,0,0,0,0,0,0,0,0,0,0,0,0,0,0,0,0,0,0,0,0,0,0,0,0,0,0,0,0,0,0,0,0,0,0,0,2147493875,2147493876,0,0,10295,0,0,0,0,0,0,0,0,0,10245,0,0,0,0,0,0,10245,0,0,0,0,0,0,10171,0,0,0,0,0,0,0,0,0,0,0,0,0,0,0,0,0,0,0,0,0,0,0,0,0,0,0,0,0,0,0,0,0,0,0,0,0,0,0,0,10248,0,0,0,0,0,0,0,0,0,0,0,0,0,0,0,0,0,0,0,10245,0,0,0,0,0,0,10245,0,0,0,0,0,0,10171,0,0,0,0,0,0,0,0,0,0,0,0,0,0,0,0,0,0,0,0,0,0,0,0,0,0,0,0,0,0,0,10178,0,0,0,0,0,0,0,0,10245,0,0,0,0,0,0,0,0,0,0,0,0,0,0,0,0,0,0,0,10245,0,0,0,0,0,0,10245,0,0,0,0,0,0,10171,0,0,0,0,0,0,0,0,0,0,0,0,0,0,0,0,0,0,0,0,0,0,0,0,0,0,0,0,0,0,0,0,0,4825,4826,0,0,0,0,0,10245,0,0,0,0,0,0,0,0,0,0,10172,0,0,0,0,0,0,0,0,10249,0,0,0,0,0,0,10249,0,0,0,0,0,0,10171,0,0,0,0,0,0,0,0,0,0,0,0,0,0,0,0,0,0,0,0,10172,0,0,0,0,0,0,10172,0,0,0,0,0,4925,4926,0,0,0,0,0,10245,0,0,0,0,0,0,0,0,0,0,10171,0,10173,10171,10171,10171,10171,10171,10171,2147493821,10173,10171,10171,10171,10171,10171,2147493821,10173,10171,10171,10171,10171,10171,10171,0,0,0,0,0,0,0,0,0,0,0,0,0,0,10175,0,0,0,0,0,10171,0,0,0,0,0,0,10171,0,0,0,0,0,0,0,0,0,0,0,0,10245,0,0,0,0,0,0,0,0,0,0,10171,0,0,0,0,0,0,0,0,0,0,0,0,0,0,0,0,0,0,0,0,0,0,0,0,0,0,0,0,0,0,0,0,6066,6067,6068,6069,6070,6071,5401,5402,0,0,0,1073751996,0,0,0,0,0,0,1073751996,0,0,0,0,0,5525,0,0,0,0,0,0,10245,0,0,0,0,0,0,0,0,0,0,10171,0,0,0,0,0,0,0,0,0,0,0,0,0,0,0,0,0,0,0,0,0,0,10172,0,0,0,0,0,0,0,0,0,6166,6167,6168,6169,6170,6171,5501,5502,0,0,0,0,0,0,0,0,0,0,0,0,0,0,0,0,0,0,0,0,5524,0,0,10245,0,0,0,0,0,0,0,0,0,0,10171,0,0,0,0,0,0,0,0,0,0,0,0,0,0,0,0,0,0,0,0,0,0,10171,0,0,0,5229,0,0,0,5230,10175,6266,6267,6268,6269,6270,6271,0,0,0,0,0,0,0,10172,0,0,0,0,0,0,0,0,0,0,0,0,0,0,0,0,0,10245,0,0,0,0,0,0,0,0,0,0,10171,0,0,0,0,0,0,0,0,0,0,0,0,0,0,0,0,0,0,0,0,0,0,10171,0,0,0,5329,0,0,10166,5330,0,6366,6367,6368,6369,6370,6371,0,0,0,0,0,0,0,10171,0,0,0,0,0,0,10172,0,0,0,0,0,0,0,0,0,0,10249,0,0,0,0,0,0,0,0,0,0,10171,0,0,0,0,0,0,0,0,0,0,0,0,0,0,0,0,0,0,0,0,0,0,10171,0,0,0,0,10049,0,10049,0,0,6466,6467,6468,6469,6470,6471,5524,0,0,0,0,0,0,10171,0,0,0,0,0,0,0,0,0,0,5426,0,5426,5426,0,0,0,0,0,0,0,0,0,0,0,0,0,0,1073751996,0,0,0,0,0,0,0,0,0,0,0,0,0,0,0,0,0,0,0,0,0,0,10171,0,0,0,0,0,0,0,0,0,0,0,0,0,0,10175,0,0,0,0,0,0,0,1073751996,0,0,0,0,0,0,10172,0,0,0,0,0,0,5424,0,0,0,3081,10173,3163,3164,0,0,0,0,3165,3166,10173,3081,0,0,0,0,0,0,0,0,0,0,0,0,0,0,0,0,0,0,0,0,0,0,10171,0,0,0,0,0,0,0,0,0,0,0,0,0,0,0,0,0,0,0,0,0,0,10230,0,0,0,0,0,0,0,0,0,0,0,0,0,5524,0,0,0,3181,0,3263,3264,0,10287,10288,0,3265,3266,0,3181,0,0,0,0,0,0,0,0,0,0,0,0,0,0,0,0,0,0,0,0,0,0,1073751996,0,0,0,0,5225,5226,0,0,0,0,0,0,0,0,0,0,0,0,0,0,0,0,10229,0,0,0,0,0,0,10172,0,0,0,5525,0,0,0,5524,0,0,3081,8341,0,0,0,10289,10290,0,0,0,8345,3081,0,0,0,0,0,0,0,0,0,0,0,0,0,0,0,0,0,0,0,0,0,10173,0,0,0,0,0,5325,5326,8343,0,0,0,0,0,0,8336,8337,0,0,0,0,0,0,0,10172,0,0,0,0,0,0,0,0,0,0,0,5225,5226,0,0,0,0,3181,8441,0,10049,0,0,0,0,10049,0,8445,3181,0,0,0,0,5426,0,0,0,0,0,0,0,0,10173,2147493821,0,0,0,0,0,0,5424,0,0,0,0,0,0,0,8443,0,0,0,5424,0,0,8436,8437,0,0,0,0,0,0,0,1073751996,0,0,0,0,0,0,10172,0,0,0,0,5325,5326,0,0,0,0,0,0,0,0,0,0,0,0,0,0,0,0,10246,10247,0,0,10246,10244,10244,10244,10247,0,0,10246,10244,10247,0,10047,0,0,0,0,10047,5424,0,0,0,0,0,0,0,0,5423,5525,0,0,0,0,0,0,3384,3385,0,0,0,3384,3385,0,0,0,0,0,3384,3385,0,0,0,0,10292,0,0,0,0,0,0,0,0,0,0,0,0,0,0,0,0,0,10043,0,0,0,0,0,0,0,0,0,0,0,0,0,0,10044,0,0,0,0,0,10046,0,10260,0,0,0,10260,0,0,0,0,0,0,0,0,0,0,0,0,0,0,0,0,0,0,0,0,0,0,0,0,0,0,0,0,0,0,0,0,0,0,0,0,0,0,0,0,0,0,0,0,0,0,0,0,0,0,0,0,0,0,0,0,0,0,0,0,0,0,0,0,0,0,0,0,0,0,0,0,0,0,0,0,0,0,0,0,0,0,0,0,0,0,0,0,0,0,0,0,0,0,0,0,0,0,0,0,0,0,0,0,0,0,0,0,0,0,0,0,0,0,0,0,0,0,0,0,0,0,0,0,0,0,0,0,0,0,0,0,0,0,0,0,0,0,0,0,0,0,0,0,0,0,0,0,0,0,0,0,0,0,0,0,0,0,0,0,0,0,0,0,0,0,0,0,0,0,0,0,0,0,0,0,0,0,0,0,0,0,0,0,0,0,0,0,0,0,0,0,0,0,0,0,0,0,0,0,0,0,0,0,0,0,0,0,0,0,0,0,0,0,0,0,0,0,0,0,0,0,0,0,0,0,0,0,0,0,0,0,0,0,0,0,0,0,0,0,0,0,0,0,0,0,0,0,0,0,0,0,0,0,0,0,0,0,0,0,0,0,0,0,0,0,0,0,0,0,0,0,0,0,0,0,0,0,10038,0,0,0,10037,0,0,10045,0,0,0,0,0,0,0,0,10048,0,0,0,0,0,0,0,10038,0,0,0,10037,0,10045,0,0,0,0,0,0,0,0,0,0,0,0,0,0,0,0,0,0,0,0,0,0,0,0,0,0,0,0,0,0,0,0,0,0,0,0,0,0,0,0,0,0,0,0,10262,0,0,0,0,0,0,10055,0,0,0,0,0,0,0,0,0,10260,0,0,0,10260,0,0,0,0,0,0,10262,0,10055,0,0,0,0,0,0,0,0,0,0,0,0,0,0,0,10292,0,0,0,0,0,0,0,0,0,0,0,0,0,0,0,0,0,0,0,0,0,0,0,0,0,0,0,0,0,0,0,0,0,0,0,0,0,0,0,10172,0,0,0,0,0,0,0,0,0,0,0,0,10172,0,0,0,0,0,0,0,0,0,0,0,0,0,0,0,0,0,0,0,0,0,10172,0,0,0,0,0,0,0,0,0,0,0,0,0,0,0,0,5524,5423,0,0,0,0,0,0,0,0,0,0,0,0,0,0,0,0,0,0,0,0,0,10171,0,0,0,0,0,0,0,0,0,0,0,0,10171,0,0,0,0,0,0,0,0,0,0,0,0,0,0,10248,0,0,0,0,0,0,10171,0,0,0,0,0,0,0,0,0,0,0,0,0,0,0,0,0,0,5423,0,0,0,0,0,0,0,0,0,0,0,0,0,0,0,0,0,0,0,0,10171,0,0,0,0,0,0,0,0,0,0,0,0,10171,0,0,0,0,0,0,0,0,0,0,0,0,0,10172,10245,0,0,0,0,0,0,10171,0,0,0,0,0,0,0,10178,0,0,0,0,0,0,0,0,0,0,0,0,0,0,0,0,0,0,0,0,0,0,0,0,0,0,0,0,0,0,0,10171,0,0,0,0,0,0,0,0,0,0,0,0,10171,0,0,0,0,0,0,0,0,0,0,0,0,0,10171,10245,0,0,0,0,0,0,10171,0,0,0,0,0,0,0,0,0,0,0,0,0,0,0,0,0,0,10172,0,0,0,0,0,0,0,0,0,0,0,0,0,0,0,0,0,0,0,0,10171,0,0,0,0,0,0,0,0,0,0,0,0,10171,0,0,0,0,0,0,0,0,0,0,0,0,0,10171,10245,0,0,0,0,0,0,1073751996,0,0,0,0,2936,2937,3138,3139,2940,2941,0,0,0,0,0,0,0,0,10171,0,0,0,0,0,0,0,0,0,0,0,0,0,0,0,0,0,0,0,0,10171,0,0,0,0,0,0,0,0,0,0,0,0,10171,0,0,0,0,0,0,0,0,0,0,0,0,0,10171,10245,0,0,0,0,0,0,5423,5426,10178,0,0,3036,3037,3238,3239,3040,3041,0,0,0,0,0,0,0,0,10171,0,0,0,0,0,0,0,0,0,0,0,0,0,0,0,0,0,0,0,0,10171,0,0,0,0,0,0,0,0,0,0,0,0,10171,0,0,0,0,0,0,0,0,0,0,0,0,0,10171,10249,0,0,0,0,0,0,0,0,0,0,0,2740,5225,5226,0,2740,2741,0,0,0,0,0,0,0,0,10171,0,0,10173,0,0,0,0,0,0,10038,0,0,0,0,0,0,0,0,0,0,1073751996,10173,0,0,0,0,0,0,10173,10171,2147493821,10048,10173,10171,0,0,0,0,0,0,0,0,0,0,0,0,0,10171,0,0,0,0,0,0,0,10172,0,0,0,10177,2840,5325,5326,5423,2840,2841,0,0,0,0,0,0,0,0,10171,0,0,10153,10154,0,0,0,10049,0,0,0,0,0,0,4565,4566,0,0,2951,2952,0,0,0,0,0,0,0,0,0,0,0,0,0,0,0,0,0,0,0,0,0,0,0,0,0,0,0,10171,0,10173,10171,10171,10171,10171,10171,10171,0,0,0,0,3136,3137,3139,3138,3140,3141,0,0,0,0,0,0,0,0,10171,0,0,3163,3164,0,0,5525,5524,5426,0,0,0,0,0,4665,4666,4565,4566,3051,3052,10049,0,0,0,0,0,0,0,0,0,0,0,0,0,0,0,0,0,10173,0,0,0,0,0,0,10173,10171,10171,0,0,0,0,0,0,0,0,0,0,0,0,3236,3237,3239,3238,3240,3241,0,0,0,0,0,0,0,0,10171,0,0,3263,3264,0,0,0,0,0,0,0,0,0,0,3157,3158,4665,4666,0,0,0,0,3165,3166,0,0,0,0,0,0,0,0,0,0,0,0,0,0,0,0,0,0,0,0,0,0,0,0,0,0,0,0,0,0,0,0,0,0,0,0,0,0,0,0,0,0,0,0,0,0,0,0,0,0,10171,0,0,0,0,0,0,0,0,0,0,0,0,0,0,3257,3258,0,0,0,0,0,0,3265,3266,0,0,0,0,0,0,0,0,0,0,3081,0,0,0,0,0,0,0,0,0,0,0,0,0,0,3081,0,0,0,0,0,0,0,0,0,0,0,0,0,0,0,0,10173,0,0,0,0,0,0,10173,10171,0,0,0,0,0,0,5424,0,0,0,0,0,0,0,0,0,0,0,0,0,0,0,0,0,0,10172,0,0,0,0,0,0,0,0,3181,0,0,0,0,0,0,10049,0,0,10046,0,0,0,0,3181,0,0,0,0,0,0,0,0,0,0,0,0,0,0,0,0,10172,0,0,0,0,0,0,0,0,0,0,0,0,0,5524,0,5424,0,0,0,0,0,0,0,0,0,0,0,0,0,0,0,0,0,0,0,0,0,0,0,0,0,0,0,0,0,0,0,0,0,0,0,0,0,0,0,0,0,0,0,0,0,0,0,0,0,0,0,0,0,0,0,0,0,0,10171,0,0,0,0,0,3163,3164,0,0,0,0,0,0,0,5524,0,0,0,0,0,0,0,0,0,0,0,0,0,0,0,0,0,0,0,0,0,0,0,0,0,0,0,0,0,0,0,0,0,0,0,0,0,0,0,0,0,0,0,0,0,0,0,0,0,0,0,0,0,0,0,0,0,0,0,10171,0,0,0,0,0,3263,3264,0,0,0,0,0,0,0,0,0,0,0,0,0,0,0,0,0,0,0,0,0,0,0,0,0,0,0,0,3081,3386,3389,3389,3388,3388,3389,3388,3388,3389,3388,3389,3389,3388,3388,3389,3388,3389,3388,3388,3388,3389,3388,3388,3389,3388,3388,3389,3388,3388,3388,0,0,0,0,0,0,0,0,10171,0,0,5524,0,0,10172,0,0,0,0,0,0,0,0,0,0,0,0,0,0,0,0,0,0,0,0,0,0,0,0,0,0,0,0,0,3181,3386,3388,3389,3389,3388,3388,3389,3388,3388,3389,3389,3389,3388,3389,3388,3388,3389,3388,3388,3389,3388,3389,3389,3388,3388,3389,3389,3388,3389,3389,0,0,0,0,0,0,0,0,10171,0,5426,0,0,0,10171,0,0,0,0,0,0,0,0,0,0,0,0,0,0,0,0,0,0,0,0,0,0,0,0,0,0,0,2961,2962,0,0,0,0,0,0,0,0,0,0,0,0,0,0,0,0,0,0,0,0,0,0,0,0,0,0,0,0,0,0,0,0,0,0,0,0,0,0,0,10171,0,0,5426,10173,10171,10171,0,0,0,0,0,0,0,0,0,0,0,0,0,0,0,0,0,0,0,0,0,0,0,0,0,0,0,3061,3062,0,0,0,0,0,0,0,0,0,0,0,0,0,0,0,0,0,0,0,0,0,0,0,0,0,0,0,0,0,0,0,0,0,10173,10171,10171,10171,10171,10171,10171,0,0,0,0,0,0,0,0,4819,4820,0,0,0,0,0,0,0,10292,0,0,0,0,0,0,0,0,0,0,0,0,0,0,0,0,10044,0,0,0,0,0,0,0,0,0,0,0,0,0,0,0,0,0,0,0,0,0,0,0,0,0,0,0,0,0,0,0,0,0,0,10177,0,0,10177,0,0,0,0,0,0,0,0,0,0,4919,4920,0,0,0,0,0,0,0,0,0,0,0,0,0,0,0,0,0,0,5424,0,0,0,0,0,0,0,0,0,0,0,0,0,0,10178,0,0,0,0,10177,0,0,0,0,10177,0,0,0,0,0,0,0,0,0,0,0,0,0,0,0,0,0,0,0,0,0,0,0,0,0,0,0,0,0,0,0,0,0,0,0,0,0,0,0,0,0,0,0,0,0,0,0,5524,0,5524,0,0,0,0,0,0,0,0,0,0,0,0,0,0,0,0,0,0,0,0,0,0,0,0,0,0,0,0,0,0,0,0,0,0,0,0,0]},{"id":4,"name":"buildings-base","type":"tilelayer","visible":true,"opacity":1,"x":0,"y":0,"width":75,"height":50,"data":[0,0,0,0,0,0,0,0,0,0,0,0,0,0,0,0,0,0,0,0,0,0,0,0,0,0,0,0,0,0,0,0,0,0,0,0,0,0,0,0,0,0,0,0,0,0,0,0,0,0,0,0,0,0,0,0,0,0,0,0,0,0,0,0,0,0,0,0,0,0,0,0,0,0,0,0,0,0,0,0,0,0,0,0,0,0,0,0,0,0,0,0,0,0,0,0,0,0,0,0,0,0,0,0,0,0,0,0,0,0,0,0,0,0,0,0,0,0,0,0,0,0,0,0,0,0,0,0,0,0,0,0,0,0,0,0,0,0,0,0,0,0,0,0,0,0,0,0,0,0,0,0,0,0,0,0,0,0,0,0,0,0,0,0,0,0,0,0,0,0,0,0,0,0,0,0,0,0,0,0,0,0,0,0,0,0,0,0,0,0,0,0,0,0,0,0,0,0,0,0,0,0,0,0,0,0,0,0,0,0,0,0,0,0,0,0,0,0,0,0,0,0,0,0,0,0,0,0,0,0,0,0,0,0,0,0,0,0,0,0,0,0,0,0,0,0,0,0,0,0,0,0,0,0,0,0,0,0,0,0,0,0,0,0,0,0,0,0,0,0,0,0,0,0,0,0,0,0,0,0,0,0,0,0,0,0,0,0,0,0,0,0,0,0,0,0,0,0,0,0,0,0,0,0,0,0,0,0,0,0,0,0,0,0,0,0,0,0,0,0,0,0,0,0,0,0,0,0,0,0,0,0,0,0,0,0,0,0,0,0,0,0,0,0,0,0,0,0,0,0,0,0,0,0,0,0,0,0,0,0,0,0,0,0,0,0,0,0,0,0,0,0,0,0,0,0,0,0,0,0,0,0,0,0,0,0,0,0,0,0,0,0,0,0,0,0,0,0,0,0,0,0,0,0,0,0,0,0,0,0,0,0,0,0,0,0,0,0,0,0,0,0,0,0,0,0,0,0,0,0,0,0,0,0,0,0,0,0,0,0,0,0,0,0,0,0,0,0,0,0,0,0,0,0,0,0,0,0,0,0,0,0,0,0,0,0,0,0,0,0,0,0,4370,10103,10104,4375,10103,10104,4377,0,4370,10103,10104,10103,10104,4377,0,4370,10103,10104,10103,10104,4377,0,0,0,0,0,0,0,0,0,0,0,0,0,0,0,0,0,0,0,0,0,0,0,0,0,0,0,0,0,0,0,0,0,0,0,0,0,0,0,0,0,0,0,0,0,0,0,0,0,0,0,0,0,0,4470,10105,10106,4475,10105,10106,4477,0,4470,10105,10106,10105,10106,4477,0,4470,10105,10106,10105,10106,4477,0,0,0,0,0,0,0,0,0,0,0,0,0,0,0,0,0,0,0,0,0,0,0,0,0,0,0,0,0,0,0,0,0,0,0,0,0,0,0,0,0,0,0,0,0,0,0,0,0,0,0,0,0,0,4570,4575,4576,4575,4576,4575,4577,0,4570,4575,4576,4575,4576,4577,0,4570,4575,4576,4575,4576,4577,0,0,0,0,0,0,0,0,0,0,0,0,0,0,0,0,0,0,0,0,0,0,0,0,0,0,0,0,0,0,0,0,0,0,0,0,0,0,0,0,0,0,0,0,0,0,0,0,0,0,0,0,0,0,4670,4675,3186,3187,4676,4675,4677,0,4670,4675,3186,3187,4676,4677,0,4670,4675,3186,3187,4676,4677,0,0,0,0,0,0,0,0,0,0,0,0,0,0,0,0,0,0,0,0,0,0,0,0,0,0,0,0,0,0,0,0,0,0,0,0,0,0,0,0,0,0,0,0,0,0,0,0,0,0,0,0,0,0,0,0,0,0,0,0,0,0,0,0,0,0,0,0,0,0,0,0,0,0,0,0,0,0,0,0,0,0,0,0,0,0,0,0,0,0,0,0,0,10267,10268,4577,0,0,0,0,4570,10267,10268,0,0,0,0,0,0,0,0,0,0,0,0,0,0,0,0,0,0,0,0,0,0,0,0,0,0,0,0,0,0,0,0,0,0,0,0,0,0,0,0,0,0,0,0,0,0,0,0,0,0,0,0,0,0,0,0,0,0,0,0,0,0,0,0,0,10269,10270,4677,0,0,0,0,4670,10269,10270,0,0,0,0,0,0,0,0,0,0,0,0,0,0,3121,3122,3123,3357,3125,3122,3358,3124,3125,3126,0,0,0,0,0,0,0,0,0,0,0,0,0,0,0,0,0,0,0,0,0,0,0,0,0,0,0,0,0,0,0,0,0,0,0,0,0,0,0,0,0,0,0,0,0,0,0,0,0,0,0,0,0,0,0,0,0,0,0,0,0,0,0,0,0,3221,3222,3223,3457,3225,3222,3458,3224,3225,3226,0,0,0,0,0,0,0,0,0,0,0,0,0,0,0,0,0,0,0,0,0,0,0,0,0,0,0,0,0,0,0,0,0,0,0,0,0,0,0,0,0,0,0,0,0,0,0,0,0,0,0,0,0,0,0,0,0,0,0,0,0,0,0,0,0,3321,10051,10052,3324,3325,3322,3323,10051,10052,3326,0,0,0,0,0,0,0,0,0,0,0,0,0,0,0,4278,4283,4279,4280,4281,4282,4283,4285,0,0,0,0,0,0,0,0,0,0,0,0,0,0,0,0,0,0,0,0,0,0,0,0,0,0,0,0,0,0,0,0,0,0,0,0,0,0,0,0,0,0,3421,10053,10054,3424,3425,3422,3423,10053,10054,3426,0,0,0,0,0,0,0,0,0,0,0,0,0,0,0,4378,4383,4379,4380,4381,4382,4383,4385,0,0,0,0,0,0,0,0,0,0,0,0,0,0,0,0,0,0,0,0,0,0,0,0,0,0,0,0,0,0,0,0,0,0,0,0,0,0,0,0,0,0,3521,3522,3523,3524,3186,3187,3523,3524,3525,3526,0,3970,3971,3972,3973,3974,3971,3975,3970,3971,3972,3973,3974,3971,3975,4478,4483,4479,4480,4481,4482,4483,4485,0,0,0,0,0,0,0,0,0,0,0,0,0,0,0,0,0,0,0,0,0,0,0,0,0,0,0,0,0,0,0,0,0,0,0,0,0,0,0,0,0,0,0,0,0,0,0,0,0,0,0,0,0,4070,4071,4072,4073,4074,4071,4075,4070,4071,4072,4073,4074,4071,4075,4578,4583,4579,4580,4581,4582,4583,4585,0,0,0,0,0,0,0,0,0,0,0,0,0,0,0,0,0,4370,10103,10104,10103,10104,4377,0,4370,10103,10104,10103,10104,4377,0,0,0,0,0,0,0,0,0,0,0,0,0,0,0,0,0,0,0,0,0,0,0,4570,4575,4576,4575,10051,10052,4577,4570,4575,4576,4575,10051,10052,4577,4678,4683,4679,4680,4681,4682,4683,4685,0,0,0,0,0,0,0,0,0,0,0,0,0,0,0,0,0,4470,10105,10106,10105,10106,4477,0,4470,10105,10106,10105,10106,4477,0,0,0,0,0,0,0,0,0,0,0,0,0,0,0,0,0,0,0,0,0,0,0,4670,4675,4865,4866,10053,10054,4677,4670,4675,4865,4866,10053,10054,4677,0,0,0,0,0,0,0,0,0,0,0,0,0,0,0,0,0,0,0,0,0,0,0,0,0,4570,4575,4576,4575,4576,4577,0,4570,4575,4576,4575,4576,4577,0,0,0,0,0,0,0,0,0,0,0,0,0,0,0,0,0,0,0,0,0,0,0,0,0,0,0,0,0,0,0,0,0,0,0,0,0,0,0,0,0,0,0,0,0,0,0,0,0,0,0,0,0,0,0,0,0,0,0,0,0,0,4670,4675,3186,3187,4676,4677,0,4670,4675,3186,3187,4676,4677,0,0,0,0,0,0,0,0,0,0,0,0,0,0,0,0,0,0,0,0,0,0,0,0,0,0,0,0,0,0,0,0,0,0,0,0,0,0,0,0,0,0,0,0,0,0,0,0,0,0,0,0,0,0,0,0,0,0,0,0,0,0,0,0,0,0,0,0,0,0,0,0,0,0,0,0,0,0,0,0,0,0,0,0,0,0,0,0,0,0,0,0,0,0,0,0,0,0,0,0,0,0,0,0,0,0,0,0,0,0,0,0,0,0,0,0,0,0,0,0,0,0,0,0,0,0,0,0,0,0,0,0,0,0,0,0,0,0,0,0,0,0,0,0,0,0,0,0,0,0,0,0,0,0,0,0,0,0,0,0,0,0,0,0,0,0,0,0,0,0,0,0,0,0,0,0,0,0,0,0,0,0,0,0,0,0,0,0,0,0,0,0,0,0,0,0,0,0,0,0,0,0,0,0,0,0,0,0,0,0,0,0,0,0,0,0,0,0,0,0,0,0,0,0,0,0,0,0,0,0,0,0,0,0,0,0,0,0,0,0,0,0,0,0,0,0,0,0,0,0,0,0,0,0,0,0,0,0,0,0,0,0,0,0,0,0,0,0,0,0,0,0,0,0,0,0,0,0,0,0,0,0,0,0,0,0,0,0,0,0,0,0,0,0,0,0,0,0,0,0,0,0,0,0,0,0,0,0,0,0,0,0,0,0,0,0,0,0,0,0,0,0,0,0,0,0,0,0,0,0,0,0,0,0,0,0,0,0,0,0,0,0,0,0,0,0,0,0,0,0,0,0,0,0,0,0,0,0,0,0,0,0,0,0,0,0,0,0,0,0,0,0,0,0,0,0,0,0,0,0,0,0,0,0,0,0,0,0,0,0,0,0,0,0,0,0,0,0,0,0,0,0,0,0,0,0,0,0,0,0,0,0,0,0,0,0,0,0,0,0,0,0,0,0,0,0,0,0,0,0,0,0,0,0,0,0,0,0,0,0,0,0,0,0,0,0,0,0,0,0,0,0,0,0,0,0,0,0,0,0,0,0,0,0,0,0,0,0,0,0,0,0,0,0,0,0,0,0,0,0,0,0,0,0,0,0,0,0,0,0,0,0,0,0,0,0,0,0,0,0,0,0,0,0,0,0,0,0,0,0,0,0,0,0,0,0,0,0,0,0,0,0,0,0,0,0,0,0,0,0,0,0,0,0,0,0,0,0,0,0,0,0,0,0,0,0,0,0,0,0,0,0,0,0,0,0,0,0,0,0,0,0,0,0,0,0,0,0,0,0,0,0,0,0,0,0,0,0,0,0,0,0,0,0,0,0,0,0,0,0,0,0,0,0,0,0,0,0,0,0,0,0,0,0,0,0,0,0,0,0,0,0,0,0,0,0,0,0,0,0,0,0,0,0,0,0,0,0,0,0,0,0,0,0,0,0,0,0,0,0,0,0,0,0,0,0,0,0,0,0,0,0,0,0,0,0,0,0,0,0,0,0,0,0,0,0,0,0,0,0,0,0,0,0,0,0,0,0,0,0,0,0,0,0,0,0,0,0,0,0,0,0,0,0,0,0,3127,3128,3129,3128,3129,3128,3129,3130,0,0,0,0,0,0,0,0,0,0,0,0,0,0,0,0,0,0,0,0,0,0,0,0,0,0,0,0,0,0,0,0,0,0,0,0,0,0,0,0,0,0,0,0,0,0,0,0,0,0,0,0,0,0,0,0,0,0,0,0,0,0,0,0,0,0,0,3227,3228,3229,3228,3229,3228,3229,3230,0,0,0,0,0,0,0,0,0,0,0,3970,3971,3972,3973,3974,3975,0,0,0,0,0,0,0,0,0,0,0,0,0,0,0,0,0,0,0,0,0,0,0,0,0,0,0,0,0,0,0,0,0,0,0,0,0,0,0,0,0,0,0,0,0,0,0,0,0,0,3327,10051,10052,3328,3329,10051,10052,3330,0,0,0,0,4470,4475,4476,4475,4476,4477,0,4070,4071,4072,4073,4074,4075,4478,4483,4484,4483,4484,4485,0,0,0,0,0,3121,3122,3123,3124,3125,3122,3123,3124,3126,0,0,4370,10103,10104,10103,10104,4377,0,0,0,0,0,0,0,0,0,0,0,0,0,0,0,0,0,0,0,0,0,0,3427,10053,10054,3428,3429,10053,10054,3430,0,0,0,0,4570,4575,4576,4575,4576,4577,0,4570,10051,10052,4575,4576,4577,4578,4583,4584,4583,4584,4585,0,0,0,0,0,3221,3222,3223,3224,3225,3222,3223,3224,3226,0,0,4470,10105,10106,10105,10106,4477,0,0,0,0,0,0,0,0,0,0,0,0,0,0,0,0,0,0,0,0,0,0,3527,3528,3529,3186,3187,3528,3529,3530,0,0,0,0,4670,4675,3186,3187,4676,4677,0,4670,10053,10054,4865,4866,4677,4678,4683,3186,3187,4684,4685,0,0,0,0,0,3321,10051,10052,3324,3325,3322,10051,10052,3326,0,0,4570,4575,4576,4575,4576,4577,0,0,0,0,0,0,0,0,0,0,0,0,0,0,0,0,0,0,0,0,0,0,0,0,0,0,0,0,0,0,0,0,0,0,0,0,0,0,0,0,0,0,0,0,0,0,0,0,0,0,0,0,0,0,0,0,0,0,3421,10053,10054,3424,3425,3422,10053,10054,3426,0,0,4670,4675,3186,3187,4676,4677,0,0,0,0,0,0,0,0,0,0,0,0,0,0,0,0,0,0,0,0,0,0,0,0,0,0,0,0,0,0,0,0,0,0,0,0,0,0,0,0,0,0,0,0,0,0,0,0,0,0,0,0,0,0,0,0,0,0,3521,3522,3523,3188,3189,3522,3523,3524,3526,0,0,0,0,0,0,0,0,0,0,0,0,0,0,0,0,0,0,0,10117,10123,10118,10118,10118,10118,10123,10119,0,0,0,0,0,0,0,0,0,0,0,0,0,0,0,0,0,0,0,0,0,0,0,0,0,0,0,0,0,0,0,0,0,0,0,0,0,0,0,0,0,0,0,0,0,0,0,0,0,0,0,0,0,0,0,0,0,0,0,0,0,0,0,0,0,0,0,10117,10124,10118,10125,10126,10118,10124,10119,0,0,0,0,0,0,0,0,0,0,0,0,0,0,0,0,0,0,0,0,0,0,0,0,0,0,0,0,0,0,0,0,0,0,0,0,0,0,0,0,0,0,0,0,0,0,0,0,0,0,0,0,0,0,0,0,0,0,0,0,0,0,0,0,0,0,0,10120,10121,10121,10127,10128,10121,10121,10122,0,0,0,0,0,0,0,0,0,0,0,0,0,0,0,0,0,0,0,0,0,0,0,0,0,0,0,0,0,0,0,0,0,0,0,0,0,0,0,0,0,0,0,0,0,0,0,0,0,0,0,0,0,0,0,0,0,0,0,0,0,0,0,0,0,0,0,0,0,0,0,0,0,0,0,0,0,0,0,0,0,0,0,0,0,0,0,0,0,0,0,0,0,0,0,0,0,0,0,0,0,0,0,0,0,0,0,0,0,0,0,0,0,0,0,0,0,0,0,0,0,0,0,0,0,0,0,0,0,0,0,0,0,0,0,0,0,0,0,0,0,0,0,0,0,0,0,0,0,0,0,0,0,0,0,0,0,0,0,0,0,0,0,0,0,0,0,0,0,0,0,0,0,0,0,0,0,0,0,0,0,0,0,0,0,0,0,0,0,0,0,0,0,0,0,0,0,0,0,0,0,0,0,0,0,0,0,0,0,0,0,0,0,0,0,0,0,0,0,0,0,0,0,0,0,0,0,0,0,0,0,0,0,0,0,0,0,0,0,0,0,0,0,0,0,0,0,0,0,0,0,0,0,0,0,0,0,0,0,0,0,0,0,0,0,0,0,0,0,0,0,0,0,0,0,0,0,0,0,0,0,0,0,0,0,0,4370,10103,10104,10103,10104,4377,0,0,0,0,0,0,0,0,0,0,0,0,0,0,0,0,0,0,0,0,0,0,0,4470,4475,4476,4477,4478,4483,4484,4485,4470,4475,4477,0,0,0,0,0,0,0,0,0,0,0,0,0,0,0,0,0,0,0,0,0,0,0,0,0,0,0,0,0,0,0,0,0,0,0,4470,10105,10106,10105,10106,4477,0,0,0,0,0,0,0,0,0,0,0,0,0,0,0,0,0,0,0,0,0,0,0,4570,4575,4576,4577,4578,4583,4584,4585,4570,4575,4577,0,0,0,0,0,0,0,0,0,0,0,0,0,0,0,0,0,0,0,0,0,0,0,0,0,0,0,0,0,0,0,0,0,0,0,4570,4575,4576,4575,4576,4577,0,0,0,0,10273,10274,0,0,0,0,0,0,0,0,0,0,0,0,0,0,0,0,0,4670,3186,3187,4677,4678,3186,3187,4685,3186,3187,4677,0,0,0,0,0,0,0,0,0,0,0,0,0,0,0,0,0,0,0,0,0,0,0,0,0,0,0,0,0,0,0,0,0,0,0,4670,4675,3186,3187,4676,4677,0,0,0,0,0,0,0,0,0,0,0,0,0,0,0,0,0,0,0,0,0,0,0,0,0,0,0,0,0,0,0,0,0,0,0,0,0,0,0,0,0,0,0,0,0,0,0,0,0,0,0,0,0,0,0,0,0,0,0,0,0,0,0,0,0,0,0,0,0,0,0,0,0,0,0,0,0,0,0,0,0,0,0,0,0,0,0,0,0,0,0,0,0,0,0,0,0,0,0,0,0,0,0,0,0,0,0,0,0,0,0,0,0,0,0,0,0,0,0,0,0,0,0,0,0,0,0,0,0,0,0,0,0,0,0,0,0,0,0,0,0,0,0,0,0,0,0,0,0,0,0,0,0,0,0,0,0,0,0,0,0,0,0,0,0,0,0,0,0,0,0,0,0,0,0,0,0,0,0,0,0,0,0,0,0,0,0,0,0,0,0,0,0,0,0,0,0,0,0,0,0,0,0,0,0,0,0,0,0,0,0,0,0,0,0,0,0,0,0,0,0,0,0,0,0,0,0,0,0,0,0,0,0,0,0,0,0,0,0,0,0,0,0,0,0,0,0,0,0,0,0,0,0,0,0,0,0,0,0,0,0,0,0,0,0,0,0,0,0,0,0,0,0,0,0,0,0,0,0,0,0,0,0,0,0,0,0,0,0,0,0,0]},{"id":5,"name":"buildings-top","type":"tilelayer","visible":true,"opacity":1,"x":0,"y":0,"width":75,"height":50,"data":[0,0,0,0,0,0,0,0,0,0,0,0,0,0,0,0,0,0,0,0,0,0,0,0,0,0,0,0,0,0,0,0,0,0,0,0,0,0,0,0,0,0,0,0,0,0,0,0,0,0,0,0,0,0,0,0,0,0,0,0,0,0,0,0,0,0,0,0,0,0,0,0,0,0,0,0,0,0,0,0,0,0,0,0,0,0,0,0,0,0,0,0,0,0,0,0,0,0,0,0,0,0,0,0,0,0,0,0,0,0,0,0,0,0,0,0,0,0,0,0,0,0,10291,0,0,0,0,0,0,0,0,0,0,0,0,0,0,0,0,0,0,0,0,0,0,0,0,0,0,0,0,0,0,0,0,0,0,0,0,0,0,0,0,0,0,0,0,0,0,0,0,0,0,0,0,0,0,10165,0,0,0,0,0,0,10165,0,0,0,0,0,0,10165,0,0,0,0,0,0,0,0,0,0,0,0,0,0,0,0,0,0,0,0,0,0,0,0,0,0,0,0,0,0,0,0,0,0,0,0,0,0,0,0,0,0,0,0,0,0,0,0,0,0,0,0,0,0,0,10071,10072,10072,10072,10072,10072,10073,0,10071,10072,10072,10072,10072,10073,0,10071,10072,10072,10072,10072,10073,0,0,0,0,0,0,0,0,0,0,0,0,0,0,0,0,0,0,0,0,0,0,0,0,0,0,0,0,0,0,0,0,0,0,0,0,0,0,0,0,0,0,0,0,0,0,0,0,0,0,0,0,0,0,10074,10075,10075,10075,10075,10075,10076,0,10074,10075,10075,10075,10075,10076,0,10074,10075,10075,10075,10075,10076,0,0,0,0,0,0,0,0,0,0,0,0,0,0,0,0,0,0,0,0,0,0,0,0,0,0,0,0,0,0,0,0,0,0,0,0,0,0,0,0,0,0,0,0,0,0,0,0,0,0,0,0,0,0,10077,10078,10078,10078,10078,10078,10079,0,10077,10078,10078,10078,10078,10079,0,10077,10078,10078,10078,10078,10079,0,0,0,0,0,0,0,0,0,0,0,0,0,0,0,0,0,0,0,0,0,0,0,0,0,0,0,0,0,0,0,0,0,0,0,0,0,0,0,0,0,0,0,0,0,0,0,0,0,0,0,0,0,0,0,0,0,0,0,0,0,0,0,0,0,0,0,0,0,0,0,0,0,0,0,0,0,0,0,0,0,0,0,0,0,0,0,0,0,0,0,0,0,0,0,0,0,0,0,0,0,0,0,0,0,0,0,0,0,0,0,0,0,0,0,0,0,0,0,0,0,0,0,0,0,0,0,0,0,0,0,0,0,10266,0,0,0,0,0,0,10266,0,0,0,0,0,0,10266,0,0,0,0,0,0,0,0,0,0,0,0,0,0,0,0,0,0,0,0,0,0,0,0,0,0,0,0,0,0,0,0,0,0,0,0,0,0,0,0,0,0,0,0,0,0,0,0,0,0,0,0,0,0,0,0,0,0,3086,3087,10265,0,0,0,0,0,3086,3087,10265,0,0,0,0,3086,3087,10265,0,0,0,0,0,0,0,0,0,0,0,0,0,0,0,0,0,0,0,0,0,0,0,0,0,0,0,0,0,0,0,0,0,0,0,0,0,0,0,0,0,0,0,194,195,196,197,195,196,197,195,196,198,0,0,0,0,0,0,0,0,0,0,0,0,0,0,0,0,0,0,0,0,0,0,0,0,0,0,0,0,0,0,0,0,0,0,0,0,0,0,0,0,0,10077,10078,10079,0,0,0,0,10087,10088,10089,0,0,0,0,0,0,0,0,0,0,0,0,0,0,294,295,296,297,295,296,297,295,296,298,0,0,0,0,0,0,0,0,0,0,0,0,0,0,0,0,0,0,0,0,0,0,0,0,0,0,0,3557,3558,3559,3560,3562,0,0,0,0,0,0,0,0,0,0,0,0,0,0,0,0,0,0,0,0,0,0,0,0,0,0,0,0,0,0,0,0,0,3021,3022,3023,3024,3025,3022,3023,3024,3025,3026,0,0,0,0,0,0,0,0,0,0,0,0,0,0,0,0,0,0,0,0,0,0,0,0,0,0,0,3657,3658,3659,3660,3662,0,0,0,0,0,0,0,0,0,0,0,0,0,0,0,0,0,0,0,0,0,0,0,0,0,0,0,0,0,0,0,0,0,0,0,0,0,0,0,0,0,0,0,0,0,0,0,0,0,0,0,0,0,0,0,0,0,0,194,195,196,197,195,196,197,198,0,0,0,0,0,0,0,0,0,0,0,0,0,0,0,0,0,0,0,0,0,10165,0,0,0,0,0,0,10165,0,0,0,0,0,0,0,0,0,0,0,0,0,0,0,0,0,0,0,0,0,0,0,0,10081,10082,10082,10082,10082,10082,10083,10081,10082,10082,10082,10082,10082,10083,4178,4183,4179,4180,4181,4182,4183,4185,0,0,0,0,0,0,0,0,0,0,0,0,0,0,0,0,0,10081,10082,10082,10082,10082,10083,0,10071,10072,10072,10072,10072,10073,0,0,0,0,0,0,0,0,0,0,0,0,0,0,0,0,0,0,0,0,0,0,0,10084,10085,10085,10085,10085,10085,10086,10084,10085,10085,10085,10085,10085,10086,0,0,0,0,0,0,0,0,0,0,0,0,0,0,0,0,0,0,0,0,0,0,0,0,0,10084,10085,10085,10085,10085,10086,0,10074,10075,10075,10075,10075,10076,0,0,0,0,0,0,0,0,0,0,0,0,0,0,0,0,3086,3087,0,0,0,0,0,10087,10088,10088,10088,10088,10088,10089,10087,10088,10088,10088,10088,10088,10089,0,0,0,0,0,0,0,0,0,0,0,0,0,0,0,0,0,0,0,0,0,0,0,0,0,10084,10085,10085,10085,10085,10086,0,10074,10075,10075,10075,10075,10076,0,0,0,0,0,0,0,0,0,0,0,0,0,0,0,0,0,0,0,0,0,0,0,3557,3558,3559,3560,3561,3558,3562,0,0,0,0,0,0,0,0,0,0,0,0,0,0,0,0,0,0,0,0,0,0,0,0,0,0,0,0,0,0,0,0,10087,10088,10088,10088,10088,10089,0,10077,10078,10078,10078,10078,10079,0,0,0,0,0,0,0,0,0,0,0,0,0,0,0,0,0,0,0,0,0,0,0,3657,3658,3659,3660,3661,3658,3662,0,3155,3156,0,0,0,0,0,0,0,0,0,0,0,0,0,0,0,0,0,0,0,0,0,0,0,0,0,0,0,0,0,0,0,0,0,0,0,0,0,0,0,0,0,0,0,0,0,0,0,0,0,0,0,0,0,0,0,0,0,0,0,0,0,0,0,0,0,0,0,4765,4766,0,0,0,0,0,4765,4766,0,0,0,0,0,0,0,0,0,0,0,0,0,0,0,0,0,0,0,0,0,0,0,0,0,0,0,0,0,0,0,10266,0,0,0,0,0,0,10266,0,0,0,0,0,0,0,0,0,0,0,0,0,0,0,0,0,0,0,0,0,0,0,0,0,0,0,0,0,0,0,0,0,0,0,0,0,0,0,0,0,0,0,0,0,0,0,0,0,0,0,0,0,0,0,0,0,0,0,0,0,0,0,0,0,0,3086,3087,10265,0,0,0,0,3086,3087,10265,0,0,0,0,0,0,0,0,0,0,0,0,0,0,0,0,0,0,0,0,0,0,0,0,0,0,0,0,0,0,0,0,0,0,0,0,0,0,0,0,0,0,0,0,0,0,0,0,0,0,0,0,0,0,0,0,0,0,0,0,0,0,0,0,0,0,0,0,0,0,0,0,0,0,0,0,0,0,0,0,10291,0,0,0,0,0,0,0,0,0,0,0,0,0,0,0,0,0,0,0,0,0,0,0,0,0,0,0,0,0,0,0,0,0,0,0,0,0,0,0,0,10258,0,0,0,10258,0,0,0,0,0,0,0,0,0,0,0,0,0,0,0,0,0,0,0,0,0,0,0,0,0,0,0,0,0,0,0,0,0,0,0,0,0,0,0,0,0,0,0,0,0,0,0,0,0,0,0,0,0,0,0,0,0,0,0,0,0,0,0,0,0,0,0,0,0,0,0,0,0,0,0,0,0,0,0,0,0,0,0,0,0,0,0,0,0,0,0,0,0,0,0,0,0,0,0,0,0,0,0,0,0,0,0,0,0,0,0,0,0,0,0,0,0,0,0,0,0,0,0,0,0,0,0,0,0,0,0,0,0,0,0,0,0,0,0,0,0,0,0,0,0,0,0,0,0,0,0,0,0,0,0,0,0,0,0,0,0,0,0,0,0,0,0,0,0,0,0,0,0,0,0,0,0,0,0,0,0,0,0,0,0,0,0,0,0,0,0,0,0,0,0,0,0,0,0,0,0,0,0,0,0,0,0,0,0,0,0,0,0,0,0,0,0,0,0,0,0,0,0,0,0,0,0,0,0,0,0,0,0,0,0,0,0,0,0,0,0,0,0,0,0,0,0,0,0,0,0,0,0,0,0,0,0,0,0,0,0,0,0,0,0,0,0,0,0,0,0,0,0,0,0,0,0,0,0,0,0,0,0,0,0,0,0,0,0,0,0,0,0,0,0,0,0,0,0,0,0,0,0,0,0,0,0,0,0,0,0,0,0,0,0,0,0,0,0,0,0,0,0,0,0,0,0,0,0,0,0,0,0,0,0,0,0,0,0,0,0,0,0,0,0,0,0,0,0,0,0,0,0,10263,0,0,0,0,0,0,0,0,0,0,0,0,0,0,0,0,10258,0,0,0,10258,0,0,0,0,0,0,10263,0,0,0,0,0,0,0,0,0,0,0,0,0,0,0,0,0,10291,0,0,0,0,0,0,0,0,0,0,0,0,0,0,0,0,0,0,0,0,0,0,0,0,0,0,0,0,0,0,0,0,0,0,0,0,0,10165,0,0,0,0,0,0,0,0,0,0,0,0,10165,0,0,0,0,0,0,0,0,0,0,0,0,0,0,0,0,0,0,0,0,0,10165,0,0,0,0,0,0,0,0,0,0,0,0,0,0,0,0,0,0,0,0,0,0,0,194,195,196,197,195,196,197,198,0,0,0,0,10071,10072,10072,10072,10072,10073,0,10081,10082,10082,10082,10082,10083,10071,10072,10072,10072,10072,10073,0,0,0,0,0,0,0,0,0,0,0,0,0,0,0,0,10071,10072,10072,10072,10072,10073,0,0,0,0,0,0,0,0,0,0,0,0,0,0,0,0,0,0,0,0,0,0,3027,3028,3029,3028,3029,3028,3029,3030,0,0,0,0,10074,10075,10075,10075,10075,10076,0,10084,10085,10085,10085,10085,10086,10074,10075,10075,10075,10075,10076,0,0,0,0,0,0,0,0,0,0,0,0,0,0,0,0,10074,10075,10075,10075,10075,10076,0,0,0,0,0,0,0,0,0,0,0,0,0,0,0,0,0,0,0,0,0,0,0,0,0,0,0,0,0,0,0,0,0,0,10074,10075,10075,10075,10075,10076,0,10087,10088,10088,10088,10088,10089,10074,10075,10075,10075,10075,10076,0,0,0,0,0,194,195,196,197,195,196,197,195,198,0,0,10074,10075,10075,10075,10075,10076,0,0,0,0,0,0,0,0,0,0,0,0,0,0,0,0,0,0,0,0,0,0,0,0,0,0,0,0,0,0,0,0,0,0,3557,3558,3559,3560,3561,3562,0,0,0,0,0,0,0,10077,10078,10078,10078,10078,10079,0,0,0,0,0,3021,3022,3023,3024,3025,3022,3023,3024,3026,0,0,10077,10078,10078,10078,10078,10079,0,0,0,0,0,0,0,0,0,0,0,0,0,0,10111,10112,0,0,0,0,0,0,0,0,0,0,0,0,0,0,0,0,0,0,3657,3658,3659,3660,3661,3662,0,0,3147,3148,0,0,0,0,0,0,3149,3150,0,0,0,0,0,0,0,0,0,0,0,0,0,0,0,0,0,0,0,0,0,0,0,0,0,0,0,0,0,0,0,0,0,0,0,0,0,10115,10116,0,0,0,0,0,0,0,0,0,3086,3087,0,0,0,0,0,0,0,0,0,3086,3087,0,0,0,0,0,0,4765,4766,0,0,0,3086,3087,0,0,0,0,0,0,0,0,0,0,0,0,0,0,0,0,0,0,0,0,0,10266,0,0,0,0,0,0,0,0,0,0,0,0,0,10071,10072,10072,10113,10114,10072,10072,10073,0,0,0,0,0,0,0,0,0,0,0,0,0,0,0,0,0,0,0,0,0,0,0,0,0,0,0,0,0,0,0,0,0,0,0,0,0,0,0,0,0,0,0,0,0,0,0,0,0,0,0,0,3086,3087,10265,0,0,0,0,0,0,0,0,0,0,0,0,10074,10075,10075,10113,10114,10075,10075,10076,0,0,0,0,0,0,0,0,0,0,0,0,0,0,0,0,0,0,0,0,0,0,0,0,0,0,0,0,0,0,0,0,0,0,0,0,0,0,0,0,0,0,3088,3089,0,0,0,0,0,0,0,0,0,0,0,0,0,0,0,0,0,0,0,0,0,0,0,10077,10078,10078,10113,10114,10078,10078,10079,0,0,0,0,0,0,0,0,0,0,0,0,0,0,0,0,0,0,0,0,0,0,0,0,0,0,0,0,0,0,0,0,0,0,0,0,0,0,0,0,0,0,0,0,0,0,0,0,0,0,0,0,0,0,0,0,0,0,0,0,0,0,0,0,0,0,0,0,0,0,0,0,0,0,0,0,0,0,0,0,0,0,0,0,0,0,0,0,0,0,0,0,0,0,0,0,0,0,0,0,0,0,0,0,0,0,0,0,0,0,0,0,0,0,0,0,0,0,0,0,0,0,0,0,0,0,0,0,0,0,0,0,0,0,0,0,0,0,0,0,0,0,0,0,0,0,0,0,0,0,0,0,0,0,0,0,0,0,0,0,0,0,0,0,0,0,0,0,0,0,0,0,0,0,0,0,0,0,0,0,0,0,0,0,0,0,0,0,0,0,0,0,0,0,0,0,0,0,0,0,0,0,0,0,0,0,0,0,0,0,0,0,0,0,0,10165,0,0,0,0,0,0,0,0,0,0,0,0,0,0,0,0,0,0,0,0,0,0,0,0,0,0,0,0,0,0,0,0,0,0,0,0,0,0,0,0,0,0,0,0,0,0,0,0,0,0,0,0,0,0,0,0,0,0,0,0,0,0,0,0,0,0,0,0,0,0,10071,10072,10072,10072,10072,10073,0,0,0,0,0,0,0,0,0,0,0,0,0,0,0,0,0,0,0,0,0,0,0,10071,10072,10072,10073,10071,10072,10072,10073,10071,10072,10073,0,0,0,0,0,0,0,0,0,0,0,0,0,0,0,0,0,0,0,0,0,0,0,0,0,0,0,0,0,0,0,0,0,0,0,10074,10075,10075,10075,10075,10076,0,0,0,0,0,0,0,0,0,0,0,0,0,0,0,0,0,0,0,0,0,0,0,10074,10075,10075,10076,10074,10075,10075,10076,10074,10075,10076,0,0,0,0,0,0,0,0,0,0,0,0,0,0,0,0,0,0,0,0,0,0,0,0,0,0,0,0,0,0,0,0,0,0,0,10077,10078,10078,10078,10078,10079,0,0,0,0,0,0,0,0,0,0,0,0,0,0,0,0,0,0,0,0,0,0,0,10077,10078,10078,10079,10077,10078,10078,10079,10077,10078,10079,0,0,0,0,0,0,0,0,0,0,0,0,0,0,0,0,0,0,0,0,0,0,0,0,0,0,0,0,0,0,0,0,0,0,0,0,0,0,0,0,0,0,0,0,0,0,0,0,0,0,0,0,0,0,0,0,0,0,0,0,0,0,0,0,0,0,0,0,0,0,0,0,0,0,0,0,0,0,0,0,0,0,0,0,0,0,0,0,0,0,0,0,0,0,0,0,0,0,0,0,0,0,0,0,0,0,0,0,0,0,0,0,0,10266,0,0,0,0,0,0,10271,10272,0,0,0,0,0,0,0,0,0,0,0,0,0,0,0,0,0,0,3086,3087,0,0,3086,3087,0,3086,3087,0,0,0,0,0,0,0,0,0,0,0,0,0,0,0,0,0,0,0,0,0,0,0,0,0,0,0,0,0,0,0,0,0,0,0,0,0,0,3086,3087,10265,0,0,0,0,0,0,0,0,0,0,0,0,0,0,0,0,0,0,0,0,0,0,0,0,0,0,0,0,0,0,0,0,0,0,0,0,0,0,0,0,0,0,0,0,0,0,0,0,0,0,0,0,0,0,0,0,0,0,0,0,0,0,0,0,0,0,0,0,0,0,0,0,0,0,0,0,0,0,0,0,0,0,0,0,0,0,0,0,0,0,0,0,0,0,10291,0,0,0,0,0,0,0,0,0,0,0,0,0,0,0,0,0,0,0,0,0,0,0,0,0,0,0,0,0,0,0,0,0,0,0,0,0,0,0,0,0,0,0,0,0,0,0,0,0,0,0,0,0,0,0,0,0,0,0,0,0,0,0,0,0,0,0,0,0,0,0,0,0,0,0,0,0,0,0,0,0,0,0,0,0,0,0,0,0,0,0,0,0,0,0,0,0,0,0,0,0,0,0,0,0,0,0,0,0,0,0,0,0,0,0,0,0,0,0,0,0,0,0,0,0,0,0,0,0,0,0,0,0,0,0,0,0,0,0,0,0,0,0,0,0,0,0,0,0,0,0,0,0,0,0,0,0,0,0,0,0,0,0,0,0,0,0,0,0,0,0,0,0,0,0,0,0,0,0,0,0,0,0,0,0,0,0,0,0,0,0,0,0,0,0,0,0,0,0,0,0,0,0,0,0,0,0,0,0,0,0,0,0,0,0,0,0,0,0,0,0,0,0,0,0,0,0,0,0,0,0,0,0,0,0,0,0,0,0,0,0,0,0,0,0,0,0,0,0,0,0,0,0,0,0,0,0,0,0,0,0,0,0,0,0,0,0,0,0,0,0,0,0]},{"id":6,"name":"collision","type":"objectgroup","visible":true,"opacity":1,"x":0,"y":0,"draworder":"topdown","objects":[{"id":1,"name":"","type":"","rotation":0,"visible":true,"x":672,"y":672,"width":528,"height":80},{"id":2,"name":"","type":"","rotation":0,"visible":true,"x":160,"y":144,"width":160,"height":128},{"id":3,"name":"","type":"","rotation":0,"visible":true,"x":160,"y":48,"width":32,"height":16},{"id":4,"name":"","type":"","rotation":0,"visible":true,"x":160,"y":80,"width":32,"height":16},{"id":5,"name":"","type":"","rotation":0,"visible":true,"x":208,"y":48,"width":32,"height":16},{"id":6,"name":"","type":"","rotation":0,"visible":true,"x":208,"y":64,"width":32,"height":16},{"id":7,"name":"","type":"","rotation":0,"visible":true,"x":240,"y":48,"width":32,"height":16},{"id":8,"name":"","type":"","rotation":0,"visible":true,"x":240,"y":96,"width":32,"height":16},{"id":9,"name":"","type":"","rotation":0,"visible":true,"x":288,"y":64,"width":32,"height":16},{"id":10,"name":"","type":"","rotation":0,"visible":true,"x":304,"y":96,"width":16,"height":16},{"id":11,"name":"","type":"","rotation":0,"visible":true,"x":352,"y":48,"width":112,"height":112},{"id":12,"name":"","type":"","rotation":0,"visible":true,"x":480,"y":48,"width":96,"height":112},{"id":13,"name":"","type":"","rotation":0,"visible":true,"x":592,"y":48,"width":96,"height":112},{"id":14,"name":"","type":"","rotation":0,"visible":true,"x":336,"y":208,"width":112,"height":112},{"id":15,"name":"","type":"","rotation":0,"visible":true,"x":448,"y":208,"width":112,"height":112},{"id":16,"name":"","type":"","rotation":0,"visible":true,"x":560,"y":192,"width":128,"height":112},{"id":17,"name":"","type":"","rotation":0,"visible":true,"x":960,"y":208,"width":96,"height":128},{"id":18,"name":"","type":"","rotation":0,"visible":true,"x":1072,"y":208,"width":96,"height":128},{"id":19,"name":"","type":"","rotation":0,"visible":true,"x":1056,"y":272,"width":16,"height":32},{"id":20,"name":"","type":"","rotation":0,"visible":true,"x":976,"y":144,"width":48,"height":48},{"id":21,"name":"","type":"","rotation":0,"visible":true,"x":1088,"y":144,"width":48,"height":48},{"id":22,"name":"","type":"","rotation":0,"visible":true,"x":496,"y":448,"width":96,"height":112},{"id":23,"name":"","type":"","rotation":0,"visible":true,"x":608,"y":448,"width":96,"height":112},{"id":24,"name":"","type":"","rotation":0,"visible":true,"x":704,"y":448,"width":96,"height":112},{"id":25,"name":"","type":"","rotation":0,"visible":true,"x":304,"y":448,"width":128,"height":112},{"id":26,"name":"","type":"","rotation":0,"visible":true,"x":128,"y":512,"width":128,"height":128},{"id":27,"name":"","type":"","rotation":0,"visible":true,"x":32,"y":640,"width":96,"height":112},{"id":28,"name":"","type":"","rotation":0,"visible":true,"x":192,"y":704,"width":32,"height":32},{"id":29,"name":"","type":"","rotation":0,"visible":true,"x":880,"y":480,"width":144,"height":112},{"id":30,"name":"","type":"","rotation":0,"visible":true,"x":1056,"y":448,"width":96,"height":128},{"id":31,"name":"","type":"","rotation":0,"visible":true,"x":496,"y":640,"width":64,"height":96},{"id":32,"name":"","type":"","rotation":0,"visible":true,"x":560,"y":640,"width":64,"height":96},{"id":33,"name":"","type":"","rotation":0,"visible":true,"x":624,"y":640,"width":48,"height":96},{"id":34,"name":"","type":"","rotation":0,"visible":true,"x":224,"y":288,"width":32,"height":32},{"id":35,"name":"","type":"","rotation":0,"visible":true,"x":176,"y":272,"width":32,"height":32},{"id":36,"name":"","type":"","rotation":0,"visible":true,"x":272,"y":272,"width":32,"height":32},{"id":37,"name":"","type":"","rotation":0,"visible":true,"x":192,"y":320,"width":16,"height":16},{"id":38,"name":"","type":"","rotation":0,"visible":true,"x":272,"y":320,"width":16,"height":16},{"id":39,"name":"","type":"","rotation":0,"visible":true,"x":160,"y":304,"width":16,"height":32},{"id":40,"name":"","type":"","rotation":0,"visible":true,"x":304,"y":304,"width":16,"height":32},{"id":41,"name":"","type":"","rotation":0,"visible":true,"x":148.8,"y":272,"width":6.4,"height":64},{"id":42,"name":"","type":"","rotation":0,"visible":true,"x":324.8,"y":272,"width":6.4,"height":64},{"id":43,"name":"","type":"","rotation":0,"visible":true,"x":164.0,"y":340.0,"width":8.0,"height":12.0},{"id":44,"name":"","type":"","rotation":0,"visible":true,"x":308.0,"y":340.0,"width":8.0,"height":12.0},{"id":45,"name":"","type":"","rotation":0,"visible":true,"x":144,"y":112,"width":16,"height":144},{"id":46,"name":"","type":"","rotation":0,"visible":true,"x":336,"y":336,"width":32,"height":16},{"id":47,"name":"","type":"","rotation":0,"visible":true,"x":400,"y":336,"width":80,"height":16},{"id":48,"name":"","type":"","rotation":0,"visible":true,"x":512,"y":336,"width":48,"height":16},{"id":49,"name":"","type":"","rotation":0,"visible":true,"x":464,"y":64,"width":16,"height":96},{"id":50,"name":"","type":"","rotation":0,"visible":true,"x":576,"y":64,"width":16,"height":96},{"id":51,"name":"","type":"","rotation":0,"visible":true,"x":577.6,"y":340.8,"width":12.8,"height":11.2},{"id":52,"name":"","type":"","rotation":0,"visible":true,"x":657.6,"y":340.8,"width":12.8,"height":11.2},{"id":53,"name":"","type":"","rotation":0,"visible":true,"x":944,"y":342.4,"width":32,"height":6.4},{"id":54,"name":"","type":"","rotation":0,"visible":true,"x":1024,"y":342.4,"width":32,"height":6.4},{"id":55,"name":"","type":"","rotation":0,"visible":true,"x":1136,"y":342.4,"width":32,"height":6.4},{"id":56,"name":"","type":"","rotation":0,"visible":true,"x":752,"y":224,"width":16,"height":16},{"id":57,"name":"","type":"","rotation":0,"visible":true,"x":816,"y":224,"width":16,"height":16},{"id":58,"name":"","type":"","rotation":0,"visible":true,"x":768,"y":240,"width":16,"height":16},{"id":59,"name":"","type":"","rotation":0,"visible":true,"x":800,"y":240,"width":16,"height":16},{"id":60,"name":"","type":"","rotation":0,"visible":true,"x":848,"y":176,"width":96,"height":80},{"id":61,"name":"","type":"","rotation":0,"visible":true,"x":800,"y":304,"width":16,"height":32},{"id":62,"name":"","type":"","rotation":0,"visible":true,"x":912,"y":304,"width":32,"height":32},{"id":63,"name":"","type":"","rotation":0,"visible":true,"x":784,"y":128,"width":16,"height":16},{"id":64,"name":"","type":"","rotation":0,"visible":true,"x":912,"y":144,"width":16,"height":16},{"id":65,"name":"","type":"","rotation":0,"visible":true,"x":800,"y":320,"width":16,"height":16},{"id":66,"name":"","type":"","rotation":0,"visible":true,"x":836.0,"y":292.0,"width":8.0,"height":12.0},{"id":67,"name":"","type":"","rotation":0,"visible":true,"x":496,"y":576,"width":48,"height":32},{"id":68,"name":"","type":"","rotation":0,"visible":true,"x":496,"y":608,"width":32,"height":32},{"id":69,"name":"","type":"","rotation":0,"visible":true,"x":560,"y":592,"width":32,"height":16},{"id":70,"name":"","type":"","rotation":0,"visible":true,"x":624,"y":608,"width":32,"height":32},{"id":71,"name":"","type":"","rotation":0,"visible":true,"x":592,"y":592,"width":16,"height":16},{"id":72,"name":"","type":"","rotation":0,"visible":true,"x":484.0,"y":628.0,"width":8.0,"height":12.0},{"id":73,"name":"","type":"","rotation":0,"visible":true,"x":771.2,"y":564.8,"width":9.6,"height":11.2},{"id":74,"name":"","type":"","rotation":0,"visible":true,"x":688,"y":624,"width":16,"height":16},{"id":75,"name":"","type":"","rotation":0,"visible":true,"x":305.6,"y":585.6,"width":28.8,"height":19.2},{"id":76,"name":"","type":"","rotation":0,"visible":true,"x":307.2,"y":580.8,"width":9.6,"height":11.2},{"id":77,"name":"","type":"","rotation":0,"visible":true,"x":384,"y":576,"width":16,"height":16},{"id":78,"name":"","type":"","rotation":0,"visible":true,"x":304,"y":592,"width":32,"height":32},{"id":79,"name":"","type":"","rotation":0,"visible":true,"x":32,"y":528,"width":96,"height":16},{"id":80,"name":"","type":"","rotation":0,"visible":true,"x":32,"y":592,"width":96,"height":16},{"id":81,"name":"","type":"","rotation":0,"visible":true,"x":32,"y":544,"width":16,"height":48},{"id":82,"name":"","type":"","rotation":0,"visible":true,"x":112,"y":544,"width":16,"height":48},{"id":83,"name":"","type":"","rotation":0,"visible":true,"x":64,"y":480,"width":16,"height":16},{"id":84,"name":"","type":"","rotation":0,"visible":true,"x":224,"y":672,"width":32,"height":32},{"id":85,"name":"","type":"","rotation":0,"visible":true,"x":816,"y":665.6,"width":256,"height":6.4},{"id":86,"name":"","type":"","rotation":0,"visible":true,"x":816,"y":624,"width":16,"height":32},{"id":87,"name":"","type":"","rotation":0,"visible":true,"x":1056,"y":624,"width":16,"height":32},{"id":88,"name":"","type":"","rotation":0,"visible":true,"x":836.0,"y":628.0,"width":8.0,"height":12.0},{"id":89,"name":"","type":"","rotation":0,"visible":true,"x":1028.0,"y":628.0,"width":8.0,"height":12.0},{"id":90,"name":"","type":"","rotation":0,"visible":true,"x":928,"y":640,"width":16,"height":16},{"id":91,"name":"","type":"","rotation":0,"visible":true,"x":979.2,"y":644.8,"width":9.6,"height":11.2},{"id":92,"name":"","type":"","rotation":0,"visible":true,"x":900.8,"y":436.8,"width":6.4,"height":11.2},{"id":93,"name":"","type":"","rotation":0,"visible":true,"x":1056,"y":608,"width":16,"height":16},{"id":94,"name":"","type":"","rotation":0,"visible":true,"x":1040,"y":464,"width":16,"height":96},{"id":95,"name":"","type":"","rotation":0,"visible":true,"x":691.2,"y":755.2,"width":9.6,"height":12.8},{"id":96,"name":"","type":"","rotation":0,"visible":true,"x":48,"y":336,"width":16,"height":16},{"id":97,"name":"","type":"","rotation":0,"visible":true,"x":48,"y":432,"width":16,"height":16},{"id":98,"name":"","type":"","rotation":0,"visible":true,"x":128,"y":336,"width":16,"height":16},{"id":99,"name":"","type":"","rotation":0,"visible":true,"x":128,"y":432,"width":16,"height":16},{"id":100,"name":"","type":"","rotation":0,"visible":true,"x":208,"y":432,"width":16,"height":16},{"id":101,"name":"","type":"","rotation":0,"visible":true,"x":336,"y":432,"width":16,"height":16},{"id":102,"name":"","type":"","rotation":0,"visible":true,"x":592,"y":432,"width":16,"height":16},{"id":103,"name":"","type":"","rotation":0,"visible":true,"x":768,"y":336,"width":16,"height":16},{"id":104,"name":"","type":"","rotation":0,"visible":true,"x":848,"y":336,"width":16,"height":16},{"id":105,"name":"","type":"","rotation":0,"visible":true,"x":928,"y":336,"width":16,"height":16},{"id":106,"name":"","type":"","rotation":0,"visible":true,"x":656,"y":432,"width":16,"height":16},{"id":107,"name":"","type":"","rotation":0,"visible":true,"x":784,"y":432,"width":16,"height":16},{"id":108,"name":"","type":"","rotation":0,"visible":true,"x":912,"y":432,"width":16,"height":16},{"id":109,"name":"","type":"","rotation":0,"visible":true,"x":992,"y":432,"width":16,"height":16},{"id":110,"name":"","type":"","rotation":0,"visible":true,"x":1120,"y":432,"width":16,"height":16},{"id":111,"name":"","type":"","rotation":0,"visible":true,"x":64,"y":96,"width":16,"height":16},{"id":112,"name":"","type":"","rotation":0,"visible":true,"x":64,"y":160,"width":16,"height":16},{"id":113,"name":"","type":"","rotation":0,"visible":true,"x":672,"y":48,"width":16,"height":16},{"id":114,"name":"","type":"","rotation":0,"visible":true,"x":784,"y":224,"width":16,"height":16},{"id":115,"name":"","type":"","rotation":0,"visible":true,"x":784,"y":288,"width":16,"height":16},{"id":116,"name":"","type":"","rotation":0,"visible":true,"x":768,"y":64,"width":16,"height":16},{"id":117,"name":"","type":"","rotation":0,"visible":true,"x":976,"y":80,"width":16,"height":16},{"id":118,"name":"","type":"","rotation":0,"visible":true,"x":1040,"y":64,"width":16,"height":16},{"id":119,"name":"","type":"","rotation":0,"visible":true,"x":1152,"y":96,"width":16,"height":16},{"id":120,"name":"","type":"","rotation":0,"visible":true,"x":208,"y":752,"width":16,"height":16},{"id":121,"name":"","type":"","rotation":0,"visible":true,"x":320,"y":736,"width":16,"height":16},{"id":122,"name":"","type":"","rotation":0,"visible":true,"x":384,"y":704,"width":16,"height":16},{"id":123,"name":"","type":"","rotation":0,"visible":true,"x":84.0,"y":340.0,"width":8.0,"height":12.0},{"id":124,"name":"","type":"","rotation":0,"visible":true,"x":580.0,"y":340.0,"width":8.0,"height":12.0},{"id":125,"name":"","type":"","rotation":0,"visible":true,"x":804.0,"y":340.0,"width":8.0,"height":12.0},{"id":126,"name":"","type":"","rotation":0,"visible":true,"x":1172.0,"y":340.0,"width":8.0,"height":12.0},{"id":127,"name":"","type":"","rotation":0,"visible":true,"x":244.0,"y":420.0,"width":8.0,"height":12.0},{"id":128,"name":"","type":"","rotation":0,"visible":true,"x":596.0,"y":420.0,"width":8.0,"height":12.0},{"id":129,"name":"","type":"","rotation":0,"visible":true,"x":1028.0,"y":420.0,"width":8.0,"height":12.0},{"id":130,"name":"","type":"","rotation":0,"visible":true,"x":323.2,"y":356.8,"width":9.6,"height":11.2},{"id":131,"name":"","type":"","rotation":0,"visible":true,"x":563.2,"y":355.2,"width":9.6,"height":12.8},{"id":132,"name":"","type":"","rotation":0,"visible":true,"x":659.2,"y":356.8,"width":9.6,"height":11.2},{"id":133,"name":"","type":"","rotation":0,"visible":true,"x":675.2,"y":420.8,"width":9.6,"height":11.2},{"id":134,"name":"","type":"","rotation":0,"visible":true,"x":532.8,"y":436.8,"width":6.4,"height":11.2},{"id":135,"name":"","type":"","rotation":0,"visible":true,"x":693.6,"y":356.8,"width":4.8,"height":11.2},{"id":136,"name":"","type":"","rotation":0,"visible":true,"x":757.6,"y":356.8,"width":4.8,"height":11.2},{"id":137,"name":"","type":"","rotation":0,"visible":true,"x":693.6,"y":436.8,"width":4.8,"height":11.2},{"id":138,"name":"","type":"","rotation":0,"visible":true,"x":757.6,"y":436.8,"width":4.8,"height":11.2},{"id":139,"name":"","type":"","rotation":0,"visible":true,"x":421.6,"y":436.8,"width":4.8,"height":11.2},{"id":140,"name":"","type":"","rotation":0,"visible":true,"x":869.6,"y":436.8,"width":4.8,"height":11.2},{"id":141,"name":"","type":"","rotation":0,"visible":true,"x":0,"y":-16,"width":1200,"height":16},{"id":142,"name":"","type":"","rotation":0,"visible":true,"x":0,"y":800,"width":1200,"height":16},{"id":143,"name":"","type":"","rotation":0,"visible":true,"x":-16,"y":0,"width":16,"height":800},{"id":144,"name":"","type":"","rotation":0,"visible":true,"x":1200,"y":0,"width":16,"height":800},{"id":145,"name":"","type":"","rotation":0,"visible":true,"x":16,"y":16,"width":16,"height":16},{"id":146,"name":"","type":"","rotation":0,"visible":true,"x":48,"y":16,"width":16,"height":16},{"id":147,"name":"","type":"","rotation":0,"visible":true,"x":80,"y":16,"width":16,"height":16},{"id":148,"name":"","type":"","rotation":0,"visible":true,"x":112,"y":16,"width":16,"height":16},{"id":149,"name":"","type":"","rotation":0,"visible":true,"x":144,"y":16,"width":16,"height":16},{"id":150,"name":"","type":"","rotation":0,"visible":true,"x":176,"y":16,"width":16,"height":16},{"id":151,"name":"","type":"","rotation":0,"visible":true,"x":208,"y":16,"width":16,"height":16},{"id":152,"name":"","type":"","rotation":0,"visible":true,"x":240,"y":16,"width":16,"height":16},{"id":153,"name":"","type":"","rotation":0,"visible":true,"x":272,"y":16,"width":16,"height":16},{"id":154,"name":"","type":"","rotation":0,"visible":true,"x":304,"y":16,"width":16,"height":16},{"id":155,"name":"","type":"","rotation":0,"visible":true,"x":336,"y":16,"width":16,"height":16},{"id":156,"name":"","type":"","rotation":0,"visible":true,"x":368,"y":16,"width":16,"height":16},{"id":157,"name":"","type":"","rotation":0,"visible":true,"x":400,"y":16,"width":16,"height":16},{"id":158,"name":"","type":"","rotation":0,"visible":true,"x":432,"y":16,"width":16,"height":16},{"id":159,"name":"","type":"","rotation":0,"visible":true,"x":464,"y":16,"width":16,"height":16},{"id":160,"name":"","type":"","rotation":0,"visible":true,"x":496,"y":16,"width":16,"height":16},{"id":161,"name":"","type":"","rotation":0,"visible":true,"x":528,"y":16,"width":16,"height":16},{"id":162,"name":"","type":"","rotation":0,"visible":true,"x":560,"y":16,"width":16,"height":16},{"id":163,"name":"","type":"","rotation":0,"visible":true,"x":592,"y":16,"width":16,"height":16},{"id":164,"name":"","type":"","rotation":0,"visible":true,"x":624,"y":16,"width":16,"height":16},{"id":165,"name":"","type":"","rotation":0,"visible":true,"x":656,"y":16,"width":16,"height":16},{"id":166,"name":"","type":"","rotation":0,"visible":true,"x":784,"y":16,"width":16,"height":16},{"id":167,"name":"","type":"","rotation":0,"visible":true,"x":816,"y":16,"width":16,"height":16},{"id":168,"name":"","type":"","rotation":0,"visible":true,"x":848,"y":16,"width":16,"height":16},{"id":169,"name":"","type":"","rotation":0,"visible":true,"x":880,"y":16,"width":16,"height":16},{"id":170,"name":"","type":"","rotation":0,"visible":true,"x":912,"y":16,"width":16,"height":16},{"id":171,"name":"","type":"","rotation":0,"visible":true,"x":944,"y":16,"width":16,"height":16},{"id":172,"name":"","type":"","rotation":0,"visible":true,"x":976,"y":16,"width":16,"height":16},{"id":173,"name":"","type":"","rotation":0,"visible":true,"x":1008,"y":16,"width":16,"height":16},{"id":174,"name":"","type":"","rotation":0,"visible":true,"x":1040,"y":16,"width":16,"height":16},{"id":175,"name":"","type":"","rotation":0,"visible":true,"x":1072,"y":16,"width":16,"height":16},{"id":176,"name":"","type":"","rotation":0,"visible":true,"x":1104,"y":16,"width":16,"height":16},{"id":177,"name":"","type":"","rotation":0,"visible":true,"x":1136,"y":16,"width":16,"height":16},{"id":178,"name":"","type":"","rotation":0,"visible":true,"x":1168,"y":16,"width":16,"height":16},{"id":179,"name":"","type":"","rotation":0,"visible":true,"x":832,"y":80,"width":16,"height":16},{"id":180,"name":"","type":"","rotation":0,"visible":true,"x":1088,"y":80,"width":16,"height":16},{"id":181,"name":"","type":"","rotation":0,"visible":true,"x":16,"y":784,"width":16,"height":16},{"id":182,"name":"","type":"","rotation":0,"visible":true,"x":48,"y":784,"width":16,"height":16},{"id":183,"name":"","type":"","rotation":0,"visible":true,"x":80,"y":784,"width":16,"height":16},{"id":184,"name":"","type":"","rotation":0,"visible":true,"x":112,"y":784,"width":16,"height":16},{"id":185,"name":"","type":"","rotation":0,"visible":true,"x":144,"y":784,"width":16,"height":16},{"id":186,"name":"","type":"","rotation":0,"visible":true,"x":176,"y":784,"width":16,"height":16},{"id":187,"name":"","type":"","rotation":0,"visible":true,"x":208,"y":784,"width":16,"height":16},{"id":188,"name":"","type":"","rotation":0,"visible":true,"x":240,"y":784,"width":16,"height":16},{"id":189,"name":"","type":"","rotation":0,"visible":true,"x":272,"y":784,"width":16,"height":16},{"id":190,"name":"","type":"","rotation":0,"visible":true,"x":304,"y":784,"width":16,"height":16},{"id":191,"name":"","type":"","rotation":0,"visible":true,"x":336,"y":784,"width":16,"height":16},{"id":192,"name":"","type":"","rotation":0,"visible":true,"x":368,"y":784,"width":16,"height":16},{"id":193,"name":"","type":"","rotation":0,"visible":true,"x":400,"y":784,"width":16,"height":16},{"id":194,"name":"","type":"","rotation":0,"visible":true,"x":496,"y":784,"width":16,"height":16},{"id":195,"name":"","type":"","rotation":0,"visible":true,"x":528,"y":784,"width":16,"height":16},{"id":196,"name":"","type":"","rotation":0,"visible":true,"x":624,"y":784,"width":16,"height":16},{"id":197,"name":"","type":"","rotation":0,"visible":true,"x":656,"y":784,"width":16,"height":16},{"id":198,"name":"","type":"","rotation":0,"visible":true,"x":688,"y":784,"width":16,"height":16},{"id":199,"name":"","type":"","rotation":0,"visible":true,"x":720,"y":784,"width":16,"height":16},{"id":200,"name":"","type":"","rotation":0,"visible":true,"x":752,"y":784,"width":16,"height":16},{"id":201,"name":"","type":"","rotation":0,"visible":true,"x":784,"y":784,"width":16,"height":16},{"id":202,"name":"","type":"","rotation":0,"visible":true,"x":816,"y":784,"width":16,"height":16},{"id":203,"name":"","type":"","rotation":0,"visible":true,"x":848,"y":784,"width":16,"height":16},{"id":204,"name":"","type":"","rotation":0,"visible":true,"x":880,"y":784,"width":16,"height":16},{"id":205,"name":"","type":"","rotation":0,"visible":true,"x":912,"y":784,"width":16,"height":16},{"id":206,"name":"","type":"","rotation":0,"visible":true,"x":944,"y":784,"width":16,"height":16},{"id":207,"name":"","type":"","rotation":0,"visible":true,"x":976,"y":784,"width":16,"height":16},{"id":208,"name":"","type":"","rotation":0,"visible":true,"x":1008,"y":784,"width":16,"height":16},{"id":209,"name":"","type":"","rotation":0,"visible":true,"x":1040,"y":784,"width":16,"height":16},{"id":210,"name":"","type":"","rotation":0,"visible":true,"x":1072,"y":784,"width":16,"height":16},{"id":211,"name":"","type":"","rotation":0,"visible":true,"x":1104,"y":784,"width":16,"height":16},{"id":212,"name":"","type":"","rotation":0,"visible":true,"x":1136,"y":784,"width":16,"height":16},{"id":213,"name":"","type":"","rotation":0,"visible":true,"x":1168,"y":784,"width":16,"height":16},{"id":214,"name":"","type":"","rotation":0,"visible":true,"x":16,"y":48,"width":16,"height":16},{"id":215,"name":"","type":"","rotation":0,"visible":true,"x":1168,"y":48,"width":16,"height":16},{"id":216,"name":"","type":"","rotation":0,"visible":true,"x":16,"y":80,"width":16,"height":16},{"id":217,"name":"","type":"","rotation":0,"visible":true,"x":16,"y":112,"width":16,"height":16},{"id":218,"name":"","type":"","rotation":0,"visible":true,"x":16,"y":144,"width":16,"height":16},{"id":219,"name":"","type":"","rotation":0,"visible":true,"x":1168,"y":144,"width":16,"height":16},{"id":220,"name":"","type":"","rotation":0,"visible":true,"x":16,"y":176,"width":16,"height":16},{"id":221,"name":"","type":"","rotation":0,"visible":true,"x":1168,"y":176,"width":16,"height":16},{"id":222,"name":"","type":"","rotation":0,"visible":true,"x":16,"y":208,"width":16,"height":16},{"id":223,"name":"","type":"","rotation":0,"visible":true,"x":1168,"y":208,"width":16,"height":16},{"id":224,"name":"","type":"","rotation":0,"visible":true,"x":16,"y":240,"width":16,"height":16},{"id":225,"name":"","type":"","rotation":0,"visible":true,"x":1168,"y":240,"width":16,"height":16},{"id":226,"name":"","type":"","rotation":0,"visible":true,"x":16,"y":272,"width":16,"height":16},{"id":227,"name":"","type":"","rotation":0,"visible":true,"x":1168,"y":272,"width":16,"height":16},{"id":228,"name":"","type":"","rotation":0,"visible":true,"x":16,"y":304,"width":16,"height":16},{"id":229,"name":"","type":"","rotation":0,"visible":true,"x":1168,"y":304,"width":16,"height":16},{"id":230,"name":"","type":"","rotation":0,"visible":true,"x":16,"y":336,"width":16,"height":16},{"id":231,"name":"","type":"","rotation":0,"visible":true,"x":16,"y":432,"width":16,"height":16},{"id":232,"name":"","type":"","rotation":0,"visible":true,"x":1168,"y":432,"width":16,"height":16},{"id":233,"name":"","type":"","rotation":0,"visible":true,"x":16,"y":464,"width":16,"height":16},{"id":234,"name":"","type":"","rotation":0,"visible":true,"x":1168,"y":464,"width":16,"height":16},{"id":235,"name":"","type":"","rotation":0,"visible":true,"x":16,"y":496,"width":16,"height":16},{"id":236,"name":"","type":"","rotation":0,"visible":true,"x":1168,"y":496,"width":16,"height":16},{"id":237,"name":"","type":"","rotation":0,"visible":true,"x":16,"y":528,"width":16,"height":16},{"id":238,"name":"","type":"","rotation":0,"visible":true,"x":16,"y":560,"width":16,"height":16},{"id":239,"name":"","type":"","rotation":0,"visible":true,"x":1168,"y":560,"width":16,"height":16},{"id":240,"name":"","type":"","rotation":0,"visible":true,"x":16,"y":592,"width":16,"height":16},{"id":241,"name":"","type":"","rotation":0,"visible":true,"x":1168,"y":592,"width":16,"height":16},{"id":242,"name":"","type":"","rotation":0,"visible":true,"x":16,"y":624,"width":16,"height":16},{"id":243,"name":"","type":"","rotation":0,"visible":true,"x":1168,"y":624,"width":16,"height":16},{"id":244,"name":"","type":"","rotation":0,"visible":true,"x":16,"y":656,"width":16,"height":16},{"id":245,"name":"","type":"","rotation":0,"visible":true,"x":1168,"y":656,"width":16,"height":16},{"id":246,"name":"","type":"","rotation":0,"visible":true,"x":16,"y":688,"width":16,"height":16},{"id":247,"name":"","type":"","rotation":0,"visible":true,"x":16,"y":720,"width":16,"height":16},{"id":248,"name":"","type":"","rotation":0,"visible":true,"x":16,"y":752,"width":16,"height":16},{"id":249,"name":"","type":"","rotation":0,"visible":true,"x":1168,"y":752,"width":16,"height":16},{"id":250,"name":"","type":"","rotation":0,"visible":true,"x":37.6,"y":356.8,"width":4.8,"height":11.2},{"id":251,"name":"","type":"","rotation":0,"visible":true,"x":1157.6,"y":436.8,"width":4.8,"height":11.2},{"id":252,"name":"","type":"","rotation":0,"visible":true,"x":757.6,"y":36.8,"width":4.8,"height":11.2},{"id":253,"name":"","type":"","rotation":0,"visible":true,"x":421.6,"y":756.8,"width":4.8,"height":11.2},{"id":254,"name":"","type":"","rotation":0,"visible":true,"x":340.8,"y":151.2,"width":6.4,"height":8.0},{"id":255,"name":"","type":"","rotation":0,"visible":true,"x":340.8,"y":135.2,"width":6.4,"height":8.0},{"id":256,"name":"","type":"","rotation":0,"visible":true,"x":948.8,"y":327.2,"width":6.4,"height":8.0},{"id":257,"name":"","type":"","rotation":0,"visible":true,"x":948.8,"y":311.2,"width":6.4,"height":8.0},{"id":258,"name":"","type":"","rotation":0,"visible":true,"x":1044.8,"y":567.2,"width":6.4,"height":8.0},{"id":259,"name":"","type":"","rotation":0,"visible":true,"x":1156.8,"y":551.2,"width":6.4,"height":8.0},{"id":260,"name":"","type":"","rotation":0,"visible":true,"x":500.8,"y":743.2,"width":6.4,"height":8.0},{"id":261,"name":"","type":"","rotation":0,"visible":true,"x":564.8,"y":743.2,"width":6.4,"height":8.0},{"id":262,"name":"","type":"","rotation":0,"visible":true,"x":628.8,"y":743.2,"width":6.4,"height":8.0},{"id":263,"name":"","type":"","rotation":0,"visible":true,"x":804.0,"y":230.4,"width":8.0,"height":8.0}]},{"id":7,"name":"anchors","type":"objectgroup","visible":true,"opacity":1,"x":0,"y":0,"draworder":"topdown","objects":[{"id":264,"name":"","type":"","rotation":0,"point":true,"visible":true,"x":440.0,"y":42.4,"width":0,"height":0,"properties":[{"name":"kind","type":"string","value":"smoke"},{"name":"mode","type":"string","value":"hearth"}]},{"id":265,"name":"","type":"","rotation":0,"point":true,"visible":true,"x":552.0,"y":42.4,"width":0,"height":0,"properties":[{"name":"kind","type":"string","value":"smoke"},{"name":"mode","type":"string","value":"hearth"}]},{"id":266,"name":"","type":"","rotation":0,"point":true,"visible":true,"x":664.0,"y":42.4,"width":0,"height":0,"properties":[{"name":"kind","type":"string","value":"smoke"},{"name":"mode","type":"string","value":"hearth"}]},{"id":267,"name":"","type":"","rotation":0,"point":true,"visible":true,"x":1032.0,"y":202.4,"width":0,"height":0,"properties":[{"name":"kind","type":"string","value":"smoke"},{"name":"mode","type":"string","value":"hearth"}]},{"id":268,"name":"","type":"","rotation":0,"point":true,"visible":true,"x":1144.0,"y":202.4,"width":0,"height":0,"properties":[{"name":"kind","type":"string","value":"smoke"},{"name":"mode","type":"string","value":"hearth"}]},{"id":269,"name":"","type":"","rotation":0,"point":true,"visible":true,"x":568.0,"y":442.4,"width":0,"height":0,"properties":[{"name":"kind","type":"string","value":"smoke"},{"name":"mode","type":"string","value":"hearth"}]},{"id":270,"name":"","type":"","rotation":0,"point":true,"visible":true,"x":776.0,"y":442.4,"width":0,"height":0,"properties":[{"name":"kind","type":"string","value":"smoke"},{"name":"mode","type":"string","value":"hearth"}]},{"id":271,"name":"","type":"","rotation":0,"point":true,"visible":true,"x":104.0,"y":634.4,"width":0,"height":0,"properties":[{"name":"kind","type":"string","value":"smoke"},{"name":"mode","type":"string","value":"hearth"}]},{"id":272,"name":"","type":"","rotation":0,"point":true,"visible":true,"x":1128.0,"y":442.4,"width":0,"height":0,"properties":[{"name":"kind","type":"string","value":"smoke"},{"name":"mode","type":"string","value":"hearth"}]},{"id":273,"name":"","type":"","rotation":0,"point":true,"visible":true,"x":168.0,"y":352.0,"width":0,"height":0,"properties":[{"name":"kind","type":"string","value":"lamp"}]},{"id":274,"name":"","type":"","rotation":0,"point":true,"visible":true,"x":312.0,"y":352.0,"width":0,"height":0,"properties":[{"name":"kind","type":"string","value":"lamp"}]},{"id":275,"name":"","type":"","rotation":0,"point":true,"visible":true,"x":888.0,"y":224.0,"width":0,"height":0,"properties":[{"name":"kind","type":"string","value":"water-foam"}]},{"id":276,"name":"","type":"","rotation":0,"point":true,"visible":true,"x":792.0,"y":144.0,"width":0,"height":0,"properties":[{"name":"kind","type":"string","value":"tree"},{"name":"stamp","type":"string","value":"tree_fruit_a"}]},{"id":277,"name":"","type":"","rotation":0,"point":true,"visible":true,"x":920.0,"y":160.0,"width":0,"height":0,"properties":[{"name":"kind","type":"string","value":"tree"},{"name":"stamp","type":"string","value":"tree_light"}]},{"id":278,"name":"","type":"","rotation":0,"point":true,"visible":true,"x":808.0,"y":336.0,"width":0,"height":0,"properties":[{"name":"kind","type":"string","value":"tree"},{"name":"stamp","type":"string","value":"tree_round_small"}]},{"id":279,"name":"","type":"","rotation":0,"point":true,"visible":true,"x":840.0,"y":304.0,"width":0,"height":0,"properties":[{"name":"kind","type":"string","value":"lamp"}]},{"id":280,"name":"","type":"","rotation":0,"point":true,"visible":true,"x":488.0,"y":640.0,"width":0,"height":0,"properties":[{"name":"kind","type":"string","value":"lamp"}]},{"id":281,"name":"","type":"","rotation":0,"point":true,"visible":true,"x":696.0,"y":640.0,"width":0,"height":0,"properties":[{"name":"kind","type":"string","value":"tree"},{"name":"stamp","type":"string","value":"tree_round_small"}]},{"id":282,"name":"Public Library","type":"","rotation":0,"point":true,"visible":true,"x":320.0,"y":608.0,"width":0,"height":0,"properties":[{"name":"kind","type":"string","value":"noticeboard"}]},{"id":283,"name":"","type":"","rotation":0,"point":true,"visible":true,"x":72.0,"y":496.0,"width":0,"height":0,"properties":[{"name":"kind","type":"string","value":"tree"},{"name":"stamp","type":"string","value":"tree_dark"}]},{"id":284,"name":"","type":"","rotation":0,"point":true,"visible":true,"x":840.0,"y":640.0,"width":0,"height":0,"properties":[{"name":"kind","type":"string","value":"lamp"}]},{"id":285,"name":"","type":"","rotation":0,"point":true,"visible":true,"x":1032.0,"y":640.0,"width":0,"height":0,"properties":[{"name":"kind","type":"string","value":"lamp"}]},{"id":286,"name":"","type":"","rotation":0,"point":true,"visible":true,"x":1064.0,"y":624.0,"width":0,"height":0,"properties":[{"name":"kind","type":"string","value":"tree"},{"name":"stamp","type":"string","value":"tree_round_small"}]},{"id":287,"name":"","type":"","rotation":0,"point":true,"visible":true,"x":56.0,"y":352.0,"width":0,"height":0,"properties":[{"name":"kind","type":"string","value":"tree"},{"name":"stamp","type":"string","value":"tree_round_small"}]},{"id":288,"name":"","type":"","rotation":0,"point":true,"visible":true,"x":56.0,"y":448.0,"width":0,"height":0,"properties":[{"name":"kind","type":"string","value":"tree"},{"name":"stamp","type":"string","value":"tree_round_small"}]},{"id":289,"name":"","type":"","rotation":0,"point":true,"visible":true,"x":136.0,"y":352.0,"width":0,"height":0,"properties":[{"name":"kind","type":"string","value":"tree"},{"name":"stamp","type":"string","value":"tree_round_small"}]},{"id":290,"name":"","type":"","rotation":0,"point":true,"visible":true,"x":136.0,"y":448.0,"width":0,"height":0,"properties":[{"name":"kind","type":"string","value":"tree"},{"name":"stamp","type":"string","value":"tree_round_small"}]},{"id":291,"name":"","type":"","rotation":0,"point":true,"visible":true,"x":216.0,"y":448.0,"width":0,"height":0,"properties":[{"name":"kind","type":"string","value":"tree"},{"name":"stamp","type":"string","value":"tree_round_small"}]},{"id":292,"name":"","type":"","rotation":0,"point":true,"visible":true,"x":344.0,"y":448.0,"width":0,"height":0,"properties":[{"name":"kind","type":"string","value":"tree"},{"name":"stamp","type":"string","value":"tree_round_small"}]},{"id":293,"name":"","type":"","rotation":0,"point":true,"visible":true,"x":600.0,"y":448.0,"width":0,"height":0,"properties":[{"name":"kind","type":"string","value":"tree"},{"name":"stamp","type":"string","value":"tree_round_small"}]},{"id":294,"name":"","type":"","rotation":0,"point":true,"visible":true,"x":776.0,"y":352.0,"width":0,"height":0,"properties":[{"name":"kind","type":"string","value":"tree"},{"name":"stamp","type":"string","value":"tree_round_small"}]},{"id":295,"name":"","type":"","rotation":0,"point":true,"visible":true,"x":856.0,"y":352.0,"width":0,"height":0,"properties":[{"name":"kind","type":"string","value":"tree"},{"name":"stamp","type":"string","value":"tree_round_small"}]},{"id":296,"name":"","type":"","rotation":0,"point":true,"visible":true,"x":936.0,"y":352.0,"width":0,"height":0,"properties":[{"name":"kind","type":"string","value":"tree"},{"name":"stamp","type":"string","value":"tree_round_small"}]},{"id":297,"name":"","type":"","rotation":0,"point":true,"visible":true,"x":664.0,"y":448.0,"width":0,"height":0,"properties":[{"name":"kind","type":"string","value":"tree"},{"name":"stamp","type":"string","value":"tree_round_small"}]},{"id":298,"name":"","type":"","rotation":0,"point":true,"visible":true,"x":792.0,"y":448.0,"width":0,"height":0,"properties":[{"name":"kind","type":"string","value":"tree"},{"name":"stamp","type":"string","value":"tree_round_small"}]},{"id":299,"name":"","type":"","rotation":0,"point":true,"visible":true,"x":920.0,"y":448.0,"width":0,"height":0,"properties":[{"name":"kind","type":"string","value":"tree"},{"name":"stamp","type":"string","value":"tree_round_small"}]},{"id":300,"name":"","type":"","rotation":0,"point":true,"visible":true,"x":1000.0,"y":448.0,"width":0,"height":0,"properties":[{"name":"kind","type":"string","value":"tree"},{"name":"stamp","type":"string","value":"tree_round_small"}]},{"id":301,"name":"","type":"","rotation":0,"point":true,"visible":true,"x":1128.0,"y":448.0,"width":0,"height":0,"properties":[{"name":"kind","type":"string","value":"tree"},{"name":"stamp","type":"string","value":"tree_round_small"}]},{"id":302,"name":"","type":"","rotation":0,"point":true,"visible":true,"x":72.0,"y":112.0,"width":0,"height":0,"properties":[{"name":"kind","type":"string","value":"tree"},{"name":"stamp","type":"string","value":"tree_dark"}]},{"id":303,"name":"","type":"","rotation":0,"point":true,"visible":true,"x":72.0,"y":176.0,"width":0,"height":0,"properties":[{"name":"kind","type":"string","value":"tree"},{"name":"stamp","type":"string","value":"tree_light"}]},{"id":304,"name":"","type":"","rotation":0,"point":true,"visible":true,"x":680.0,"y":64.0,"width":0,"height":0,"properties":[{"name":"kind","type":"string","value":"tree"},{"name":"stamp","type":"string","value":"tree_round_small"}]},{"id":305,"name":"","type":"","rotation":0,"point":true,"visible":true,"x":792.0,"y":240.0,"width":0,"height":0,"properties":[{"name":"kind","type":"string","value":"tree"},{"name":"stamp","type":"string","value":"tree_round_small"}]},{"id":306,"name":"","type":"","rotation":0,"point":true,"visible":true,"x":792.0,"y":304.0,"width":0,"height":0,"properties":[{"name":"kind","type":"string","value":"tree"},{"name":"stamp","type":"string","value":"tree_round_small"}]},{"id":307,"name":"","type":"","rotation":0,"point":true,"visible":true,"x":776.0,"y":80.0,"width":0,"height":0,"properties":[{"name":"kind","type":"string","value":"tree"},{"name":"stamp","type":"string","value":"tree_dark"}]},{"id":308,"name":"","type":"","rotation":0,"point":true,"visible":true,"x":984.0,"y":96.0,"width":0,"height":0,"properties":[{"name":"kind","type":"string","value":"tree"},{"name":"stamp","type":"string","value":"tree_light"}]},{"id":309,"name":"","type":"","rotation":0,"point":true,"visible":true,"x":1048.0,"y":80.0,"width":0,"height":0,"properties":[{"name":"kind","type":"string","value":"tree"},{"name":"stamp","type":"string","value":"tree_light"}]},{"id":310,"name":"","type":"","rotation":0,"point":true,"visible":true,"x":1160.0,"y":112.0,"width":0,"height":0,"properties":[{"name":"kind","type":"string","value":"tree"},{"name":"stamp","type":"string","value":"tree_light"}]},{"id":311,"name":"","type":"","rotation":0,"point":true,"visible":true,"x":216.0,"y":768.0,"width":0,"height":0,"properties":[{"name":"kind","type":"string","value":"tree"},{"name":"stamp","type":"string","value":"tree_light"}]},{"id":312,"name":"","type":"","rotation":0,"point":true,"visible":true,"x":328.0,"y":752.0,"width":0,"height":0,"properties":[{"name":"kind","type":"string","value":"tree"},{"name":"stamp","type":"string","value":"tree_dark"}]},{"id":313,"name":"","type":"","rotation":0,"point":true,"visible":true,"x":392.0,"y":720.0,"width":0,"height":0,"properties":[{"name":"kind","type":"string","value":"tree"},{"name":"stamp","type":"string","value":"tree_round_small"}]},{"id":314,"name":"","type":"","rotation":0,"point":true,"visible":true,"x":88.0,"y":352.0,"width":0,"height":0,"properties":[{"name":"kind","type":"string","value":"lamp"}]},{"id":315,"name":"","type":"","rotation":0,"point":true,"visible":true,"x":584.0,"y":352.0,"width":0,"height":0,"properties":[{"name":"kind","type":"string","value":"lamp"}]},{"id":316,"name":"","type":"","rotation":0,"point":true,"visible":true,"x":808.0,"y":352.0,"width":0,"height":0,"properties":[{"name":"kind","type":"string","value":"lamp"}]},{"id":317,"name":"","type":"","rotation":0,"point":true,"visible":true,"x":1176.0,"y":352.0,"width":0,"height":0,"properties":[{"name":"kind","type":"string","value":"lamp"}]},{"id":318,"name":"","type":"","rotation":0,"point":true,"visible":true,"x":248.0,"y":432.0,"width":0,"height":0,"properties":[{"name":"kind","type":"string","value":"lamp"}]},{"id":319,"name":"","type":"","rotation":0,"point":true,"visible":true,"x":600.0,"y":432.0,"width":0,"height":0,"properties":[{"name":"kind","type":"string","value":"lamp"}]},{"id":320,"name":"","type":"","rotation":0,"point":true,"visible":true,"x":1032.0,"y":432.0,"width":0,"height":0,"properties":[{"name":"kind","type":"string","value":"lamp"}]},{"id":321,"name":"","type":"","rotation":0,"point":true,"visible":true,"x":696.0,"y":344.0,"width":0,"height":0,"properties":[{"name":"axis","type":"string","value":"v"},{"name":"kind","type":"string","value":"signal"}]},{"id":322,"name":"","type":"","rotation":0,"point":true,"visible":true,"x":760.0,"y":344.0,"width":0,"height":0,"properties":[{"name":"axis","type":"string","value":"h"},{"name":"kind","type":"string","value":"signal"}]},{"id":323,"name":"","type":"","rotation":0,"point":true,"visible":true,"x":696.0,"y":424.0,"width":0,"height":0,"properties":[{"name":"axis","type":"string","value":"h"},{"name":"kind","type":"string","value":"signal"}]},{"id":324,"name":"","type":"","rotation":0,"point":true,"visible":true,"x":760.0,"y":424.0,"width":0,"height":0,"properties":[{"name":"axis","type":"string","value":"v"},{"name":"kind","type":"string","value":"signal"}]},{"id":325,"name":"","type":"","rotation":0,"point":true,"visible":true,"x":24.0,"y":32.0,"width":0,"height":0,"properties":[{"name":"kind","type":"string","value":"tree"},{"name":"stamp","type":"string","value":"tree_round_small"}]},{"id":326,"name":"","type":"","rotation":0,"point":true,"visible":true,"x":56.0,"y":32.0,"width":0,"height":0,"properties":[{"name":"kind","type":"string","value":"tree"},{"name":"stamp","type":"string","value":"tree_round_small"}]},{"id":327,"name":"","type":"","rotation":0,"point":true,"visible":true,"x":88.0,"y":32.0,"width":0,"height":0,"properties":[{"name":"kind","type":"string","value":"tree"},{"name":"stamp","type":"string","value":"tree_round_small"}]},{"id":328,"name":"","type":"","rotation":0,"point":true,"visible":true,"x":120.0,"y":32.0,"width":0,"height":0,"properties":[{"name":"kind","type":"string","value":"tree"},{"name":"stamp","type":"string","value":"tree_round_small"}]},{"id":329,"name":"","type":"","rotation":0,"point":true,"visible":true,"x":152.0,"y":32.0,"width":0,"height":0,"properties":[{"name":"kind","type":"string","value":"tree"},{"name":"stamp","type":"string","value":"tree_round_small"}]},{"id":330,"name":"","type":"","rotation":0,"point":true,"visible":true,"x":184.0,"y":32.0,"width":0,"height":0,"properties":[{"name":"kind","type":"string","value":"tree"},{"name":"stamp","type":"string","value":"tree_round_small"}]},{"id":331,"name":"","type":"","rotation":0,"point":true,"visible":true,"x":216.0,"y":32.0,"width":0,"height":0,"properties":[{"name":"kind","type":"string","value":"tree"},{"name":"stamp","type":"string","value":"tree_round_small"}]},{"id":332,"name":"","type":"","rotation":0,"point":true,"visible":true,"x":248.0,"y":32.0,"width":0,"height":0,"properties":[{"name":"kind","type":"string","value":"tree"},{"name":"stamp","type":"string","value":"tree_round_small"}]},{"id":333,"name":"","type":"","rotation":0,"point":true,"visible":true,"x":280.0,"y":32.0,"width":0,"height":0,"properties":[{"name":"kind","type":"string","value":"tree"},{"name":"stamp","type":"string","value":"tree_round_small"}]},{"id":334,"name":"","type":"","rotation":0,"point":true,"visible":true,"x":312.0,"y":32.0,"width":0,"height":0,"properties":[{"name":"kind","type":"string","value":"tree"},{"name":"stamp","type":"string","value":"tree_round_small"}]},{"id":335,"name":"","type":"","rotation":0,"point":true,"visible":true,"x":344.0,"y":32.0,"width":0,"height":0,"properties":[{"name":"kind","type":"string","value":"tree"},{"name":"stamp","type":"string","value":"tree_round_small"}]},{"id":336,"name":"","type":"","rotation":0,"point":true,"visible":true,"x":376.0,"y":32.0,"width":0,"height":0,"properties":[{"name":"kind","type":"string","value":"tree"},{"name":"stamp","type":"string","value":"tree_round_small"}]},{"id":337,"name":"","type":"","rotation":0,"point":true,"visible":true,"x":408.0,"y":32.0,"width":0,"height":0,"properties":[{"name":"kind","type":"string","value":"tree"},{"name":"stamp","type":"string","value":"tree_round_small"}]},{"id":338,"name":"","type":"","rotation":0,"point":true,"visible":true,"x":440.0,"y":32.0,"width":0,"height":0,"properties":[{"name":"kind","type":"string","value":"tree"},{"name":"stamp","type":"string","value":"tree_round_small"}]},{"id":339,"name":"","type":"","rotation":0,"point":true,"visible":true,"x":472.0,"y":32.0,"width":0,"height":0,"properties":[{"name":"kind","type":"string","value":"tree"},{"name":"stamp","type":"string","value":"tree_round_small"}]},{"id":340,"name":"","type":"","rotation":0,"point":true,"visible":true,"x":504.0,"y":32.0,"width":0,"height":0,"properties":[{"name":"kind","type":"string","value":"tree"},{"name":"stamp","type":"string","value":"tree_round_small"}]},{"id":341,"name":"","type":"","rotation":0,"point":true,"visible":true,"x":536.0,"y":32.0,"width":0,"height":0,"properties":[{"name":"kind","type":"string","value":"tree"},{"name":"stamp","type":"string","value":"tree_round_small"}]},{"id":342,"name":"","type":"","rotation":0,"point":true,"visible":true,"x":568.0,"y":32.0,"width":0,"height":0,"properties":[{"name":"kind","type":"string","value":"tree"},{"name":"stamp","type":"string","value":"tree_round_small"}]},{"id":343,"name":"","type":"","rotation":0,"point":true,"visible":true,"x":600.0,"y":32.0,"width":0,"height":0,"properties":[{"name":"kind","type":"string","value":"tree"},{"name":"stamp","type":"string","value":"tree_round_small"}]},{"id":344,"name":"","type":"","rotation":0,"point":true,"visible":true,"x":632.0,"y":32.0,"width":0,"height":0,"properties":[{"name":"kind","type":"string","value":"tree"},{"name":"stamp","type":"string","value":"tree_round_small"}]},{"id":345,"name":"","type":"","rotation":0,"point":true,"visible":true,"x":664.0,"y":32.0,"width":0,"height":0,"properties":[{"name":"kind","type":"string","value":"tree"},{"name":"stamp","type":"string","value":"tree_round_small"}]},{"id":346,"name":"","type":"","rotation":0,"point":true,"visible":true,"x":792.0,"y":32.0,"width":0,"height":0,"properties":[{"name":"kind","type":"string","value":"tree"},{"name":"stamp","type":"string","value":"tree_round_small"}]},{"id":347,"name":"","type":"","rotation":0,"point":true,"visible":true,"x":824.0,"y":32.0,"width":0,"height":0,"properties":[{"name":"kind","type":"string","value":"tree"},{"name":"stamp","type":"string","value":"tree_round_small"}]},{"id":348,"name":"","type":"","rotation":0,"point":true,"visible":true,"x":856.0,"y":32.0,"width":0,"height":0,"properties":[{"name":"kind","type":"string","value":"tree"},{"name":"stamp","type":"string","value":"tree_round_small"}]},{"id":349,"name":"","type":"","rotation":0,"point":true,"visible":true,"x":888.0,"y":32.0,"width":0,"height":0,"properties":[{"name":"kind","type":"string","value":"tree"},{"name":"stamp","type":"string","value":"tree_round_small"}]},{"id":350,"name":"","type":"","rotation":0,"point":true,"visible":true,"x":920.0,"y":32.0,"width":0,"height":0,"properties":[{"name":"kind","type":"string","value":"tree"},{"name":"stamp","type":"string","value":"tree_round_small"}]},{"id":351,"name":"","type":"","rotation":0,"point":true,"visible":true,"x":952.0,"y":32.0,"width":0,"height":0,"properties":[{"name":"kind","type":"string","value":"tree"},{"name":"stamp","type":"string","value":"tree_round_small"}]},{"id":352,"name":"","type":"","rotation":0,"point":true,"visible":true,"x":984.0,"y":32.0,"width":0,"height":0,"properties":[{"name":"kind","type":"string","value":"tree"},{"name":"stamp","type":"string","value":"tree_round_small"}]},{"id":353,"name":"","type":"","rotation":0,"point":true,"visible":true,"x":1016.0,"y":32.0,"width":0,"height":0,"properties":[{"name":"kind","type":"string","value":"tree"},{"name":"stamp","type":"string","value":"tree_round_small"}]},{"id":354,"name":"","type":"","rotation":0,"point":true,"visible":true,"x":1048.0,"y":32.0,"width":0,"height":0,"properties":[{"name":"kind","type":"string","value":"tree"},{"name":"stamp","type":"string","value":"tree_round_small"}]},{"id":355,"name":"","type":"","rotation":0,"point":true,"visible":true,"x":1080.0,"y":32.0,"width":0,"height":0,"properties":[{"name":"kind","type":"string","value":"tree"},{"name":"stamp","type":"string","value":"tree_round_small"}]},{"id":356,"name":"","type":"","rotation":0,"point":true,"visible":true,"x":1112.0,"y":32.0,"width":0,"height":0,"properties":[{"name":"kind","type":"string","value":"tree"},{"name":"stamp","type":"string","value":"tree_round_small"}]},{"id":357,"name":"","type":"","rotation":0,"point":true,"visible":true,"x":1144.0,"y":32.0,"width":0,"height":0,"properties":[{"name":"kind","type":"string","value":"tree"},{"name":"stamp","type":"string","value":"tree_round_small"}]},{"id":358,"name":"","type":"","rotation":0,"point":true,"visible":true,"x":1176.0,"y":32.0,"width":0,"height":0,"properties":[{"name":"kind","type":"string","value":"tree"},{"name":"stamp","type":"string","value":"tree_round_small"}]},{"id":359,"name":"","type":"","rotation":0,"point":true,"visible":true,"x":840.0,"y":96.0,"width":0,"height":0,"properties":[{"name":"kind","type":"string","value":"tree"},{"name":"stamp","type":"string","value":"tree_light"}]},{"id":360,"name":"","type":"","rotation":0,"point":true,"visible":true,"x":1096.0,"y":96.0,"width":0,"height":0,"properties":[{"name":"kind","type":"string","value":"tree"},{"name":"stamp","type":"string","value":"tree_light"}]},{"id":361,"name":"","type":"","rotation":0,"point":true,"visible":true,"x":24.0,"y":800.0,"width":0,"height":0,"properties":[{"name":"kind","type":"string","value":"tree"},{"name":"stamp","type":"string","value":"tree_round_small"}]},{"id":362,"name":"","type":"","rotation":0,"point":true,"visible":true,"x":56.0,"y":800.0,"width":0,"height":0,"properties":[{"name":"kind","type":"string","value":"tree"},{"name":"stamp","type":"string","value":"tree_round_small"}]},{"id":363,"name":"","type":"","rotation":0,"point":true,"visible":true,"x":88.0,"y":800.0,"width":0,"height":0,"properties":[{"name":"kind","type":"string","value":"tree"},{"name":"stamp","type":"string","value":"tree_round_small"}]},{"id":364,"name":"","type":"","rotation":0,"point":true,"visible":true,"x":120.0,"y":800.0,"width":0,"height":0,"properties":[{"name":"kind","type":"string","value":"tree"},{"name":"stamp","type":"string","value":"tree_round_small"}]},{"id":365,"name":"","type":"","rotation":0,"point":true,"visible":true,"x":152.0,"y":800.0,"width":0,"height":0,"properties":[{"name":"kind","type":"string","value":"tree"},{"name":"stamp","type":"string","value":"tree_round_small"}]},{"id":366,"name":"","type":"","rotation":0,"point":true,"visible":true,"x":184.0,"y":800.0,"width":0,"height":0,"properties":[{"name":"kind","type":"string","value":"tree"},{"name":"stamp","type":"string","value":"tree_round_small"}]},{"id":367,"name":"","type":"","rotation":0,"point":true,"visible":true,"x":216.0,"y":800.0,"width":0,"height":0,"properties":[{"name":"kind","type":"string","value":"tree"},{"name":"stamp","type":"string","value":"tree_round_small"}]},{"id":368,"name":"","type":"","rotation":0,"point":true,"visible":true,"x":248.0,"y":800.0,"width":0,"height":0,"properties":[{"name":"kind","type":"string","value":"tree"},{"name":"stamp","type":"string","value":"tree_round_small"}]},{"id":369,"name":"","type":"","rotation":0,"point":true,"visible":true,"x":280.0,"y":800.0,"width":0,"height":0,"properties":[{"name":"kind","type":"string","value":"tree"},{"name":"stamp","type":"string","value":"tree_round_small"}]},{"id":370,"name":"","type":"","rotation":0,"point":true,"visible":true,"x":312.0,"y":800.0,"width":0,"height":0,"properties":[{"name":"kind","type":"string","value":"tree"},{"name":"stamp","type":"string","value":"tree_round_small"}]},{"id":371,"name":"","type":"","rotation":0,"point":true,"visible":true,"x":344.0,"y":800.0,"width":0,"height":0,"properties":[{"name":"kind","type":"string","value":"tree"},{"name":"stamp","type":"string","value":"tree_round_small"}]},{"id":372,"name":"","type":"","rotation":0,"point":true,"visible":true,"x":376.0,"y":800.0,"width":0,"height":0,"properties":[{"name":"kind","type":"string","value":"tree"},{"name":"stamp","type":"string","value":"tree_round_small"}]},{"id":373,"name":"","type":"","rotation":0,"point":true,"visible":true,"x":408.0,"y":800.0,"width":0,"height":0,"properties":[{"name":"kind","type":"string","value":"tree"},{"name":"stamp","type":"string","value":"tree_round_small"}]},{"id":374,"name":"","type":"","rotation":0,"point":true,"visible":true,"x":504.0,"y":800.0,"width":0,"height":0,"properties":[{"name":"kind","type":"string","value":"tree"},{"name":"stamp","type":"string","value":"tree_round_small"}]},{"id":375,"name":"","type":"","rotation":0,"point":true,"visible":true,"x":536.0,"y":800.0,"width":0,"height":0,"properties":[{"name":"kind","type":"string","value":"tree"},{"name":"stamp","type":"string","value":"tree_round_small"}]},{"id":376,"name":"","type":"","rotation":0,"point":true,"visible":true,"x":632.0,"y":800.0,"width":0,"height":0,"properties":[{"name":"kind","type":"string","value":"tree"},{"name":"stamp","type":"string","value":"tree_round_small"}]},{"id":377,"name":"","type":"","rotation":0,"point":true,"visible":true,"x":664.0,"y":800.0,"width":0,"height":0,"properties":[{"name":"kind","type":"string","value":"tree"},{"name":"stamp","type":"string","value":"tree_round_small"}]},{"id":378,"name":"","type":"","rotation":0,"point":true,"visible":true,"x":696.0,"y":800.0,"width":0,"height":0,"properties":[{"name":"kind","type":"string","value":"tree"},{"name":"stamp","type":"string","value":"tree_round_small"}]},{"id":379,"name":"","type":"","rotation":0,"point":true,"visible":true,"x":728.0,"y":800.0,"width":0,"height":0,"properties":[{"name":"kind","type":"string","value":"tree"},{"name":"stamp","type":"string","value":"tree_round_small"}]},{"id":380,"name":"","type":"","rotation":0,"point":true,"visible":true,"x":760.0,"y":800.0,"width":0,"height":0,"properties":[{"name":"kind","type":"string","value":"tree"},{"name":"stamp","type":"string","value":"tree_round_small"}]},{"id":381,"name":"","type":"","rotation":0,"point":true,"visible":true,"x":792.0,"y":800.0,"width":0,"height":0,"properties":[{"name":"kind","type":"string","value":"tree"},{"name":"stamp","type":"string","value":"tree_round_small"}]},{"id":382,"name":"","type":"","rotation":0,"point":true,"visible":true,"x":824.0,"y":800.0,"width":0,"height":0,"properties":[{"name":"kind","type":"string","value":"tree"},{"name":"stamp","type":"string","value":"tree_round_small"}]},{"id":383,"name":"","type":"","rotation":0,"point":true,"visible":true,"x":856.0,"y":800.0,"width":0,"height":0,"properties":[{"name":"kind","type":"string","value":"tree"},{"name":"stamp","type":"string","value":"tree_round_small"}]},{"id":384,"name":"","type":"","rotation":0,"point":true,"visible":true,"x":888.0,"y":800.0,"width":0,"height":0,"properties":[{"name":"kind","type":"string","value":"tree"},{"name":"stamp","type":"string","value":"tree_round_small"}]},{"id":385,"name":"","type":"","rotation":0,"point":true,"visible":true,"x":920.0,"y":800.0,"width":0,"height":0,"properties":[{"name":"kind","type":"string","value":"tree"},{"name":"stamp","type":"string","value":"tree_round_small"}]},{"id":386,"name":"","type":"","rotation":0,"point":true,"visible":true,"x":952.0,"y":800.0,"width":0,"height":0,"properties":[{"name":"kind","type":"string","value":"tree"},{"name":"stamp","type":"string","value":"tree_round_small"}]},{"id":387,"name":"","type":"","rotation":0,"point":true,"visible":true,"x":984.0,"y":800.0,"width":0,"height":0,"properties":[{"name":"kind","type":"string","value":"tree"},{"name":"stamp","type":"string","value":"tree_round_small"}]},{"id":388,"name":"","type":"","rotation":0,"point":true,"visible":true,"x":1016.0,"y":800.0,"width":0,"height":0,"properties":[{"name":"kind","type":"string","value":"tree"},{"name":"stamp","type":"string","value":"tree_round_small"}]},{"id":389,"name":"","type":"","rotation":0,"point":true,"visible":true,"x":1048.0,"y":800.0,"width":0,"height":0,"properties":[{"name":"kind","type":"string","value":"tree"},{"name":"stamp","type":"string","value":"tree_round_small"}]},{"id":390,"name":"","type":"","rotation":0,"point":true,"visible":true,"x":1080.0,"y":800.0,"width":0,"height":0,"properties":[{"name":"kind","type":"string","value":"tree"},{"name":"stamp","type":"string","value":"tree_round_small"}]},{"id":391,"name":"","type":"","rotation":0,"point":true,"visible":true,"x":1112.0,"y":800.0,"width":0,"height":0,"properties":[{"name":"kind","type":"string","value":"tree"},{"name":"stamp","type":"string","value":"tree_round_small"}]},{"id":392,"name":"","type":"","rotation":0,"point":true,"visible":true,"x":1144.0,"y":800.0,"width":0,"height":0,"properties":[{"name":"kind","type":"string","value":"tree"},{"name":"stamp","type":"string","value":"tree_round_small"}]},{"id":393,"name":"","type":"","rotation":0,"point":true,"visible":true,"x":1176.0,"y":800.0,"width":0,"height":0,"properties":[{"name":"kind","type":"string","value":"tree"},{"name":"stamp","type":"string","value":"tree_round_small"}]},{"id":394,"name":"","type":"","rotation":0,"point":true,"visible":true,"x":24.0,"y":64.0,"width":0,"height":0,"properties":[{"name":"kind","type":"string","value":"tree"},{"name":"stamp","type":"string","value":"tree_dark"}]},{"id":395,"name":"","type":"","rotation":0,"point":true,"visible":true,"x":1176.0,"y":64.0,"width":0,"height":0,"properties":[{"name":"kind","type":"string","value":"tree"},{"name":"stamp","type":"string","value":"tree_round_small"}]},{"id":396,"name":"","type":"","rotation":0,"point":true,"visible":true,"x":24.0,"y":96.0,"width":0,"height":0,"properties":[{"name":"kind","type":"string","value":"tree"},{"name":"stamp","type":"string","value":"tree_round_small"}]},{"id":397,"name":"","type":"","rotation":0,"point":true,"visible":true,"x":24.0,"y":128.0,"width":0,"height":0,"properties":[{"name":"kind","type":"string","value":"tree"},{"name":"stamp","type":"string","value":"tree_dark"}]},{"id":398,"name":"","type":"","rotation":0,"point":true,"visible":true,"x":24.0,"y":160.0,"width":0,"height":0,"properties":[{"name":"kind","type":"string","value":"tree"},{"name":"stamp","type":"string","value":"tree_round_small"}]},{"id":399,"name":"","type":"","rotation":0,"point":true,"visible":true,"x":1176.0,"y":160.0,"width":0,"height":0,"properties":[{"name":"kind","type":"string","value":"tree"},{"name":"stamp","type":"string","value":"tree_round_small"}]},{"id":400,"name":"","type":"","rotation":0,"point":true,"visible":true,"x":24.0,"y":192.0,"width":0,"height":0,"properties":[{"name":"kind","type":"string","value":"tree"},{"name":"stamp","type":"string","value":"tree_round_small"}]},{"id":401,"name":"","type":"","rotation":0,"point":true,"visible":true,"x":1176.0,"y":192.0,"width":0,"height":0,"properties":[{"name":"kind","type":"string","value":"tree"},{"name":"stamp","type":"string","value":"tree_round_small"}]},{"id":402,"name":"","type":"","rotation":0,"point":true,"visible":true,"x":24.0,"y":224.0,"width":0,"height":0,"properties":[{"name":"kind","type":"string","value":"tree"},{"name":"stamp","type":"string","value":"tree_round_small"}]},{"id":403,"name":"","type":"","rotation":0,"point":true,"visible":true,"x":1176.0,"y":224.0,"width":0,"height":0,"properties":[{"name":"kind","type":"string","value":"tree"},{"name":"stamp","type":"string","value":"tree_round_small"}]},{"id":404,"name":"","type":"","rotation":0,"point":true,"visible":true,"x":24.0,"y":256.0,"width":0,"height":0,"properties":[{"name":"kind","type":"string","value":"tree"},{"name":"stamp","type":"string","value":"tree_round_small"}]},{"id":405,"name":"","type":"","rotation":0,"point":true,"visible":true,"x":1176.0,"y":256.0,"width":0,"height":0,"properties":[{"name":"kind","type":"string","value":"tree"},{"name":"stamp","type":"string","value":"tree_round_small"}]},{"id":406,"name":"","type":"","rotation":0,"point":true,"visible":true,"x":24.0,"y":288.0,"width":0,"height":0,"properties":[{"name":"kind","type":"string","value":"tree"},{"name":"stamp","type":"string","value":"tree_round_small"}]},{"id":407,"name":"","type":"","rotation":0,"point":true,"visible":true,"x":1176.0,"y":288.0,"width":0,"height":0,"properties":[{"name":"kind","type":"string","value":"tree"},{"name":"stamp","type":"string","value":"tree_round_small"}]},{"id":408,"name":"","type":"","rotation":0,"point":true,"visible":true,"x":24.0,"y":320.0,"width":0,"height":0,"properties":[{"name":"kind","type":"string","value":"tree"},{"name":"stamp","type":"string","value":"tree_round_small"}]},{"id":409,"name":"","type":"","rotation":0,"point":true,"visible":true,"x":1176.0,"y":320.0,"width":0,"height":0,"properties":[{"name":"kind","type":"string","value":"tree"},{"name":"stamp","type":"string","value":"tree_round_small"}]},{"id":410,"name":"","type":"","rotation":0,"point":true,"visible":true,"x":24.0,"y":352.0,"width":0,"height":0,"properties":[{"name":"kind","type":"string","value":"tree"},{"name":"stamp","type":"string","value":"tree_round_small"}]},{"id":411,"name":"","type":"","rotation":0,"point":true,"visible":true,"x":24.0,"y":448.0,"width":0,"height":0,"properties":[{"name":"kind","type":"string","value":"tree"},{"name":"stamp","type":"string","value":"tree_round_small"}]},{"id":412,"name":"","type":"","rotation":0,"point":true,"visible":true,"x":1176.0,"y":448.0,"width":0,"height":0,"properties":[{"name":"kind","type":"string","value":"tree"},{"name":"stamp","type":"string","value":"tree_round_small"}]},{"id":413,"name":"","type":"","rotation":0,"point":true,"visible":true,"x":24.0,"y":480.0,"width":0,"height":0,"properties":[{"name":"kind","type":"string","value":"tree"},{"name":"stamp","type":"string","value":"tree_round_small"}]},{"id":414,"name":"","type":"","rotation":0,"point":true,"visible":true,"x":1176.0,"y":480.0,"width":0,"height":0,"properties":[{"name":"kind","type":"string","value":"tree"},{"name":"stamp","type":"string","value":"tree_round_small"}]},{"id":415,"name":"","type":"","rotation":0,"point":true,"visible":true,"x":24.0,"y":512.0,"width":0,"height":0,"properties":[{"name":"kind","type":"string","value":"tree"},{"name":"stamp","type":"string","value":"tree_round_small"}]},{"id":416,"name":"","type":"","rotation":0,"point":true,"visible":true,"x":1176.0,"y":512.0,"width":0,"height":0,"properties":[{"name":"kind","type":"string","value":"tree"},{"name":"stamp","type":"string","value":"tree_round_small"}]},{"id":417,"name":"","type":"","rotation":0,"point":true,"visible":true,"x":24.0,"y":544.0,"width":0,"height":0,"properties":[{"name":"kind","type":"string","value":"tree"},{"name":"stamp","type":"string","value":"tree_round_small"}]},{"id":418,"name":"","type":"","rotation":0,"point":true,"visible":true,"x":24.0,"y":576.0,"width":0,"height":0,"properties":[{"name":"kind","type":"string","value":"tree"},{"name":"stamp","type":"string","value":"tree_round_small"}]},{"id":419,"name":"","type":"","rotation":0,"point":true,"visible":true,"x":1176.0,"y":576.0,"width":0,"height":0,"properties":[{"name":"kind","type":"string","value":"tree"},{"name":"stamp","type":"string","value":"tree_round_small"}]},{"id":420,"name":"","type":"","rotation":0,"point":true,"visible":true,"x":24.0,"y":608.0,"width":0,"height":0,"properties":[{"name":"kind","type":"string","value":"tree"},{"name":"stamp","type":"string","value":"tree_round_small"}]},{"id":421,"name":"","type":"","rotation":0,"point":true,"visible":true,"x":1176.0,"y":608.0,"width":0,"height":0,"properties":[{"name":"kind","type":"string","value":"tree"},{"name":"stamp","type":"string","value":"tree_round_small"}]},{"id":422,"name":"","type":"","rotation":0,"point":true,"visible":true,"x":24.0,"y":640.0,"width":0,"height":0,"properties":[{"name":"kind","type":"string","value":"tree"},{"name":"stamp","type":"string","value":"tree_round_small"}]},{"id":423,"name":"","type":"","rotation":0,"point":true,"visible":true,"x":1176.0,"y":640.0,"width":0,"height":0,"properties":[{"name":"kind","type":"string","value":"tree"},{"name":"stamp","type":"string","value":"tree_round_small"}]},{"id":424,"name":"","type":"","rotation":0,"point":true,"visible":true,"x":24.0,"y":672.0,"width":0,"height":0,"properties":[{"name":"kind","type":"string","value":"tree"},{"name":"stamp","type":"string","value":"tree_round_small"}]},{"id":425,"name":"","type":"","rotation":0,"point":true,"visible":true,"x":1176.0,"y":672.0,"width":0,"height":0,"properties":[{"name":"kind","type":"string","value":"tree"},{"name":"stamp","type":"string","value":"tree_round_small"}]},{"id":426,"name":"","type":"","rotation":0,"point":true,"visible":true,"x":24.0,"y":704.0,"width":0,"height":0,"properties":[{"name":"kind","type":"string","value":"tree"},{"name":"stamp","type":"string","value":"tree_round_small"}]},{"id":427,"name":"","type":"","rotation":0,"point":true,"visible":true,"x":24.0,"y":736.0,"width":0,"height":0,"properties":[{"name":"kind","type":"string","value":"tree"},{"name":"stamp","type":"string","value":"tree_round_small"}]},{"id":428,"name":"","type":"","rotation":0,"point":true,"visible":true,"x":24.0,"y":768.0,"width":0,"height":0,"properties":[{"name":"kind","type":"string","value":"tree"},{"name":"stamp","type":"string","value":"tree_round_small"}]},{"id":429,"name":"","type":"","rotation":0,"point":true,"visible":true,"x":1176.0,"y":768.0,"width":0,"height":0,"properties":[{"name":"kind","type":"string","value":"tree"},{"name":"stamp","type":"string","value":"tree_round_small"}]},{"id":430,"name":"TO VERONA","type":"","rotation":0,"point":true,"visible":true,"x":40.0,"y":368.0,"width":0,"height":0,"properties":[{"name":"kind","type":"string","value":"roadsign"},{"name":"text","type":"string","value":"TO VERONA"}]},{"id":431,"name":"TO BLOOMFIELD","type":"","rotation":0,"point":true,"visible":true,"x":1160.0,"y":448.0,"width":0,"height":0,"properties":[{"name":"kind","type":"string","value":"roadsign"},{"name":"text","type":"string","value":"TO BLOOMFIELD"}]},{"id":432,"name":"TO UPPER MONTCLAIR","type":"","rotation":0,"point":true,"visible":true,"x":760.0,"y":48.0,"width":0,"height":0,"properties":[{"name":"kind","type":"string","value":"roadsign"},{"name":"text","type":"string","value":"TO UPPER MONTCLAIR"}]},{"id":433,"name":"TO WEST ORANGE","type":"","rotation":0,"point":true,"visible":true,"x":424.0,"y":768.0,"width":0,"height":0,"properties":[{"name":"kind","type":"string","value":"roadsign"},{"name":"text","type":"string","value":"TO WEST ORANGE"}]},{"id":434,"name":"Bloomfield Ave","type":"","rotation":0,"point":true,"visible":true,"x":592.0,"y":400.0,"width":0,"height":0,"properties":[{"name":"kind","type":"string","value":"label"},{"name":"text","type":"string","value":"Bloomfield Ave"}]},{"id":435,"name":"Bay Street Station","type":"","rotation":0,"point":true,"visible":true,"x":968.0,"y":592.0,"width":0,"height":0,"properties":[{"name":"kind","type":"string","value":"label"},{"name":"text","type":"string","value":"Bay Street Station"}]},{"id":436,"name":"Art Museum","type":"","rotation":0,"point":true,"visible":true,"x":264.0,"y":240.0,"width":0,"height":0,"properties":[{"name":"kind","type":"string","value":"label"},{"name":"text","type":"string","value":"Art Museum"}]},{"id":437,"name":"Town Hall","type":"","rotation":0,"point":true,"visible":true,"x":608.0,"y":240.0,"width":0,"height":0,"properties":[{"name":"kind","type":"string","value":"label"},{"name":"text","type":"string","value":"Town Hall"}]},{"id":438,"name":"Public Library","type":"","rotation":0,"point":true,"visible":true,"x":416.0,"y":536.0,"width":0,"height":0,"properties":[{"name":"kind","type":"string","value":"label"},{"name":"text","type":"string","value":"Public Library"}]},{"id":439,"name":"Anderson Park","type":"","rotation":0,"point":true,"visible":true,"x":848.0,"y":224.0,"width":0,"height":0,"properties":[{"name":"kind","type":"string","value":"label"},{"name":"text","type":"string","value":"Anderson Park"}]},{"id":440,"name":"St. Paul Baptist","type":"","rotation":0,"point":true,"visible":true,"x":200.0,"y":592.0,"width":0,"height":0,"properties":[{"name":"kind","type":"string","value":"label"},{"name":"text","type":"string","value":"St. Paul Baptist"}]},{"id":441,"name":"Watchung Plaza","type":"","rotation":0,"point":true,"visible":true,"x":568.0,"y":528.0,"width":0,"height":0,"properties":[{"name":"kind","type":"string","value":"label"},{"name":"text","type":"string","value":"Watchung Plaza"}]},{"id":442,"name":"Boutique Row","type":"","rotation":0,"point":true,"visible":true,"x":384.0,"y":320.0,"width":0,"height":0,"properties":[{"name":"kind","type":"string","value":"label"},{"name":"text","type":"string","value":"Boutique Row"}]},{"id":443,"name":"","type":"","rotation":0,"point":true,"visible":true,"x":344.0,"y":160.0,"width":0,"height":0,"properties":[{"name":"home","type":"string","value":""},{"name":"kind","type":"string","value":"yardsign"},{"name":"seat","type":"string","value":"0"}]},{"id":444,"name":"","type":"","rotation":0,"point":true,"visible":true,"x":344.0,"y":144.0,"width":0,"height":0,"properties":[{"name":"home","type":"string","value":""},{"name":"kind","type":"string","value":"yardsign"},{"name":"seat","type":"string","value":"1"}]},{"id":445,"name":"","type":"","rotation":0,"point":true,"visible":true,"x":952.0,"y":336.0,"width":0,"height":0,"properties":[{"name":"home","type":"string","value":"Anderson Park"},{"name":"kind","type":"string","value":"yardsign"},{"name":"seat","type":"string","value":"2"}]},{"id":446,"name":"","type":"","rotation":0,"point":true,"visible":true,"x":952.0,"y":320.0,"width":0,"height":0,"properties":[{"name":"home","type":"string","value":"Anderson Park"},{"name":"kind","type":"string","value":"yardsign"},{"name":"seat","type":"string","value":"3"}]},{"id":447,"name":"","type":"","rotation":0,"point":true,"visible":true,"x":1048.0,"y":576.0,"width":0,"height":0,"properties":[{"name":"home","type":"string","value":""},{"name":"kind","type":"string","value":"yardsign"},{"name":"seat","type":"string","value":"4"}]},{"id":448,"name":"","type":"","rotation":0,"point":true,"visible":true,"x":1160.0,"y":560.0,"width":0,"height":0,"properties":[{"name":"home","type":"string","value":""},{"name":"kind","type":"string","value":"yardsign"},{"name":"seat","type":"string","value":"5"}]},{"id":449,"name":"","type":"","rotation":0,"point":true,"visible":true,"x":504.0,"y":752.0,"width":0,"height":0,"properties":[{"name":"home","type":"string","value":"Watchung Plaza"},{"name":"kind","type":"string","value":"yardsign"},{"name":"seat","type":"string","value":"6"}]},{"id":450,"name":"","type":"","rotation":0,"point":true,"visible":true,"x":568.0,"y":752.0,"width":0,"height":0,"properties":[{"name":"home","type":"string","value":"Watchung Plaza"},{"name":"kind","type":"string","value":"yardsign"},{"name":"seat","type":"string","value":"7"}]},{"id":451,"name":"","type":"","rotation":0,"point":true,"visible":true,"x":632.0,"y":752.0,"width":0,"height":0,"properties":[{"name":"home","type":"string","value":"Watchung Plaza"},{"name":"kind","type":"string","value":"yardsign"},{"name":"seat","type":"string","value":"8"}]},{"id":452,"name":"Town Hall","type":"","rotation":0,"point":true,"visible":true,"x":608.0,"y":320.0,"width":0,"height":0,"properties":[{"name":"kind","type":"string","value":"pollplace"}]},{"id":453,"name":"Town Hall","type":"","rotation":0,"point":true,"visible":true,"x":584.0,"y":256.0,"width":0,"height":0,"properties":[{"name":"kind","type":"string","value":"banner"},{"name":"mount","type":"string","value":"facade"}]},{"id":454,"name":"Town Hall","type":"","rotation":0,"point":true,"visible":true,"x":632.0,"y":256.0,"width":0,"height":0,"properties":[{"name":"kind","type":"string","value":"banner"},{"name":"mount","type":"string","value":"facade"}]},{"id":455,"name":"Town Hall","type":"","rotation":0,"point":true,"visible":true,"x":624.0,"y":240.0,"width":0,"height":0,"properties":[{"name":"kind","type":"string","value":"bunting"},{"name":"span","type":"string","value":"8"}]},{"id":456,"name":"Anderson Park","type":"","rotation":0,"point":true,"visible":true,"x":808.0,"y":240.0,"width":0,"height":0,"properties":[{"name":"kind","type":"string","value":"brazier"}]},{"id":457,"name":"Art Museum","type":"","rotation":0,"point":true,"visible":true,"x":296.0,"y":109.6,"width":0,"height":0,"properties":[{"name":"cap","type":"string","value":"1"},{"name":"facing","type":"string","value":"up"},{"name":"kind","type":"string","value":"spot"},{"name":"order","type":"string","value":"0"},{"name":"role","type":"string","value":"bench"}]},{"id":458,"name":"Art Museum","type":"","rotation":0,"point":true,"visible":true,"x":184.0,"y":333.6,"width":0,"height":0,"properties":[{"name":"cap","type":"string","value":"1"},{"name":"facing","type":"string","value":"down"},{"name":"kind","type":"string","value":"spot"},{"name":"order","type":"string","value":"1"},{"name":"role","type":"string","value":"bench"}]},{"id":459,"name":"Art Museum","type":"","rotation":0,"point":true,"visible":true,"x":216.0,"y":333.6,"width":0,"height":0,"properties":[{"name":"cap","type":"string","value":"1"},{"name":"facing","type":"string","value":"down"},{"name":"kind","type":"string","value":"spot"},{"name":"order","type":"string","value":"2"},{"name":"role","type":"string","value":"bench"}]},{"id":460,"name":"Art Museum","type":"","rotation":0,"point":true,"visible":true,"x":264.0,"y":333.6,"width":0,"height":0,"properties":[{"name":"cap","type":"string","value":"1"},{"name":"facing","type":"string","value":"down"},{"name":"kind","type":"string","value":"spot"},{"name":"order","type":"string","value":"3"},{"name":"role","type":"string","value":"bench"}]},{"id":461,"name":"Art Museum","type":"","rotation":0,"point":true,"visible":true,"x":296.0,"y":333.6,"width":0,"height":0,"properties":[{"name":"cap","type":"string","value":"1"},{"name":"facing","type":"string","value":"down"},{"name":"kind","type":"string","value":"spot"},{"name":"order","type":"string","value":"4"},{"name":"role","type":"string","value":"bench"}]},{"id":462,"name":"Anderson Park","type":"","rotation":0,"point":true,"visible":true,"x":760.0,"y":253.6,"width":0,"height":0,"properties":[{"name":"cap","type":"string","value":"1"},{"name":"facing","type":"string","value":"down"},{"name":"kind","type":"string","value":"spot"},{"name":"order","type":"string","value":"0"},{"name":"role","type":"string","value":"bench"}]},{"id":463,"name":"Anderson Park","type":"","rotation":0,"point":true,"visible":true,"x":792.0,"y":253.6,"width":0,"height":0,"properties":[{"name":"cap","type":"string","value":"1"},{"name":"facing","type":"string","value":"down"},{"name":"kind","type":"string","value":"spot"},{"name":"order","type":"string","value":"1"},{"name":"role","type":"string","value":"bench"}]},{"id":464,"name":"Anderson Park","type":"","rotation":0,"point":true,"visible":true,"x":824.0,"y":253.6,"width":0,"height":0,"properties":[{"name":"cap","type":"string","value":"1"},{"name":"facing","type":"string","value":"down"},{"name":"kind","type":"string","value":"spot"},{"name":"order","type":"string","value":"2"},{"name":"role","type":"string","value":"bench"}]},{"id":465,"name":"Watchung Plaza","type":"","rotation":0,"point":true,"visible":true,"x":568.0,"y":621.6,"width":0,"height":0,"properties":[{"name":"cap","type":"string","value":"1"},{"name":"facing","type":"string","value":"left"},{"name":"kind","type":"string","value":"spot"},{"name":"order","type":"string","value":"0"},{"name":"role","type":"string","value":"table"}]},{"id":466,"name":"Watchung Plaza","type":"","rotation":0,"point":true,"visible":true,"x":616.0,"y":605.6,"width":0,"height":0,"properties":[{"name":"cap","type":"string","value":"1"},{"name":"facing","type":"string","value":"down"},{"name":"kind","type":"string","value":"spot"},{"name":"order","type":"string","value":"1"},{"name":"role","type":"string","value":"bench"}]},{"id":467,"name":"Public Library","type":"","rotation":0,"point":true,"visible":true,"x":376.0,"y":589.6,"width":0,"height":0,"properties":[{"name":"cap","type":"string","value":"1"},{"name":"facing","type":"string","value":"down"},{"name":"kind","type":"string","value":"spot"},{"name":"order","type":"string","value":"0"},{"name":"role","type":"string","value":"bench"}]},{"id":468,"name":"Public Library","type":"","rotation":0,"point":true,"visible":true,"x":408.0,"y":589.6,"width":0,"height":0,"properties":[{"name":"cap","type":"string","value":"1"},{"name":"facing","type":"string","value":"down"},{"name":"kind","type":"string","value":"spot"},{"name":"order","type":"string","value":"1"},{"name":"role","type":"string","value":"bench"}]},{"id":469,"name":"Bay Street Station","type":"","rotation":0,"point":true,"visible":true,"x":920.0,"y":653.6,"width":0,"height":0,"properties":[{"name":"cap","type":"string","value":"1"},{"name":"facing","type":"string","value":"down"},{"name":"kind","type":"string","value":"spot"},{"name":"order","type":"string","value":"0"},{"name":"role","type":"string","value":"bench"}]},{"id":470,"name":"Bay Street Station","type":"","rotation":0,"point":true,"visible":true,"x":952.0,"y":653.6,"width":0,"height":0,"properties":[{"name":"cap","type":"string","value":"1"},{"name":"facing","type":"string","value":"down"},{"name":"kind","type":"string","value":"spot"},{"name":"order","type":"string","value":"1"},{"name":"role","type":"string","value":"bench"}]},{"id":471,"name":"Art Museum","type":"","rotation":0,"point":true,"visible":true,"x":240.0,"y":285.6,"width":0,"height":0,"properties":[{"name":"cap","type":"string","value":"1"},{"name":"facing","type":"string","value":"up"},{"name":"kind","type":"string","value":"spot"},{"name":"order","type":"string","value":"5"},{"name":"role","type":"string","value":"door"}]},{"id":472,"name":"Boutique Row","type":"","rotation":0,"point":true,"visible":true,"x":384.0,"y":333.6,"width":0,"height":0,"properties":[{"name":"cap","type":"string","value":"1"},{"name":"facing","type":"string","value":"up"},{"name":"kind","type":"string","value":"spot"},{"name":"order","type":"string","value":"0"},{"name":"role","type":"string","value":"door"}]},{"id":473,"name":"Boutique Row","type":"","rotation":0,"point":true,"visible":true,"x":496.0,"y":333.6,"width":0,"height":0,"properties":[{"name":"cap","type":"string","value":"1"},{"name":"facing","type":"string","value":"up"},{"name":"kind","type":"string","value":"spot"},{"name":"order","type":"string","value":"1"},{"name":"role","type":"string","value":"door"}]},{"id":474,"name":"Town Hall","type":"","rotation":0,"point":true,"visible":true,"x":608.0,"y":317.6,"width":0,"height":0,"properties":[{"name":"cap","type":"string","value":"1"},{"name":"facing","type":"string","value":"up"},{"name":"kind","type":"string","value":"spot"},{"name":"order","type":"string","value":"3"},{"name":"role","type":"string","value":"door"}]},{"id":475,"name":"Anderson Park","type":"","rotation":0,"point":true,"visible":true,"x":1008.0,"y":349.6,"width":0,"height":0,"properties":[{"name":"cap","type":"string","value":"1"},{"name":"facing","type":"string","value":"up"},{"name":"kind","type":"string","value":"spot"},{"name":"order","type":"string","value":"3"},{"name":"role","type":"string","value":"door"}]},{"id":476,"name":"Anderson Park","type":"","rotation":0,"point":true,"visible":true,"x":1120.0,"y":349.6,"width":0,"height":0,"properties":[{"name":"cap","type":"string","value":"1"},{"name":"facing","type":"string","value":"up"},{"name":"kind","type":"string","value":"spot"},{"name":"order","type":"string","value":"4"},{"name":"role","type":"string","value":"door"}]},{"id":477,"name":"Watchung Plaza","type":"","rotation":0,"point":true,"visible":true,"x":544.0,"y":573.6,"width":0,"height":0,"properties":[{"name":"cap","type":"string","value":"1"},{"name":"facing","type":"string","value":"up"},{"name":"kind","type":"string","value":"spot"},{"name":"order","type":"string","value":"2"},{"name":"role","type":"string","value":"door"}]},{"id":478,"name":"Watchung Plaza","type":"","rotation":0,"point":true,"visible":true,"x":672.0,"y":573.6,"width":0,"height":0,"properties":[{"name":"cap","type":"string","value":"1"},{"name":"facing","type":"string","value":"up"},{"name":"kind","type":"string","value":"spot"},{"name":"order","type":"string","value":"3"},{"name":"role","type":"string","value":"door"}]},{"id":479,"name":"Watchung Plaza","type":"","rotation":0,"point":true,"visible":true,"x":528.0,"y":749.6,"width":0,"height":0,"properties":[{"name":"cap","type":"string","value":"1"},{"name":"facing","type":"string","value":"up"},{"name":"kind","type":"string","value":"spot"},{"name":"order","type":"string","value":"4"},{"name":"role","type":"string","value":"door"}]},{"id":480,"name":"Watchung Plaza","type":"","rotation":0,"point":true,"visible":true,"x":592.0,"y":749.6,"width":0,"height":0,"properties":[{"name":"cap","type":"string","value":"1"},{"name":"facing","type":"string","value":"up"},{"name":"kind","type":"string","value":"spot"},{"name":"order","type":"string","value":"5"},{"name":"role","type":"string","value":"door"}]},{"id":481,"name":"Watchung Plaza","type":"","rotation":0,"point":true,"visible":true,"x":656.0,"y":749.6,"width":0,"height":0,"properties":[{"name":"cap","type":"string","value":"1"},{"name":"facing","type":"string","value":"up"},{"name":"kind","type":"string","value":"spot"},{"name":"order","type":"string","value":"6"},{"name":"role","type":"string","value":"door"}]},{"id":482,"name":"Public Library","type":"","rotation":0,"point":true,"visible":true,"x":368.0,"y":573.6,"width":0,"height":0,"properties":[{"name":"cap","type":"string","value":"1"},{"name":"facing","type":"string","value":"up"},{"name":"kind","type":"string","value":"spot"},{"name":"order","type":"string","value":"2"},{"name":"role","type":"string","value":"door"}]},{"id":483,"name":"St. Paul Baptist","type":"","rotation":0,"point":true,"visible":true,"x":192.0,"y":653.6,"width":0,"height":0,"properties":[{"name":"cap","type":"string","value":"1"},{"name":"facing","type":"string","value":"up"},{"name":"kind","type":"string","value":"spot"},{"name":"order","type":"string","value":"0"},{"name":"role","type":"string","value":"door"}]},{"id":484,"name":"Bay Street Station","type":"","rotation":0,"point":true,"visible":true,"x":944.0,"y":605.6,"width":0,"height":0,"properties":[{"name":"cap","type":"string","value":"1"},{"name":"facing","type":"string","value":"up"},{"name":"kind","type":"string","value":"spot"},{"name":"order","type":"string","value":"2"},{"name":"role","type":"string","value":"door"}]},{"id":485,"name":"Boutique Row","type":"","rotation":0,"point":true,"visible":true,"x":352.0,"y":333.6,"width":0,"height":0,"properties":[{"name":"cap","type":"string","value":"1"},{"name":"facing","type":"string","value":"down"},{"name":"kind","type":"string","value":"spot"},{"name":"order","type":"string","value":"2"},{"name":"role","type":"string","value":"porch"}]},{"id":486,"name":"Boutique Row","type":"","rotation":0,"point":true,"visible":true,"x":432.0,"y":333.6,"width":0,"height":0,"properties":[{"name":"cap","type":"string","value":"1"},{"name":"facing","type":"string","value":"down"},{"name":"kind","type":"string","value":"spot"},{"name":"order","type":"string","value":"3"},{"name":"role","type":"string","value":"porch"}]},{"id":487,"name":"Boutique Row","type":"","rotation":0,"point":true,"visible":true,"x":464.0,"y":333.6,"width":0,"height":0,"properties":[{"name":"cap","type":"string","value":"1"},{"name":"facing","type":"string","value":"down"},{"name":"kind","type":"string","value":"spot"},{"name":"order","type":"string","value":"4"},{"name":"role","type":"string","value":"porch"}]},{"id":488,"name":"Boutique Row","type":"","rotation":0,"point":true,"visible":true,"x":528.0,"y":333.6,"width":0,"height":0,"properties":[{"name":"cap","type":"string","value":"1"},{"name":"facing","type":"string","value":"down"},{"name":"kind","type":"string","value":"spot"},{"name":"order","type":"string","value":"5"},{"name":"role","type":"string","value":"porch"}]},{"id":489,"name":"Town Hall","type":"","rotation":0,"point":true,"visible":true,"x":576.0,"y":317.6,"width":0,"height":0,"properties":[{"name":"cap","type":"string","value":"1"},{"name":"facing","type":"string","value":"down"},{"name":"kind","type":"string","value":"spot"},{"name":"order","type":"string","value":"4"},{"name":"role","type":"string","value":"porch"}]},{"id":490,"name":"Town Hall","type":"","rotation":0,"point":true,"visible":true,"x":640.0,"y":317.6,"width":0,"height":0,"properties":[{"name":"cap","type":"string","value":"1"},{"name":"facing","type":"string","value":"down"},{"name":"kind","type":"string","value":"spot"},{"name":"order","type":"string","value":"5"},{"name":"role","type":"string","value":"porch"}]},{"id":491,"name":"Anderson Park","type":"","rotation":0,"point":true,"visible":true,"x":1072.0,"y":349.6,"width":0,"height":0,"properties":[{"name":"cap","type":"string","value":"1"},{"name":"facing","type":"string","value":"down"},{"name":"kind","type":"string","value":"spot"},{"name":"order","type":"string","value":"5"},{"name":"role","type":"string","value":"porch"}]},{"id":492,"name":"Watchung Plaza","type":"","rotation":0,"point":true,"visible":true,"x":512.0,"y":573.6,"width":0,"height":0,"properties":[{"name":"cap","type":"string","value":"1"},{"name":"facing","type":"string","value":"down"},{"name":"kind","type":"string","value":"spot"},{"name":"order","type":"string","value":"7"},{"name":"role","type":"string","value":"porch"}]},{"id":493,"name":"Watchung Plaza","type":"","rotation":0,"point":true,"visible":true,"x":576.0,"y":573.6,"width":0,"height":0,"properties":[{"name":"cap","type":"string","value":"1"},{"name":"facing","type":"string","value":"down"},{"name":"kind","type":"string","value":"spot"},{"name":"order","type":"string","value":"8"},{"name":"role","type":"string","value":"porch"}]},{"id":494,"name":"Watchung Plaza","type":"","rotation":0,"point":true,"visible":true,"x":640.0,"y":573.6,"width":0,"height":0,"properties":[{"name":"cap","type":"string","value":"1"},{"name":"facing","type":"string","value":"down"},{"name":"kind","type":"string","value":"spot"},{"name":"order","type":"string","value":"9"},{"name":"role","type":"string","value":"porch"}]},{"id":495,"name":"Watchung Plaza","type":"","rotation":0,"point":true,"visible":true,"x":704.0,"y":573.6,"width":0,"height":0,"properties":[{"name":"cap","type":"string","value":"1"},{"name":"facing","type":"string","value":"down"},{"name":"kind","type":"string","value":"spot"},{"name":"order","type":"string","value":"10"},{"name":"role","type":"string","value":"porch"}]},{"id":496,"name":"Public Library","type":"","rotation":0,"point":true,"visible":true,"x":336.0,"y":573.6,"width":0,"height":0,"properties":[{"name":"cap","type":"string","value":"1"},{"name":"facing","type":"string","value":"down"},{"name":"kind","type":"string","value":"spot"},{"name":"order","type":"string","value":"3"},{"name":"role","type":"string","value":"porch"}]},{"id":497,"name":"Public Library","type":"","rotation":0,"point":true,"visible":true,"x":400.0,"y":573.6,"width":0,"height":0,"properties":[{"name":"cap","type":"string","value":"1"},{"name":"facing","type":"string","value":"down"},{"name":"kind","type":"string","value":"spot"},{"name":"order","type":"string","value":"4"},{"name":"role","type":"string","value":"porch"}]},{"id":498,"name":"St. Paul Baptist","type":"","rotation":0,"point":true,"visible":true,"x":160.0,"y":653.6,"width":0,"height":0,"properties":[{"name":"cap","type":"string","value":"1"},{"name":"facing","type":"string","value":"down"},{"name":"kind","type":"string","value":"spot"},{"name":"order","type":"string","value":"1"},{"name":"role","type":"string","value":"porch"}]},{"id":499,"name":"St. Paul Baptist","type":"","rotation":0,"point":true,"visible":true,"x":224.0,"y":653.6,"width":0,"height":0,"properties":[{"name":"cap","type":"string","value":"1"},{"name":"facing","type":"string","value":"down"},{"name":"kind","type":"string","value":"spot"},{"name":"order","type":"string","value":"2"},{"name":"role","type":"string","value":"porch"}]},{"id":500,"name":"Bay Street Station","type":"","rotation":0,"point":true,"visible":true,"x":912.0,"y":605.6,"width":0,"height":0,"properties":[{"name":"cap","type":"string","value":"1"},{"name":"facing","type":"string","value":"down"},{"name":"kind","type":"string","value":"spot"},{"name":"order","type":"string","value":"3"},{"name":"role","type":"string","value":"porch"}]},{"id":501,"name":"Bay Street Station","type":"","rotation":0,"point":true,"visible":true,"x":976.0,"y":605.6,"width":0,"height":0,"properties":[{"name":"cap","type":"string","value":"1"},{"name":"facing","type":"string","value":"down"},{"name":"kind","type":"string","value":"spot"},{"name":"order","type":"string","value":"4"},{"name":"role","type":"string","value":"porch"}]},{"id":502,"name":"Anderson Park","type":"","rotation":0,"point":true,"visible":true,"x":984.0,"y":349.6,"width":0,"height":0,"properties":[{"name":"cap","type":"string","value":"1"},{"name":"facing","type":"string","value":"up"},{"name":"kind","type":"string","value":"spot"},{"name":"order","type":"string","value":"6"},{"name":"role","type":"string","value":"window"}]},{"id":503,"name":"Anderson Park","type":"","rotation":0,"point":true,"visible":true,"x":1096.0,"y":349.6,"width":0,"height":0,"properties":[{"name":"cap","type":"string","value":"1"},{"name":"facing","type":"string","value":"up"},{"name":"kind","type":"string","value":"spot"},{"name":"order","type":"string","value":"7"},{"name":"role","type":"string","value":"window"}]},{"id":504,"name":"Art Museum","type":"","rotation":0,"point":true,"visible":true,"x":184.0,"y":317.6,"width":0,"height":0,"properties":[{"name":"cap","type":"string","value":"1"},{"name":"facing","type":"string","value":"face"},{"name":"kind","type":"string","value":"spot"},{"name":"order","type":"string","value":"6"},{"name":"pair","type":"string","value":"Art Museum#0"},{"name":"role","type":"string","value":"chat"},{"name":"side","type":"string","value":"a"}]},{"id":505,"name":"Art Museum","type":"","rotation":0,"point":true,"visible":true,"x":216.0,"y":317.6,"width":0,"height":0,"properties":[{"name":"cap","type":"string","value":"1"},{"name":"facing","type":"string","value":"face"},{"name":"kind","type":"string","value":"spot"},{"name":"order","type":"string","value":"7"},{"name":"pair","type":"string","value":"Art Museum#0"},{"name":"role","type":"string","value":"chat"},{"name":"side","type":"string","value":"b"}]},{"id":506,"name":"Boutique Row","type":"","rotation":0,"point":true,"visible":true,"x":344.0,"y":365.6,"width":0,"height":0,"properties":[{"name":"cap","type":"string","value":"1"},{"name":"facing","type":"string","value":"face"},{"name":"kind","type":"string","value":"spot"},{"name":"order","type":"string","value":"6"},{"name":"pair","type":"string","value":"Boutique Row#0"},{"name":"role","type":"string","value":"chat"},{"name":"side","type":"string","value":"a"}]},{"id":507,"name":"Boutique Row","type":"","rotation":0,"point":true,"visible":true,"x":376.0,"y":365.6,"width":0,"height":0,"properties":[{"name":"cap","type":"string","value":"1"},{"name":"facing","type":"string","value":"face"},{"name":"kind","type":"string","value":"spot"},{"name":"order","type":"string","value":"7"},{"name":"pair","type":"string","value":"Boutique Row#0"},{"name":"role","type":"string","value":"chat"},{"name":"side","type":"string","value":"b"}]},{"id":508,"name":"Boutique Row","type":"","rotation":0,"point":true,"visible":true,"x":456.0,"y":365.6,"width":0,"height":0,"properties":[{"name":"cap","type":"string","value":"1"},{"name":"facing","type":"string","value":"face"},{"name":"kind","type":"string","value":"spot"},{"name":"order","type":"string","value":"8"},{"name":"pair","type":"string","value":"Boutique Row#1"},{"name":"role","type":"string","value":"chat"},{"name":"side","type":"string","value":"a"}]},{"id":509,"name":"Boutique Row","type":"","rotation":0,"point":true,"visible":true,"x":488.0,"y":365.6,"width":0,"height":0,"properties":[{"name":"cap","type":"string","value":"1"},{"name":"facing","type":"string","value":"face"},{"name":"kind","type":"string","value":"spot"},{"name":"order","type":"string","value":"9"},{"name":"pair","type":"string","value":"Boutique Row#1"},{"name":"role","type":"string","value":"chat"},{"name":"side","type":"string","value":"b"}]},{"id":510,"name":"Town Hall","type":"","rotation":0,"point":true,"visible":true,"x":584.0,"y":333.6,"width":0,"height":0,"properties":[{"name":"cap","type":"string","value":"1"},{"name":"facing","type":"string","value":"face"},{"name":"kind","type":"string","value":"spot"},{"name":"order","type":"string","value":"6"},{"name":"pair","type":"string","value":"Town Hall#0"},{"name":"role","type":"string","value":"chat"},{"name":"side","type":"string","value":"a"}]},{"id":511,"name":"Town Hall","type":"","rotation":0,"point":true,"visible":true,"x":616.0,"y":333.6,"width":0,"height":0,"properties":[{"name":"cap","type":"string","value":"1"},{"name":"facing","type":"string","value":"face"},{"name":"kind","type":"string","value":"spot"},{"name":"order","type":"string","value":"7"},{"name":"pair","type":"string","value":"Town Hall#0"},{"name":"role","type":"string","value":"chat"},{"name":"side","type":"string","value":"b"}]},{"id":512,"name":"Anderson Park","type":"","rotation":0,"point":true,"visible":true,"x":984.0,"y":365.6,"width":0,"height":0,"properties":[{"name":"cap","type":"string","value":"1"},{"name":"facing","type":"string","value":"face"},{"name":"kind","type":"string","value":"spot"},{"name":"order","type":"string","value":"8"},{"name":"pair","type":"string","value":"Anderson Park#0"},{"name":"role","type":"string","value":"chat"},{"name":"side","type":"string","value":"a"}]},{"id":513,"name":"Anderson Park","type":"","rotation":0,"point":true,"visible":true,"x":1016.0,"y":365.6,"width":0,"height":0,"properties":[{"name":"cap","type":"string","value":"1"},{"name":"facing","type":"string","value":"face"},{"name":"kind","type":"string","value":"spot"},{"name":"order","type":"string","value":"9"},{"name":"pair","type":"string","value":"Anderson Park#0"},{"name":"role","type":"string","value":"chat"},{"name":"side","type":"string","value":"b"}]},{"id":514,"name":"Anderson Park","type":"","rotation":0,"point":true,"visible":true,"x":1096.0,"y":365.6,"width":0,"height":0,"properties":[{"name":"cap","type":"string","value":"1"},{"name":"facing","type":"string","value":"face"},{"name":"kind","type":"string","value":"spot"},{"name":"order","type":"string","value":"10"},{"name":"pair","type":"string","value":"Anderson Park#1"},{"name":"role","type":"string","value":"chat"},{"name":"side","type":"string","value":"a"}]},{"id":515,"name":"Anderson Park","type":"","rotation":0,"point":true,"visible":true,"x":1128.0,"y":365.6,"width":0,"height":0,"properties":[{"name":"cap","type":"string","value":"1"},{"name":"facing","type":"string","value":"face"},{"name":"kind","type":"string","value":"spot"},{"name":"order","type":"string","value":"11"},{"name":"pair","type":"string","value":"Anderson Park#1"},{"name":"role","type":"string","value":"chat"},{"name":"side","type":"string","value":"b"}]},{"id":516,"name":"Watchung Plaza","type":"","rotation":0,"point":true,"visible":true,"x":584.0,"y":621.6,"width":0,"height":0,"properties":[{"name":"cap","type":"string","value":"1"},{"name":"facing","type":"string","value":"face"},{"name":"kind","type":"string","value":"spot"},{"name":"order","type":"string","value":"11"},{"name":"pair","type":"string","value":"Watchung Plaza#0"},{"name":"role","type":"string","value":"chat"},{"name":"side","type":"string","value":"a"}]},{"id":517,"name":"Watchung Plaza","type":"","rotation":0,"point":true,"visible":true,"x":616.0,"y":621.6,"width":0,"height":0,"properties":[{"name":"cap","type":"string","value":"1"},{"name":"facing","type":"string","value":"face"},{"name":"kind","type":"string","value":"spot"},{"name":"order","type":"string","value":"12"},{"name":"pair","type":"string","value":"Watchung Plaza#0"},{"name":"role","type":"string","value":"chat"},{"name":"side","type":"string","value":"b"}]},{"id":518,"name":"Watchung Plaza","type":"","rotation":0,"point":true,"visible":true,"x":648.0,"y":589.6,"width":0,"height":0,"properties":[{"name":"cap","type":"string","value":"1"},{"name":"facing","type":"string","value":"face"},{"name":"kind","type":"string","value":"spot"},{"name":"order","type":"string","value":"13"},{"name":"pair","type":"string","value":"Watchung Plaza#1"},{"name":"role","type":"string","value":"chat"},{"name":"side","type":"string","value":"a"}]},{"id":519,"name":"Watchung Plaza","type":"","rotation":0,"point":true,"visible":true,"x":680.0,"y":589.6,"width":0,"height":0,"properties":[{"name":"cap","type":"string","value":"1"},{"name":"facing","type":"string","value":"face"},{"name":"kind","type":"string","value":"spot"},{"name":"order","type":"string","value":"14"},{"name":"pair","type":"string","value":"Watchung Plaza#1"},{"name":"role","type":"string","value":"chat"},{"name":"side","type":"string","value":"b"}]},{"id":520,"name":"Watchung Plaza","type":"","rotation":0,"point":true,"visible":true,"x":680.0,"y":669.6,"width":0,"height":0,"properties":[{"name":"cap","type":"string","value":"1"},{"name":"facing","type":"string","value":"face"},{"name":"kind","type":"string","value":"spot"},{"name":"order","type":"string","value":"15"},{"name":"pair","type":"string","value":"Watchung Plaza#4"},{"name":"role","type":"string","value":"chat"},{"name":"side","type":"string","value":"a"}]},{"id":521,"name":"Watchung Plaza","type":"","rotation":0,"point":true,"visible":true,"x":712.0,"y":669.6,"width":0,"height":0,"properties":[{"name":"cap","type":"string","value":"1"},{"name":"facing","type":"string","value":"face"},{"name":"kind","type":"string","value":"spot"},{"name":"order","type":"string","value":"16"},{"name":"pair","type":"string","value":"Watchung Plaza#4"},{"name":"role","type":"string","value":"chat"},{"name":"side","type":"string","value":"b"}]},{"id":522,"name":"Public Library","type":"","rotation":0,"point":true,"visible":true,"x":344.0,"y":621.6,"width":0,"height":0,"properties":[{"name":"cap","type":"string","value":"1"},{"name":"facing","type":"string","value":"face"},{"name":"kind","type":"string","value":"spot"},{"name":"order","type":"string","value":"5"},{"name":"pair","type":"string","value":"Public Library#0"},{"name":"role","type":"string","value":"chat"},{"name":"side","type":"string","value":"a"}]},{"id":523,"name":"Public Library","type":"","rotation":0,"point":true,"visible":true,"x":376.0,"y":621.6,"width":0,"height":0,"properties":[{"name":"cap","type":"string","value":"1"},{"name":"facing","type":"string","value":"face"},{"name":"kind","type":"string","value":"spot"},{"name":"order","type":"string","value":"6"},{"name":"pair","type":"string","value":"Public Library#0"},{"name":"role","type":"string","value":"chat"},{"name":"side","type":"string","value":"b"}]},{"id":524,"name":"St. Paul Baptist","type":"","rotation":0,"point":true,"visible":true,"x":168.0,"y":669.6,"width":0,"height":0,"properties":[{"name":"cap","type":"string","value":"1"},{"name":"facing","type":"string","value":"face"},{"name":"kind","type":"string","value":"spot"},{"name":"order","type":"string","value":"3"},{"name":"pair","type":"string","value":"St. Paul Baptist#0"},{"name":"role","type":"string","value":"chat"},{"name":"side","type":"string","value":"a"}]},{"id":525,"name":"St. Paul Baptist","type":"","rotation":0,"point":true,"visible":true,"x":200.0,"y":669.6,"width":0,"height":0,"properties":[{"name":"cap","type":"string","value":"1"},{"name":"facing","type":"string","value":"face"},{"name":"kind","type":"string","value":"spot"},{"name":"order","type":"string","value":"4"},{"name":"pair","type":"string","value":"St. Paul Baptist#0"},{"name":"role","type":"string","value":"chat"},{"name":"side","type":"string","value":"b"}]},{"id":526,"name":"Bay Street Station","type":"","rotation":0,"point":true,"visible":true,"x":920.0,"y":621.6,"width":0,"height":0,"properties":[{"name":"cap","type":"string","value":"1"},{"name":"facing","type":"string","value":"face"},{"name":"kind","type":"string","value":"spot"},{"name":"order","type":"string","value":"5"},{"name":"pair","type":"string","value":"Bay Street Station#0"},{"name":"role","type":"string","value":"chat"},{"name":"side","type":"string","value":"a"}]},{"id":527,"name":"Bay Street Station","type":"","rotation":0,"point":true,"visible":true,"x":952.0,"y":621.6,"width":0,"height":0,"properties":[{"name":"cap","type":"string","value":"1"},{"name":"facing","type":"string","value":"face"},{"name":"kind","type":"string","value":"spot"},{"name":"order","type":"string","value":"6"},{"name":"pair","type":"string","value":"Bay Street Station#0"},{"name":"role","type":"string","value":"chat"},{"name":"side","type":"string","value":"b"}]},{"id":528,"name":"Bloomfield Ave","type":"","rotation":0,"point":true,"visible":true,"x":328.0,"y":429.6,"width":0,"height":0,"properties":[{"name":"cap","type":"string","value":"1"},{"name":"facing","type":"string","value":"face"},{"name":"kind","type":"string","value":"spot"},{"name":"order","type":"string","value":"0"},{"name":"pair","type":"string","value":"Bloomfield Ave#0"},{"name":"role","type":"string","value":"chat"},{"name":"side","type":"string","value":"a"}]},{"id":529,"name":"Bloomfield Ave","type":"","rotation":0,"point":true,"visible":true,"x":360.0,"y":429.6,"width":0,"height":0,"properties":[{"name":"cap","type":"string","value":"1"},{"name":"facing","type":"string","value":"face"},{"name":"kind","type":"string","value":"spot"},{"name":"order","type":"string","value":"1"},{"name":"pair","type":"string","value":"Bloomfield Ave#0"},{"name":"role","type":"string","value":"chat"},{"name":"side","type":"string","value":"b"}]},{"id":530,"name":"Bloomfield Ave","type":"","rotation":0,"point":true,"visible":true,"x":552.0,"y":429.6,"width":0,"height":0,"properties":[{"name":"cap","type":"string","value":"1"},{"name":"facing","type":"string","value":"face"},{"name":"kind","type":"string","value":"spot"},{"name":"order","type":"string","value":"2"},{"name":"pair","type":"string","value":"Bloomfield Ave#1"},{"name":"role","type":"string","value":"chat"},{"name":"side","type":"string","value":"a"}]},{"id":531,"name":"Bloomfield Ave","type":"","rotation":0,"point":true,"visible":true,"x":584.0,"y":429.6,"width":0,"height":0,"properties":[{"name":"cap","type":"string","value":"1"},{"name":"facing","type":"string","value":"face"},{"name":"kind","type":"string","value":"spot"},{"name":"order","type":"string","value":"3"},{"name":"pair","type":"string","value":"Bloomfield Ave#1"},{"name":"role","type":"string","value":"chat"},{"name":"side","type":"string","value":"b"}]},{"id":532,"name":"Bloomfield Ave","type":"","rotation":0,"point":true,"visible":true,"x":872.0,"y":461.6,"width":0,"height":0,"properties":[{"name":"cap","type":"string","value":"1"},{"name":"facing","type":"string","value":"face"},{"name":"kind","type":"string","value":"spot"},{"name":"order","type":"string","value":"4"},{"name":"pair","type":"string","value":"Bloomfield Ave#2"},{"name":"role","type":"string","value":"chat"},{"name":"side","type":"string","value":"a"}]},{"id":533,"name":"Bloomfield Ave","type":"","rotation":0,"point":true,"visible":true,"x":904.0,"y":461.6,"width":0,"height":0,"properties":[{"name":"cap","type":"string","value":"1"},{"name":"facing","type":"string","value":"face"},{"name":"kind","type":"string","value":"spot"},{"name":"order","type":"string","value":"5"},{"name":"pair","type":"string","value":"Bloomfield Ave#2"},{"name":"role","type":"string","value":"chat"},{"name":"side","type":"string","value":"b"}]},{"id":534,"name":"Anderson Park","type":"","rotation":0,"point":true,"visible":true,"x":904.0,"y":157.6,"width":0,"height":0,"properties":[{"name":"cap","type":"string","value":"1"},{"name":"facing","type":"string","value":"down"},{"name":"kind","type":"string","value":"spot"},{"name":"order","type":"string","value":"12"},{"name":"role","type":"string","value":"lawn"}]},{"id":535,"name":"Anderson Park","type":"","rotation":0,"point":true,"visible":true,"x":872.0,"y":173.6,"width":0,"height":0,"properties":[{"name":"cap","type":"string","value":"1"},{"name":"facing","type":"string","value":"down"},{"name":"kind","type":"string","value":"spot"},{"name":"order","type":"string","value":"13"},{"name":"role","type":"string","value":"lawn"}]},{"id":536,"name":"Anderson Park","type":"","rotation":0,"point":true,"visible":true,"x":840.0,"y":157.6,"width":0,"height":0,"properties":[{"name":"cap","type":"string","value":"1"},{"name":"facing","type":"string","value":"down"},{"name":"kind","type":"string","value":"spot"},{"name":"order","type":"string","value":"14"},{"name":"role","type":"string","value":"lawn"}]},{"id":537,"name":"Anderson Park","type":"","rotation":0,"point":true,"visible":true,"x":872.0,"y":301.6,"width":0,"height":0,"properties":[{"name":"cap","type":"string","value":"1"},{"name":"facing","type":"string","value":"down"},{"name":"kind","type":"string","value":"spot"},{"name":"order","type":"string","value":"15"},{"name":"role","type":"string","value":"lawn"}]},{"id":538,"name":"Anderson Park","type":"","rotation":0,"point":true,"visible":true,"x":808.0,"y":157.6,"width":0,"height":0,"properties":[{"name":"cap","type":"string","value":"1"},{"name":"facing","type":"string","value":"down"},{"name":"kind","type":"string","value":"spot"},{"name":"order","type":"string","value":"16"},{"name":"role","type":"string","value":"lawn"}]},{"id":539,"name":"Anderson Park","type":"","rotation":0,"point":true,"visible":true,"x":840.0,"y":189.6,"width":0,"height":0,"properties":[{"name":"cap","type":"string","value":"1"},{"name":"facing","type":"string","value":"down"},{"name":"kind","type":"string","value":"spot"},{"name":"order","type":"string","value":"17"},{"name":"role","type":"string","value":"lawn"}]},{"id":540,"name":"Anderson Park","type":"","rotation":0,"point":true,"visible":true,"x":776.0,"y":237.6,"width":0,"height":0,"properties":[{"name":"cap","type":"string","value":"1"},{"name":"facing","type":"string","value":"down"},{"name":"kind","type":"string","value":"spot"},{"name":"order","type":"string","value":"18"},{"name":"role","type":"string","value":"lawn"}]},{"id":541,"name":"Anderson Park","type":"","rotation":0,"point":true,"visible":true,"x":920.0,"y":301.6,"width":0,"height":0,"properties":[{"name":"cap","type":"string","value":"1"},{"name":"facing","type":"string","value":"down"},{"name":"kind","type":"string","value":"spot"},{"name":"order","type":"string","value":"19"},{"name":"role","type":"string","value":"lawn"}]},{"id":542,"name":"Town Hall","type":"","rotation":0,"point":true,"visible":true,"x":632.0,"y":317.6,"width":0,"height":0,"properties":[{"name":"cap","type":"string","value":"1"},{"name":"facing","type":"string","value":"up"},{"name":"kind","type":"string","value":"spot"},{"name":"order","type":"string","value":"0"},{"name":"role","type":"string","value":"queue"}]},{"id":543,"name":"Town Hall","type":"","rotation":0,"point":true,"visible":true,"x":664.0,"y":317.6,"width":0,"height":0,"properties":[{"name":"cap","type":"string","value":"1"},{"name":"facing","type":"string","value":"up"},{"name":"kind","type":"string","value":"spot"},{"name":"order","type":"string","value":"1"},{"name":"role","type":"string","value":"queue"}]},{"id":544,"name":"Town Hall","type":"","rotation":0,"point":true,"visible":true,"x":696.0,"y":317.6,"width":0,"height":0,"properties":[{"name":"cap","type":"string","value":"1"},{"name":"facing","type":"string","value":"up"},{"name":"kind","type":"string","value":"spot"},{"name":"order","type":"string","value":"2"},{"name":"role","type":"string","value":"queue"}]}]},{"id":8,"name":"traffic","type":"objectgroup","visible":false,"opacity":1,"x":0,"y":0,"draworder":"topdown","objects":[{"id":545,"name":"h23","type":"","rotation":0,"visible":true,"x":0,"y":408.0,"width":0,"height":0,"polyline":[{"x":0,"y":0},{"x":1200,"y":0.0}],"properties":[{"name":"kind","type":"string","value":"lane"},{"name":"dir","type":"string","value":"e"},{"name":"road","type":"string","value":"h23"},{"name":"through","type":"string","value":"1"}]},{"id":546,"name":"","type":"","rotation":0,"point":true,"visible":true,"x":686,"y":408.0,"width":0,"height":0,"properties":[{"name":"kind","type":"string","value":"stopline"},{"name":"axis","type":"string","value":"h"},{"name":"dir","type":"string","value":"e"},{"name":"signal","type":"string","value":"1"}]},{"id":547,"name":"","type":"","rotation":0,"point":true,"visible":true,"x":414,"y":408.0,"width":0,"height":0,"properties":[{"name":"kind","type":"string","value":"stopline"},{"name":"axis","type":"string","value":"h"},{"name":"dir","type":"string","value":"e"},{"name":"signal","type":"string","value":"0"}]},{"id":548,"name":"","type":"","rotation":0,"point":true,"visible":true,"x":798,"y":408.0,"width":0,"height":0,"properties":[{"name":"kind","type":"string","value":"stopline"},{"name":"axis","type":"string","value":"h"},{"name":"dir","type":"string","value":"e"},{"name":"signal","type":"string","value":"0"}]},{"id":549,"name":"h23","type":"","rotation":0,"visible":true,"x":1200,"y":376.0,"width":0,"height":0,"polyline":[{"x":0,"y":0},{"x":-1200,"y":0.0}],"properties":[{"name":"kind","type":"string","value":"lane"},{"name":"dir","type":"string","value":"w"},{"name":"road","type":"string","value":"h23"},{"name":"through","type":"string","value":"1"}]},{"id":550,"name":"","type":"","rotation":0,"point":true,"visible":true,"x":770,"y":376.0,"width":0,"height":0,"properties":[{"name":"kind","type":"string","value":"stopline"},{"name":"axis","type":"string","value":"h"},{"name":"dir","type":"string","value":"w"},{"name":"signal","type":"string","value":"1"}]},{"id":551,"name":"","type":"","rotation":0,"point":true,"visible":true,"x":498,"y":376.0,"width":0,"height":0,"properties":[{"name":"kind","type":"string","value":"stopline"},{"name":"axis","type":"string","value":"h"},{"name":"dir","type":"string","value":"w"},{"name":"signal","type":"string","value":"0"}]},{"id":552,"name":"","type":"","rotation":0,"point":true,"visible":true,"x":882,"y":376.0,"width":0,"height":0,"properties":[{"name":"kind","type":"string","value":"stopline"},{"name":"axis","type":"string","value":"h"},{"name":"dir","type":"string","value":"w"},{"name":"signal","type":"string","value":"0"}]},{"id":553,"name":"v44","type":"","rotation":0,"visible":true,"x":712.0,"y":0,"width":0,"height":0,"polyline":[{"x":0,"y":0},{"x":0.0,"y":416}],"properties":[{"name":"kind","type":"string","value":"lane"},{"name":"dir","type":"string","value":"s"},{"name":"road","type":"string","value":"v44"},{"name":"through","type":"string","value":"0"}]},{"id":554,"name":"","type":"","rotation":0,"point":true,"visible":true,"x":712.0,"y":350,"width":0,"height":0,"properties":[{"name":"kind","type":"string","value":"stopline"},{"name":"axis","type":"string","value":"v"},{"name":"dir","type":"string","value":"s"},{"name":"signal","type":"string","value":"1"}]},{"id":555,"name":"v44","type":"","rotation":0,"visible":true,"x":744.0,"y":416,"width":0,"height":0,"polyline":[{"x":0,"y":0},{"x":0.0,"y":-416}],"properties":[{"name":"kind","type":"string","value":"lane"},{"name":"dir","type":"string","value":"n"},{"name":"road","type":"string","value":"v44"},{"name":"through","type":"string","value":"0"}]},{"id":556,"name":"v27","type":"","rotation":0,"visible":true,"x":440.0,"y":400,"width":0,"height":0,"polyline":[{"x":0,"y":0},{"x":0.0,"y":400}],"properties":[{"name":"kind","type":"string","value":"lane"},{"name":"dir","type":"string","value":"s"},{"name":"road","type":"string","value":"v27"},{"name":"through","type":"string","value":"0"}]},{"id":557,"name":"v27","type":"","rotation":0,"visible":true,"x":472.0,"y":800,"width":0,"height":0,"polyline":[{"x":0,"y":0},{"x":0.0,"y":-400}],"properties":[{"name":"kind","type":"string","value":"lane"},{"name":"dir","type":"string","value":"n"},{"name":"road","type":"string","value":"v27"},{"name":"through","type":"string","value":"0"}]},{"id":558,"name":"","type":"","rotation":0,"point":true,"visible":true,"x":472.0,"y":434,"width":0,"height":0,"properties":[{"name":"kind","type":"string","value":"stopline"},{"name":"axis","type":"string","value":"v"},{"name":"dir","type":"string","value":"n"},{"name":"signal","type":"string","value":"0"}]},{"id":559,"name":"v51","type":"","rotation":0,"visible":true,"x":824.0,"y":400,"width":0,"height":0,"polyline":[{"x":0,"y":0},{"x":0.0,"y":224}],"properties":[{"name":"kind","type":"string","value":"lane"},{"name":"dir","type":"string","value":"s"},{"name":"road","type":"string","value":"v51"},{"name":"through","type":"string","value":"0"}]},{"id":560,"name":"v51","type":"","rotation":0,"visible":true,"x":856.0,"y":624,"width":0,"height":0,"polyline":[{"x":0,"y":0},{"x":0.0,"y":-224}],"properties":[{"name":"kind","type":"string","value":"lane"},{"name":"dir","type":"string","value":"n"},{"name":"road","type":"string","value":"v51"},{"name":"through","type":"string","value":"0"}]},{"id":561,"name":"","type":"","rotation":0,"point":true,"visible":true,"x":856.0,"y":434,"width":0,"height":0,"properties":[{"name":"kind","type":"string","value":"stopline"},{"name":"axis","type":"string","value":"v"},{"name":"dir","type":"string","value":"n"},{"name":"signal","type":"string","value":"0"}]}]}]}