{"type":"map","version":"1.10","tiledversion":"1.10.2","orientation":"orthogonal","renderorder":"right-down","compressionlevel":-1,"infinite":false,"width":75,"height":50,"tilewidth":16,"tileheight":16,"nextlayerid":9,"nextobjectid":544,"tilesets":[{"firstgid":1,"name":"rpg-tileset","image":"../../tilesets/rpg-tileset.png","imagewidth":1600,"imageheight":1600,"tilewidth":16,"tileheight":16,"columns":100,"tilecount":10000,"margin":0,"spacing":0},{"firstgid":10001,"name":"township-modern","image":"../../tilesets/township-modern.png","imagewidth":160,"imageheight":480,"tilewidth":16,"tileheight":16,"columns":10,"tilecount":300,"margin":0,"spacing":0}],"layers":[{"id":1,"name":"ground","type":"tilelayer","visible":true,"opacity":1,"x":0,"y":0,"width":75,"height":50,"data":[203,202,202,303,203,303,205,302,203,203,305,304,303,203,304,305,304,205,303,304,204,205,305,202,303,305,302,305,205,202,304,305,302,204,305,305,302,202,304,203,204,202,205,305,302,202,303,305,10018,302,10018,303,205,203,204,304,304,305,202,202,204,304,304,204,204,203,303,304,302,202,204,202,203,302,305,305,303,202,304,203,202,303,204,205,205,204,305,202,205,305,304,304,202,305,205,305,203,202,302,304,305,302,203,202,202,205,302,205,203,305,204,202,304,304,304,203,305,304,204,203,204,205,303,203,204,203,305,303,304,204,205,202,302,303,205,205,303,202,205,302,202,202,202,203,205,204,302,304,304,305,304,202,304,302,203,305,305,305,303,205,305,203,204,303,204,203,305,203,202,304,204,305,203,305,203,303,204,304,305,205,205,202,205,203,304,205,302,204,204,305,305,205,205,303,303,305,304,205,202,203,304,304,305,202,305,304,202,204,203,305,305,205,303,203,303,305,304,305,205,205,202,204,203,303,205,205,205,302,203,203,205,202,303,302,302,202,303,305,304,305,203,205,205,302,305,304,305,202,304,304,205,305,205,305,204,305,303,203,302,302,204,203,204,202,203,203,202,202,203,304,202,303,302,305,305,303,303,205,203,205,305,202,204,304,304,205,204,204,304,202,304,205,303,305,304,302,305,305,203,304,204,203,305,202,305,304,202,204,203,202,205,204,205,304,302,305,305,305,205,205,205,302,304,302,205,205,304,302,202,302,302,305,205,203,203,203,305,203,303,304,302,204,304,302,303,304,202,202,205,304,204,303,202,303,202,204,302,202,204,204,304,204,304,303,304,303,303,304,202,203,304,204,302,303,305,203,204,205,305,203,304,304,205,305,303,203,205,305,202,304,204,205,304,205,305,203,202,303,203,303,203,305,204,303,203,303,302,204,303,305,305,303,204,302,203,305,304,302,304,202,305,203,204,204,203,302,10004,305,303,204,305,303,304,203,202,204,304,204,205,304,302,305,205,202,203,304,203,304,202,303,203,303,202,304,202,202,304,305,305,304,305,204,302,303,303,304,205,203,303,203,205,303,205,305,204,204,204,302,204,305,304,202,204,304,302,203,205,303,202,204,302,302,304,304,302,202,302,203,202,205,303,204,304,205,203,305,302,303,205,303,302,302,302,304,305,303,305,305,202,302,302,303,304,303,203,305,304,204,302,303,202,204,203,205,305,205,302,204,204,204,202,202,305,202,205,303,204,205,302,304,204,303,303,305,305,303,304,305,304,205,304,302,303,203,305,302,304,303,305,204,303,304,302,305,205,304,203,302,202,303,304,302,302,302,304,303,303,304,204,205,303,304,303,304,302,305,204,202,202,303,204,203,303,302,204,303,204,204,303,305,202,204,305,202,205,302,302,304,202,305,203,304,302,204,203,303,205,204,205,302,303,303,303,202,302,303,304,204,205,203,302,304,204,304,203,304,203,305,205,203,305,205,303,305,202,203,203,303,203,305,202,302,304,202,305,304,202,302,204,202,305,202,302,202,205,202,302,305,303,305,205,202,305,305,204,304,204,305,304,204,202,303,303,304,304,305,304,302,302,203,203,304,203,202,302,303,302,304,304,203,302,204,202,305,304,202,204,202,204,304,204,203,304,303,303,304,304,204,205,205,205,203,202,203,303,203,205,303,204,203,203,305,305,205,202,304,305,304,305,205,305,203,305,303,302,202,305,203,304,202,302,304,302,304,202,202,303,205,205,205,205,205,202,302,304,203,302,204,202,205,304,304,204,305,303,304,305,304,202,204,204,205,202,303,205,205,302,302,305,205,202,304,302,205,205,203,205,205,202,205,204,205,205,202,203,302,305,204,203,202,205,304,202,302,304,305,203,302,202,305,204,203,203,302,203,302,203,204,305,203,305,302,205,304,205,204,305,205,305,302,203,205,204,304,305,202,305,303,205,305,305,303,204,304,205,302,305,305,305,305,305,204,203,302,303,304,203,204,204,302,203,202,304,302,203,305,203,205,204,305,203,303,303,302,202,203,204,305,305,302,303,305,205,302,303,303,204,302,303,203,304,304,302,203,205,303,303,203,302,204,303,303,305,205,303,302,204,303,302,204,305,203,302,304,203,203,304,305,305,304,305,202,305,205,302,205,203,203,203,205,203,204,203,202,203,304,202,302,204,202,304,302,304,204,202,205,302,203,303,302,305,302,202,303,204,303,204,203,204,303,204,302,204,305,305,204,304,204,302,303,202,303,304,302,205,304,305,303,202,304,305,305,204,204,202,305,204,302,205,203,302,303,203,203,303,205,305,302,303,302,205,303,304,302,203,304,302,205,203,302,202,304,305,305,302,203,302,302,303,203,204,202,204,203,303,305,203,203,205,305,205,202,203,302,205,305,305,203,205,205,202,304,303,302,305,305,302,302,204,304,304,305,204,305,205,304,203,305,302,304,303,303,202,202,302,204,204,304,304,203,302,203,302,303,305,305,305,305,203,305,205,303,205,302,204,302,204,302,202,302,302,305,304,302,302,305,302,202,204,303,302,305,203,304,203,302,202,202,203,305,302,304,305,305,304,304,202,205,305,203,204,202,304,205,304,304,305,204,303,203,302,204,204,204,305,204,204,204,302,304,302,204,303,203,203,302,302,303,302,305,305,203,305,303,302,205,204,205,202,302,205,203,202,304,304,203,204,304,304,304,204,304,202,302,304,302,204,203,203,305,302,305,305,305,203,203,304,205,303,303,202,303,203,205,204,305,202,202,302,304,305,203,303,303,302,202,304,203,204,203,303,305,304,305,205,205,202,302,304,305,203,205,303,302,303,202,202,302,203,303,302,10003,10018,305,304,302,202,305,205,202,303,204,10017,304,202,204,303,302,304,305,303,302,205,204,202,302,204,305,204,204,204,202,202,205,305,305,302,303,303,304,302,304,302,302,203,305,205,305,304,202,204,205,203,202,302,204,303,203,202,304,202,304,305,304,305,205,204,205,203,304,305,204,205,204,203,203,302,305,302,302,304,203,203,204,304,204,205,203,203,305,304,305,203,202,302,203,305,302,303,202,303,205,205,203,302,302,205,202,304,203,204,205,305,204,304,303,205,202,303,202,202,302,203,305,302,304,204,305,205,204,304,305,302,205,202,303,202,203,305,305,202,202,302,202,203,304,205,305,303,305,304,203,202,302,302,203,303,304,303,305,303,203,302,205,304,303,302,302,303,305,305,204,305,204,304,204,203,303,303,205,305,203,202,305,203,203,304,303,302,304,203,303,203,304,204,302,202,202,205,204,302,305,203,303,304,202,202,203,305,305,303,302,302,205,202,303,204,202,305,305,203,303,202,204,305,203,204,10019,302,205,202,205,205,302,205,304,304,10017,302,203,204,303,205,305,205,304,304,303,302,302,302,202,304,305,204,205,203,302,305,305,302,302,204,304,202,205,305,202,302,303,203,205,202,304,204,204,303,203,305,304,204,204,302,202,305,204,304,202,205,203,305,204,302,305,305,304,302,10001,203,303,303,10002,202,304,10003,204,302,202,10003,205,203,205,202,305,303,305,304,305,304,304,305,204,204,204,305,10018,202,205,305,204,203,303,202,202,302,302,304,202,205,203,305,204,202,202,302,302,204,303,304,305,302,203,205,303,302,303,302,302,202,303,305,304,304,302,205,202,205,304,302,304,202,303,205,303,202,304,302,204,302,203,203,203,203,303,204,202,205,302,304,202,305,204,303,303,203,205,202,303,205,10020,302,302,304,204,202,303,304,202,305,205,202,202,205,302,302,203,304,202,203,205,305,202,304,302,202,303,203,304,203,204,303,203,204,303,203,202,303,202,303,305,302,202,205,204,304,205,305,202,304,303,302,302,305,302,304,205,202,304,204,305,205,204,304,203,303,203,204,205,305,204,204,203,303,204,302,10019,303,302,202,302,305,304,203,202,302,305,205,205,205,204,304,305,303,205,202,302,303,202,203,204,203,303,204,304,303,202,304,204,304,302,302,202,302,302,205,305,205,305,303,202,303,204,202,203,202,205,203,303,205,305,202,203,202,204,204,204,205,205,302,304,304,205,203,205,303,203,203,304,204,10018,304,203,202,204,203,303,304,205,302,303,203,204,304,304,304,203,203,205,303,305,203,302,303,204,205,205,305,303,302,205,303,204,10002,205,203,203,10003,303,203,204,205,204,303,203,204,204,303,10003,303,302,203,10001,302,204,204,205,202,303,305,305,204,305,204,202,204,205,203,205,202,203,303,305,302,304,302,205,305,302,203,305,302,204,304,305,203,205,303,205,205,304,202,205,305,304,203,302,205,302,305,305,204,302,203,202,302,204,304,203,203,305,205,304,303,304,203,203,204,303,203,204,304,203,205,202,202,203,302,204,305,204,203,305,204,302,305,204,204,304,303,303,203,305,303,204,302,304,204,202,302,303,304,303,205,305,204,205,205,303,204,302,304,203,305,303,203,205,305,202,205,305,204,304,304,304,303,303,203,304,305,202,305,203,305,203,302,203,303,205,302,205,202,305,204,203,303,203,203,304,205,305,203,204,305,205,204,305,204,302,204,202,204,304,202,302,305,303,202,202,203,205,304,304,302,303,304,205,203,202,305,305,303,302,203,202,204,302,302,205,204,303,203,204,202,205,304,203,204,305,304,305,305,202,302,304,205,303,204,205,205,203,305,202,305,202,203,205,203,303,202,202,305,205,303,305,304,302,305,303,203,302,204,302,204,203,204,205,202,202,302,305,303,205,302,302,203,204,302,204,304,305,303,304,204,305,303,304,205,304,304,203,203,304,204,303,304,304,302,302,305,303,304,304,204,305,202,302,203,303,205,202,302,304,204,203,205,305,204,203,202,302,305,203,303,302,302,202,305,202,305,205,205,204,305,302,205,303,302,304,203,203,302,304,305,305,303,303,204,304,202,302,204,303,303,303,305,203,302,303,305,204,203,202,204,304,204,303,305,303,204,302,204,303,202,303,203,303,304,302,305,303,305,303,302,202,302,304,302,203,204,204,205,303,205,303,204,302,304,302,204,202,205,304,203,204,202,302,203,305,205,304,302,205,202,202,204,203,305,303,305,202,204,204,203,204,204,204,203,302,303,203,303,305,202,304,302,204,305,305,305,202,304,304,204,204,202,203,203,305,203,304,204,204,302,303,202,205,204,305,305,205,304,302,303,202,202,302,203,204,304,302,205,202,304,204,303,202,302,303,205,303,203,302,203,203,205,202,302,304,304,202,202,303,304,205,205,202,204,303,304,303,203,202,204,302,305,302,205,304,304,304,302,205,303,202,303,203,204,204,203,204,304,302,204,205,205,204,304,303,304,305,203,305,203,203,302,202,304,302,303,304,303,204,202,305,304,303,204,303,304,204,302,302,202,303,304,202,302,204,203,305,202,302,204,303,302,203,304,305,303,203,303,205,303,204,202,305,205,202,204,303,204,203,303,204,203,304,205,305,204,305,202,302,203,303,305,204,205,304,203,202,303,202,202,303,303,202,305,204,303,204,303,304,203,204,305,205,202,202,203,204,302,305,204,303,202,305,305,202,203,202,305,204,305,303,302,204,202,304,202,303,204,304,305,204,304,203,304,304,204,302,302,204,204,302,204,203,204,304,304,303,304,303,205,202,203,204,203,202,203,205,204,305,205,204,202,304,304,202,203,204,202,204,203,302,203,302,202,202,202,204,203,305,305,203,205,304,205,304,205,305,204,203,10003,305,204,205,304,203,302,302,305,305,302,205,304,205,305,204,205,303,304,204,202,304,204,303,205,203,203,203,302,205,304,204,302,203,203,302,205,305,303,202,204,204,304,204,204,203,305,304,203,204,205,204,203,304,203,203,303,302,302,203,203,302,305,303,203,303,202,302,204,204,202,305,203,10017,205,303,302,305,305,302,203,302,203,304,202,202,302,305,304,203,202,205,203,305,203,302,303,204,305,305,205,204,305,303,302,203,305,304,205,202,205,205,303,202,303,305,204,202,305,202,304,202,303,303,302,202,304,303,302,304,202,302,304,302,305,302,305,203,202,304,203,304,303,204,303,304,205,305,304,304,205,202,304,303,302,203,303,205,305,202,304,203,205,305,303,203,202,302,203,202,302,205,304,305,305,304,203,305,202,205,302,204,304,203,205,302,302,302,302,205,204,204,202,305,203,202,203,302,202,304,304,203,302,302,205,204,305,204,204,305,204,205,302,304,204,302,204,305,303,204,303,204,204,305,305,304,303,303,302,303,205,302,203,305,203,205,202,205,203,302,302,204,205,203,304,305,304,204,204,304,202,203,304,202,204,202,203,303,205,304,302,304,304,303,204,204,205,205,202,305,204,304,302,205,303,304,202,304,203,304,203,205,305,205,305,205,305,304,204,204,303,303,205,204,204,203,205,304,304,303,204,305,305,202,305,304,204,305,205,205,302,205,205,303,302,304,304,203,202,303,204,202,304,203,304,302,204,202,204,305,204,205,302,205,304,204,302,202,204,204,202,204,305,203,302,205,305,205,303,302,302,205,304,302,304,204,202,304,303,202,203,205,303,205,205,304,204,305,203,203,205,205,304,305,203,205,202,305,202,302,302,202,204,302,205,204,204,202,205,304,302,303,303,203,203,302,304,205,304,203,302,302,205,305,202,303,305,303,202,303,303,305,302,205,305,205,304,305,303,304,304,305,302,303,202,303,204,202,203,303,302,202,204,305,202,302,304,202,203,305,203,203,303,203,303,303,302,203,10018,203,304,305,204,305,305,205,304,303,204,305,205,204,304,204,205,203,204,305,303,202,205,303,204,305,205,202,204,204,204,305,302,204,203,305,203,304,203,305,303,304,202,203,305,204,304,204,303,204,304,204,303,303,305,205,202,304,304,204,302,304,303,303,303,305,304,204,202,305,303,302,203,204,202,303,303,10004,305,204,302,205,204,302,202,203,305,304,305,202,303,204,305,303,203,205,305,202,203,202,303,304,203,205,204,304,303,304,303,202,304,204,305,302,305,302,304,305,305,204,204,203,303,305,305,203,205,303,203,205,305,205,202,305,304,203,205,205,202,304,203,304,304,205,203,204,203,203,205,205,305,304,302,303,203,304,203,304,305,203,202,304,303,205,304,303,202,205,305,303,205,202,204,205,202,204,304,202,203,204,304,203,203,304,303,303,202,205,304,203,305,203,305,203,303,304,205,303,203,202,205,204,204,204,305,204,204,204,305,205,302,302,204,304,205,303,202,302,204,205,202,305,202,202,303,204,204,204,305,203,303,302,203,202,205,205,302,204,302,304,305,305,205,305,305,205,302,205,203,203,203,302,203,303,305,302,305,304,302,302,203,304,302,205,304,203,204,302,205,204,304,202,203,302,203,203,303,305,303,303,304,205,303,302,204,204,305,202,205,305,303,302,205,205,304,205,304,205,205,204,303,203,204,305,202,202,304,204,203,205,302,203,304,303,205,204,204,205,304,202,302,202,205,302,203,205,303,204,204,305,204,202,304,303,303,304,303,202,304,305,304,204,204,204,302,304,203,302,203,304,304,305,303,304,203,202,205,302,204,305,304,304,304,305,202,203,303,205,305,305,304,203,202,302,303,204,202,304,302,303,205,302,305,203,302,303,305,202,305,305,305,304,204,204,302,304,204,204,204,205,303,203,202,205,205,305,305,205,305,204,303,303,302,204,305,303,204,305,202,305,303,205,203,205,202,202,205,302,203,204,203,303,305,202,203,305,303,302,204,305,302,303,303,205,204,303,204,204,304,204,302,305,203,203,203,304,203,202,304,303,302,303,304,204,204,204,203,204,305,202,204,204,205,305,304,302,202,305,205,304,304,302,202,205,302,305,202,303,303,302,202,303,205,303,203,205,305,205,305,305,302,202,202,205,203,205,205,203,202,202,203,305,303,302,202,304,304,302,303,303,204,304,203,303,204,204,303,304,203,203,205,202,302,305,303,202,202,303,303,202,202,203,204,205,204,305,202,203,204,305,303,303,303,304,305,302,203,305,302,304,204,205,205,203,205,202,302,303,202,303,304,202,202,202,204,205,305,302,302,205,305,203,203,304,205,204,203,303,204,204,204,204,202,204,303,303,303,302,305,302,203,304,205,305,203,205,302,204,204,205,302,304,304,203,303,205,204,202,203,204,202,204,202,204,304,303,203,305,302,302,205,203,303,305,302,205,205,305,303,202,203,302,205,304,303,205,304,303,303,204,205,203,305,204,205,304,302,303,205,203,205,204,203,303,203,205,303,204,302,302,204,202,202,305,304,303,202,305,303,203,302,302,304,305,303,303,204,303,304,202,204,302,305,304,203,302,205,303,205,302,204,202,304,304,304,205,302,305,204,302,205,204,202,305,305,302,203,305,204,205,303,204,303,203,302,302,302,303,305,204,203,205,203,304,304,305,205,203,10019,302,10017,303,205,204,202,305,204,305,202,204,205,302,202,10017,305,10017,302,203,303,203,304,202,305,304,302,303,205,203,305,304,205,204,205,303,302,302,302,304,304,202]},{"id":2,"name":"ground-detail","type":"tilelayer","visible":true,"opacity":1,"x":0,"y":0,"width":75,"height":50,"data":[10182,10184,10181,10182,10181,10191,10191,10182,10181,10183,10184,10184,10191,10191,10182,10181,10184,10184,10183,10181,10191,10191,10181,10184,10182,10182,10182,10182,10182,10181,10181,10184,10182,10184,10182,10183,10183,10184,10183,10184,10181,10184,10182,10184,10183,10181,10189,10021,10005,10006,10007,10021,10188,10182,10182,10183,10182,10182,10181,10182,10181,10182,10181,10183,10184,10184,10182,10184,10183,10181,10182,10183,10184,10181,10182,10184,10181,10183,10183,10189,10193,10194,10190,10191,10191,10191,10192,10193,10194,10190,10191,10191,10191,10191,10192,10193,10194,10188,10181,10181,10182,10181,10183,10181,10184,10184,10184,10184,10181,10184,10181,10182,10183,10181,10183,10181,10181,10184,10184,10183,10182,10189,10024,10008,10036,10009,10024,10190,10191,10184,10181,10181,10184,10184,10183,10183,10182,10181,10182,10183,10184,10181,10181,10182,10184,10182,10182,10182,10184,10182,10182,10184,10184,10191,10192,0,0,0,6167,6169,6169,6168,6169,6169,6169,6168,6169,6169,6170,0,0,0,10190,10181,10181,10184,10191,10191,10182,10182,10182,10191,10184,10181,10183,10191,10191,10191,10191,10182,10184,10182,10191,10183,10183,10183,10192,10024,10008,10003,10009,10024,0,10194,10190,10191,10191,10191,10191,10191,10191,10191,10191,10191,10181,10182,10182,10191,10191,10191,10191,10191,10182,10183,10184,10182,10183,10189,10193,0,0,6167,6168,6369,6269,6269,6269,6268,6368,6369,6269,6269,6368,6368,6169,6170,0,10194,10188,10181,10189,10193,10194,10188,10181,10189,2103,10188,10184,10189,2004,2105,0,10194,10188,10183,10189,0,10188,10183,10189,10193,10024,10008,10002,10009,10024,0,0,0,0,0,0,0,0,0,0,0,10194,10190,10191,10192,10193,0,0,0,10194,10188,10182,10184,10181,10182,10189,0,0,6167,6268,6268,6269,6369,6368,6369,6269,6268,6368,6368,6268,6269,6268,6268,6369,6170,0,10190,10191,10192,0,0,10188,10183,10189,2004,10190,10191,10192,2103,2103,1905,0,10190,10191,10192,0,10188,10183,10189,0,10024,10008,10036,10009,10024,0,0,0,0,0,0,0,0,0,0,0,0,0,1902,1905,0,0,0,0,1902,10188,10182,10183,10181,10182,10189,0,6167,6269,6268,6268,6269,6368,6269,6368,6369,6269,6369,6269,6268,6268,6269,6369,6369,6268,6170,0,0,0,0,0,10190,10191,10192,2104,2204,2104,2203,2204,2105,0,0,0,0,0,10196,10188,10191,10192,0,10024,10008,10004,10009,10026,0,0,0,0,0,0,0,0,0,0,0,0,0,2102,2003,1904,1904,1903,1903,2105,10188,10182,10184,10181,10184,10192,0,6467,6269,6369,6268,6369,6369,6269,6269,6268,6369,6369,6369,6368,6368,6268,6268,6269,6368,6470,0,0,0,0,1902,2204,2203,2203,2205,0,2202,0,0,10185,10186,10186,10186,10186,10186,10186,10192,10193,0,0,10024,10008,10002,10009,10185,10186,10186,10186,10186,10186,10186,10186,10186,10186,10186,10187,0,1902,2104,2003,2103,2103,2104,2004,10185,10184,10183,10182,10184,10189,10193,0,0,6467,6369,6368,6268,6368,6368,6269,6268,6268,6368,6268,6368,6369,6269,6368,6268,6470,0,0,0,0,0,0,0,0,0,0,0,0,0,0,0,0,0,0,0,0,0,0,0,0,0,10024,10008,10036,10009,0,0,0,0,0,0,0,0,0,0,0,0,0,0,2102,2004,2004,2004,2004,2104,10188,10183,10181,10183,10183,10189,0,0,0,0,6467,6468,6268,6269,6369,6268,6369,6368,6369,6268,6368,6269,6268,6469,6470,0,0,0,0,0,0,0,0,10185,10186,10186,10186,10186,10187,0,0,0,0,0,0,0,0,0,0,0,0,10024,10008,10003,10009,0,0,0,0,0,0,0,0,0,0,0,0,0,1902,2204,2203,2103,2204,2003,2204,10190,10183,10184,10182,10191,10192,0,0,0,0,0,0,6467,6469,6469,6468,6469,6468,6369,6368,6268,6269,6371,0,0,0,0,0,0,0,0,0,0,0,0,0,0,0,0,0,0,0,0,0,0,0,0,0,0,0,0,10024,10008,10002,10009,0,0,0,0,0,0,0,0,0,0,0,0,0,0,0,0,2202,0,2202,0,2202,10188,10182,10182,1912,1913,1913,1914,1913,1914,1913,1914,1914,1913,1914,1913,1913,1915,6366,6369,6369,6368,6371,1912,1914,1913,1914,1913,1915,0,0,0,0,0,0,0,0,0,0,0,0,0,0,0,0,0,0,0,0,0,0,10024,10008,10036,10009,0,0,0,0,0,0,0,0,0,0,0,0,0,0,0,0,0,0,0,0,10196,10188,10184,10183,2212,2214,2213,2214,2214,2214,2213,2214,2213,2214,2214,2213,2214,2215,6266,6368,6368,6268,6271,2212,2213,2214,2214,2114,2115,0,0,0,0,0,0,0,0,0,0,0,0,0,0,0,0,0,0,0,0,0,0,10024,10008,10003,10009,0,0,0,0,0,0,0,0,0,0,0,0,0,10185,10186,10186,10186,10186,10186,10186,10186,10182,10183,10183,10186,10187,0,0,0,0,0,0,0,0,0,6167,6168,6169,6369,6269,6369,6269,6268,6169,6170,0,1919,2012,2015,0,0,0,0,0,0,0,0,0,0,0,0,0,0,0,0,0,0,0,0,0,0,10024,10008,10004,10009,0,0,0,0,0,0,0,0,0,0,0,0,0,0,0,0,0,0,0,0,10194,10188,10184,10184,10184,10189,10195,0,0,0,0,0,0,0,6167,6369,6269,6269,6369,6268,6368,6368,6368,6268,6269,6170,0,2012,2115,0,0,0,0,0,0,0,0,0,0,0,0,0,0,0,0,1902,0,0,1902,10179,1902,10024,10008,10036,10009,0,0,0,0,0,0,0,0,0,0,0,0,0,0,0,0,0,0,0,0,0,10188,10181,10183,10181,10183,10187,0,0,0,0,0,0,6167,6368,6369,6368,6368,6269,6269,6268,6269,6269,6269,6268,6371,0,2012,2015,0,0,0,0,0,0,0,0,0,0,0,0,0,1912,1914,1915,6066,6067,6068,6069,6070,6071,10024,10008,10002,10009,0,0,0,0,0,0,0,0,0,0,0,0,0,0,0,0,0,0,0,0,0,10188,10181,10183,10183,10183,10189,0,0,0,0,0,6167,6368,6269,6369,6268,6268,6369,6369,6368,6368,6269,6368,6268,6268,6170,2012,10021,10022,10022,10022,10022,10022,10022,10022,10022,10022,10022,10023,0,0,2112,2113,2015,6166,6167,6168,6169,6170,6171,10024,10008,10003,10009,0,0,0,0,0,0,0,0,0,0,0,0,10021,0,0,0,0,0,0,0,0,10188,10183,10184,10181,10181,10189,0,0,0,0,0,0,6467,6269,6268,6369,6368,6369,6269,6268,6368,182,186,6368,6269,6470,2112,10024,10018,10018,10018,10020,10020,10017,10020,10018,10017,10020,10025,0,0,2112,2013,2115,6266,6267,6268,6269,6270,6271,10024,10008,10036,10009,10021,10005,10006,10006,10006,10006,10006,10006,10006,10006,10006,10007,10024,0,0,0,0,0,0,0,0,10188,10183,10184,10183,10181,10189,0,0,0,0,0,0,0,6467,6468,6268,6269,6269,6268,6368,6369,282,286,6268,6470,0,2112,10024,10020,10017,10019,10017,10018,10018,10017,10018,10017,10020,10025,10180,0,2012,2114,2015,6366,6367,6368,6369,6370,6371,10024,10008,10003,10009,10024,10008,10003,10004,10002,10003,10003,10002,10004,10004,10003,10009,10024,0,0,0,0,0,0,0,0,10188,10182,10181,10184,10184,10192,0,0,0,0,0,0,0,0,0,6467,6468,6469,6469,6469,6468,382,386,6470,0,0,2112,10024,10017,10018,10018,10018,10019,10020,10019,10020,10020,10019,10025,10179,0,2012,2113,2115,6466,6467,6468,6469,6470,6471,10024,10008,10001,10009,10024,10008,10003,10004,10003,10003,10004,10001,10001,10004,10004,10009,10024,0,0,0,0,0,0,0,0,10190,10184,10184,10191,10192,784,782,882,883,785,784,883,782,785,785,783,883,783,882,782,882,782,885,884,782,783,2212,10024,10017,10020,10018,10019,10017,10017,10020,10018,10017,10020,10025,0,0,2012,2014,2015,0,2202,2205,0,0,2202,10024,10008,10036,10009,10024,1073751865,1073751865,10011,10002,10004,10003,1073751865,1073751865,1073751865,10042,10012,10024,0,0,0,0,0,0,0,0,10194,10190,10191,10021,10022,10022,10022,10022,10022,10022,10022,10022,10022,10022,10022,10022,10022,10022,10022,10022,10022,10022,10022,10022,10022,10022,10022,10027,10027,10027,10027,10027,10027,10027,10027,10027,10027,10027,10027,10022,10022,2114,2114,2114,10022,10022,10022,10022,10022,10022,10028,10034,10034,10034,10026,10022,10022,10023,10008,10001,10009,10021,10022,10022,10022,10022,10027,10022,10022,10022,10022,10022,10022,10022,10022,10022,10022,10023,10005,10006,10006,10006,10006,10006,10006,10006,10006,10006,10006,10006,10006,10006,10006,10006,10006,10006,10006,10006,10006,10006,10006,10006,10006,10006,10006,10006,10006,10006,10006,10006,10033,10006,10006,10006,10033,10006,10006,10006,10006,10006,10006,10006,10006,10006,10006,10033,10004,10003,10001,10033,10006,10006,10006,10003,10003,10002,10006,10042,10006,10006,10006,10006,10006,10006,10006,10006,10006,10006,10006,10006,10006,10006,10007,10008,10035,10001,10002,10035,10002,10004,10035,10002,10002,10035,10004,10004,10035,10003,10003,10035,10001,10003,10035,10004,10004,10035,10003,10001,10035,10002,10004,10035,10003,10004,10035,10033,10004,10002,10004,10033,10035,10003,10004,10035,10004,10003,10035,10002,10002,10035,10033,10001,10004,10003,10033,10035,10004,10001,10035,10001,10001,10035,10002,10004,10035,10001,10003,10035,10001,10002,10035,10002,10003,10035,10001,10001,10035,10009,10010,10011,10011,10011,10011,10011,10011,10011,10011,10011,10011,10011,10011,10011,10011,10011,10011,10011,10011,10011,10011,10011,10011,10011,10011,10011,10011,10011,10011,10011,10042,10011,10033,10002,10001,10002,10033,10011,10011,10011,10011,10011,10011,10011,10011,10011,10011,10033,10001,10002,10002,10033,10011,10011,10011,10011,10011,10011,10011,10011,10011,10011,10011,10011,10011,10011,10011,10011,10011,10011,10011,10011,10011,10011,10012,10021,10022,10022,10022,10022,10022,10022,10022,10022,10022,10022,10022,10022,10022,10022,10022,10022,10022,10022,10022,10022,10022,10022,10022,10022,10022,10022,10022,10022,10022,10022,10022,10023,10034,10034,10034,10021,10022,10022,10022,10022,10022,10022,10022,10022,10022,10022,10023,10034,10034,10034,10021,10022,10022,10022,10022,10022,10022,10022,10022,10022,10022,10022,10022,10022,10022,10022,10022,10022,10022,10022,10022,10022,10022,10023,10186,10187,0,0,0,0,0,0,0,0,0,0,0,0,0,0,0,0,0,0,0,0,0,0,0,0,0,0,0,0,0,0,10024,10008,10036,10009,10024,0,0,0,0,10185,10186,10186,10186,10186,10187,10024,10008,10036,10009,10024,0,0,0,10185,10186,10186,10186,10186,10186,10186,10187,0,10185,10186,10186,10186,10186,10186,10186,10187,10196,10185,10186,10184,10189,10179,0,0,0,0,0,0,0,0,0,0,0,0,0,0,0,0,0,0,0,0,0,0,0,0,0,0,0,0,0,10024,10008,10001,10009,10024,0,0,0,0,0,0,0,0,0,0,10024,10008,10003,10009,10024,0,0,0,0,0,0,0,0,0,0,0,0,0,0,0,0,0,0,0,0,10185,10182,10181,10181,10189,10180,0,0,0,0,0,0,0,0,0,0,0,0,0,0,0,0,0,0,0,0,0,0,0,0,0,0,0,0,0,10024,10008,10004,10009,10024,0,0,0,0,0,0,0,0,0,0,10024,10008,10001,10009,10024,0,0,0,0,0,0,0,0,0,0,0,0,0,0,0,0,0,0,0,0,10188,10182,10183,10181,10189,10179,0,0,0,0,0,0,0,0,0,0,0,0,0,0,0,0,0,0,0,0,0,0,0,0,0,0,0,0,0,10024,10008,10036,10009,10024,0,0,0,0,0,0,0,0,0,0,10024,10008,10036,10009,10024,0,0,0,0,0,0,0,0,0,0,0,0,0,0,0,0,0,0,0,0,10188,10181,10183,10181,10189,10179,0,0,0,0,0,0,0,0,0,0,0,0,0,0,0,0,0,0,0,0,0,0,0,0,0,0,0,0,0,10024,10008,10004,10009,10024,0,0,0,0,0,0,0,0,0,0,10024,10008,10002,10009,10024,0,0,0,0,0,0,0,0,0,0,0,0,0,0,0,0,0,0,0,0,10188,10183,10181,10181,10189,10179,0,0,0,0,0,0,0,0,0,0,0,0,0,0,0,0,0,0,0,0,0,0,0,0,0,0,0,0,0,10024,10008,10002,10009,10024,0,0,0,0,0,0,0,0,0,0,10024,10008,10001,10009,10024,0,0,0,0,0,0,0,0,0,0,0,10179,10180,0,0,0,0,0,0,0,10188,10184,10182,10181,10189,10179,0,0,0,0,0,0,0,0,0,0,0,0,0,0,0,0,0,0,0,0,0,0,0,0,0,0,0,0,0,10024,10008,10036,10009,10024,0,0,0,0,0,0,0,0,0,0,10024,10008,10036,10009,10024,0,0,0,0,0,0,0,0,0,0,0,10179,10180,0,0,0,0,0,0,0,10188,10182,10181,10183,10189,10021,10022,10022,10022,10022,10022,10022,10022,10022,10022,10022,10022,10022,10022,10022,10022,10022,10022,10022,10022,10022,10022,10022,10022,10022,10022,10022,10022,10022,10022,10025,10008,10001,10009,10024,10022,10022,10022,10022,10022,10022,10022,10022,10022,10022,10025,10008,10003,10009,10024,0,0,0,0,0,0,0,0,0,0,0,0,0,0,0,0,0,0,0,0,10188,10182,10181,10183,10183,10186,10186,10186,10186,10186,10187,0,10185,10186,10186,10186,10186,10187,0,10185,10186,10186,10186,10186,10187,0,0,10185,10186,10186,10186,10186,10186,10186,10187,10024,10008,10004,10009,10024,10027,10027,10027,10027,10027,10027,10027,10017,10027,10027,10028,10008,10003,10009,10024,10022,10022,10022,10022,10022,10022,10022,10022,10022,10022,10022,10022,10022,10022,10022,10022,10022,10022,10022,10023,10188,10184,10182,10181,10184,10189,10193,0,0,0,0,10021,0,0,0,0,0,0,10021,0,0,0,0,0,0,10021,0,0,0,0,0,0,0,0,0,10024,10008,10036,10009,10024,0,0,0,0,0,0,0,10024,10005,10006,10006,10001,10036,10009,10024,10027,10027,10027,10027,10027,10027,10027,10027,10027,10027,10027,10027,10018,10027,10027,10027,10027,10027,10027,10028,10188,10184,10182,10184,10181,10189,0,0,0,0,0,10024,0,0,0,0,0,0,10024,0,0,0,0,0,0,10024,0,0,0,0,0,0,0,0,0,10024,10008,10003,10009,10024,0,0,0,0,0,0,0,10024,10008,10003,10003,10001,10003,10009,10024,0,0,0,0,0,0,1912,1915,0,0,0,0,10024,10185,10186,10186,10186,10186,10186,10186,10184,10182,10181,10182,10184,10189,0,0,0,0,0,10024,0,0,0,0,0,0,10024,0,0,0,0,0,0,10024,0,0,0,0,0,0,0,0,0,10024,10008,10001,10009,10024,0,0,0,0,0,0,0,10024,10008,10003,10004,10002,10004,10009,10024,0,0,0,0,0,0,2212,2215,0,0,0,0,10024,0,0,0,0,0,0,10194,10188,10183,10182,10181,10182,10189,0,0,0,0,0,10024,0,0,0,0,0,0,10024,0,0,0,0,0,0,10024,0,0,0,0,0,0,0,0,0,10024,10008,10036,10009,10024,0,0,0,0,0,0,0,10024,10008,10002,10001,10004,10036,10009,10024,0,0,0,1902,1904,1904,1905,0,0,0,1902,0,10024,0,0,0,0,0,0,0,10188,10183,10182,10182,10181,10189,0,0,0,0,0,10024,0,0,0,0,0,0,10024,0,0,0,0,0,0,10024,0,0,0,0,0,0,0,0,0,10024,10008,10004,10009,10024,0,0,0,0,0,0,0,10024,10008,10001,10002,10001,10004,10009,10024,0,0,0,2002,2004,2003,2104,1903,1903,1905,0,0,10024,0,0,0,0,0,0,0,10188,10182,10183,10184,10181,10189,0,0,0,0,0,10024,0,0,0,0,0,0,10024,0,0,0,0,0,0,10024,0,0,0,0,0,0,0,0,0,10024,10008,10002,10009,10024,0,0,0,0,0,0,0,10024,10010,10042,10011,10004,10003,10009,10024,0,0,0,2202,2003,2004,2103,2003,2103,2103,1905,0,10024,0,0,0,0,0,0,0,10188,10183,10183,10182,10184,10192,0,0,0,0,0,10026,0,0,0,0,0,0,10026,0,0,0,0,0,0,10026,0,0,0,0,0,0,0,0,0,10024,10008,10036,10009,10024,0,0,0,0,0,0,0,10026,10022,10022,10023,10008,10036,10009,10024,0,0,0,0,2102,2003,2103,2003,2004,2003,2205,0,10024,0,0,0,0,0,0,0,10190,10183,10184,10181,10189,1912,1914,1914,1913,1913,1914,1913,1913,1914,1913,1914,1914,1913,1913,1914,1914,1914,1914,1914,1914,1914,1913,1913,1914,1914,1913,1914,1914,1914,1914,2114,10008,10001,10009,10024,0,0,0,0,0,0,0,0,0,0,10024,10008,10004,10009,10024,0,0,0,1902,2004,2103,2104,2004,2004,2005,0,0,10024,0,0,0,0,0,0,0,10194,10188,10183,10182,10189,2212,2214,2214,2213,2214,2214,2214,2213,2213,2213,2213,2214,2213,2213,2213,2213,2213,2213,2214,2214,2213,2213,2214,2213,2214,2214,2214,2213,2214,2213,2114,10008,10003,10009,10024,1902,1905,0,1902,0,1902,0,0,0,0,10024,10008,10002,10009,10024,0,0,0,2202,2004,2103,2104,2103,2003,2103,1905,0,10026,10022,10022,10022,10022,10022,10022,10022,10023,10188,10181,10184,10183,10187,10195,1902,1903,1903,1905,0,1902,1904,1904,1905,0,1902,0,0,1902,0,1902,0,0,1902,1905,0,1902,1904,1904,1905,0,0,0,10024,10008,10036,10009,10024,2102,2003,1903,2004,1903,2004,1903,1905,0,0,10024,10008,10036,10009,10024,0,0,0,0,2002,2203,2204,2103,2204,2103,2205,0,0,0,0,0,0,0,0,0,0,10188,10184,10181,10184,10181,10186,10186,10187,2104,2104,1903,2103,2004,2004,2103,1903,2103,1903,1904,2004,1904,2004,1903,1903,2104,2004,1904,2103,2103,2003,2005,0,0,0,10024,10008,10002,10009,10024,2002,2104,2103,2104,2004,2004,2005,0,0,0,10024,10008,10002,10009,10024,0,0,0,0,2202,0,0,2202,0,2202,0,0,0,0,0,0,0,0,0,0,10196,10188,10181,10181,10183,10182,10183,10184,10189,2103,2103,2103,2104,2103,10185,10186,10187,2103,2103,2003,2104,2103,2103,2103,2104,2104,2003,2003,2104,10185,10186,10187,0,0,0,10024,10008,10001,10009,10024,2002,2003,2104,10185,10186,10187,2104,1905,0,0,10024,10008,10001,10009,10024,0,0,0,0,0,0,0,0,0,0,0,0,0,0,0,0,0,0,0,10185,10186,10181,10184,10182,10182,10182,10191,10191,10192,2003,2203,2003,2104,2203,10188,10184,10189,2104,2204,2003,2204,2104,2004,2104,2204,2004,2104,2004,2104,10188,10183,10189,0,0,0,10024,10008,10036,10009,10024,2002,2003,2204,10188,10182,10181,10186,10186,10187,0,10024,10008,10036,10009,10024,0,0,0,0,0,0,0,0,0,0,0,0,0,0,0,0,0,0,0,10188,10181,10183,10181,10181,10181,10189,2202,2204,2203,2205,0,2202,2205,10196,10188,10184,10189,2205,0,2202,0,2202,2204,2205,0,2202,2203,2204,2205,10188,10181,10189,10195,0,0,10024,10008,10001,10009,10024,2202,2205,10196,10188,10181,10183,10183,10181,10189,10195,10024,10008,10002,10009,10024,0,0,0,0,0,0,0,0,0,0,0,0,0,0,0,0,0,0,10196,10188,10184,10182,10184,10183,10183,10183,10186,10186,10186,10186,10186,10186,10186,10186,10183,10184,10182,10186,10186,10186,10186,10186,10186,10186,10186,10186,10186,10186,10186,10181,10181,10182,10186,10186,10187,10024,10008,10003,10009,10024,10185,10186,10186,10182,10183,10181,10182,10184,10184,10187,10024,10008,10004,10009,10024,10185,10186,10186,10186,10186,10186,10186,10186,10186,10186,10186,10186,10186,10186,10186,10186,10186,10186,10186,10184,10184,10184,10183,10181,10182,10184,10181,10181,10182,10181,10181,10184,10183,10182,10182,10181,10181,10182,10181,10183,10182,10181,10183,10183,10181,10183,10181,10183,10184,10182,10181,10183,10184,10184,10189,10026,10010,10036,10012,10026,10188,10183,10182,10183,10183,10183,10184,10184,10182,10189,10026,10010,10036,10012,10026,10188,10182,10182,10184,10181,10182,10182,10183,10184,10184,10182,10184,10181,10183,10181,10182,10184,10184,10182,10184,10183,10184,10184]},{"id":3,"name":"deco-below","type":"tilelayer","visible":true,"opacity":1,"x":0,"y":0,"width":75,"height":50,"data":[0,0,0,0,0,5401,5402,10178,0,0,0,0,5401,5402,0,0,0,0,0,0,5401,5402,0,0,0,0,0,0,0,0,0,0,0,0,0,0,0,0,0,0,0,0,0,0,0,0,0,0,0,0,0,0,0,0,0,0,0,0,0,0,0,10178,0,0,0,0,0,0,0,0,0,0,0,0,0,0,0,0,0,0,5501,5502,0,0,5424,5525,0,5501,5502,0,0,0,0,0,0,5501,5502,0,0,0,0,0,0,0,0,0,0,0,0,0,0,0,0,0,0,0,0,0,0,0,0,0,0,0,0,0,0,0,0,0,0,0,0,0,0,0,0,0,0,0,0,0,0,0,0,0,0,0,0,0,0,0,0,0,0,0,0,0,0,0,0,0,0,0,0,0,0,0,0,0,0,0,0,0,0,0,10177,0,0,0,0,0,0,0,0,0,0,0,0,0,0,0,0,0,0,0,0,0,0,0,0,10292,0,0,0,0,0,0,0,0,0,10177,0,0,0,0,0,0,0,0,0,0,0,0,0,0,0,0,0,0,0,0,0,0,0,0,0,0,0,0,0,0,0,0,0,0,0,0,0,0,0,0,0,0,0,0,0,0,0,0,0,0,0,0,0,0,0,0,0,0,0,0,0,0,0,0,0,0,0,0,0,0,0,0,0,0,0,0,0,0,0,0,0,0,0,0,0,0,0,0,0,0,0,0,0,0,0,0,0,0,0,0,0,0,0,0,0,0,0,0,0,0,0,10177,0,0,0,0,0,0,0,0,0,0,0,0,0,0,0,0,0,0,0,0,0,0,0,0,0,0,0,3722,3723,3724,3724,3724,3723,3723,3723,3723,3723,3724,3725,0,0,0,0,0,0,0,0,0,0,0,0,0,0,0,0,0,0,0,0,0,0,0,0,0,0,0,0,0,0,0,0,0,0,0,0,4819,4820,0,0,0,0,0,0,0,0,0,0,0,0,0,0,0,0,0,0,0,0,0,0,0,0,0,4022,4023,4024,4024,4024,4024,4023,4024,4024,4023,4024,4025,0,0,0,0,0,0,0,0,0,0,0,0,0,0,0,0,0,0,0,0,0,0,0,0,0,0,0,0,0,0,0,0,0,0,0,0,4919,4920,0,0,0,0,0,0,0,0,0,0,0,0,0,0,0,0,0,0,0,0,0,0,0,0,0,0,0,0,0,0,0,0,0,0,0,0,0,0,0,0,0,0,0,0,0,10178,0,0,0,0,0,0,0,0,0,0,0,0,0,0,0,0,0,0,0,0,0,0,0,0,0,0,0,0,0,0,0,0,0,0,0,0,0,0,0,0,0,0,0,0,0,0,0,10172,0,0,0,0,0,0,0,0,0,0,0,0,0,0,0,0,0,0,10172,0,0,0,0,0,0,0,0,0,0,10178,0,0,0,0,0,0,0,0,0,0,0,0,0,0,0,0,0,0,0,0,0,0,0,0,0,0,0,0,0,0,0,0,0,0,0,0,0,0,0,0,0,0,0,0,10171,0,0,0,0,0,0,0,0,0,0,0,0,0,0,0,0,0,0,10171,0,0,0,0,0,0,0,0,0,0,10177,0,0,0,0,0,0,0,5525,0,0,0,0,0,0,8536,8537,8538,8539,8540,0,0,0,0,0,0,0,0,0,0,0,0,0,0,0,0,10172,4475,4475,4475,4475,4475,4475,4475,4475,10171,0,0,0,0,0,0,0,0,0,0,0,0,0,0,0,0,0,0,10171,0,0,0,0,0,0,5401,5402,0,0,0,0,0,0,0,0,0,0,0,0,0,0,0,0,0,8636,8637,8638,8639,8640,0,0,0,0,0,0,0,0,0,0,0,0,0,0,0,0,10171,4475,4475,4475,4475,4475,4475,4475,4475,10171,0,0,0,0,0,0,0,0,0,0,0,0,0,0,0,0,0,0,10171,0,0,0,0,0,0,5501,5502,0,0,0,0,0,0,0,0,0,0,0,0,0,0,0,0,0,8736,8737,8738,8739,8740,0,0,0,0,0,0,0,0,0,0,0,0,0,0,0,0,10171,4475,4475,4475,4475,4475,4475,4475,4475,10171,0,0,0,0,0,0,0,0,0,0,0,0,0,0,0,0,0,0,10171,0,0,0,0,0,0,0,0,0,0,0,0,0,0,0,0,0,0,0,0,10049,0,0,0,0,0,0,0,0,0,0,0,0,0,0,0,0,0,0,0,0,0,0,0,0,0,10171,0,0,0,0,0,0,0,0,1073751996,0,0,0,0,0,0,0,0,0,0,0,0,0,0,0,0,0,0,1073751996,0,0,0,0,0,0,0,0,0,10172,0,0,0,0,0,0,0,0,0,10172,0,0,0,0,0,0,0,0,0,0,0,0,0,0,0,0,0,0,0,0,0,0,0,0,0,0,1073751996,0,0,0,0,0,0,0,0,10246,10244,10247,0,0,0,0,0,0,0,0,0,0,0,0,0,0,0,0,4959,4960,0,0,0,0,0,0,0,0,0,10178,0,0,0,0,0,0,0,0,1073751996,0,0,0,0,0,0,0,0,0,0,0,0,0,0,0,0,0,0,0,0,0,0,0,0,0,0,3159,3160,0,0,0,0,0,0,0,0,0,0,0,0,0,0,0,0,0,0,0,0,0,0,0,0,0,0,5059,5060,0,0,0,0,0,0,0,0,10172,0,0,0,0,0,0,0,0,0,0,0,0,0,0,0,0,0,0,0,0,0,0,0,0,0,10047,10049,0,10173,10048,0,0,0,0,0,0,10046,3260,0,0,0,0,0,0,0,0,0,0,0,0,0,0,0,0,0,0,0,0,0,0,0,0,0,0,10172,0,0,0,0,0,0,0,0,0,0,0,0,0,0,0,0,0,0,0,10172,0,0,0,0,0,0,0,0,0,0,0,0,0,0,0,0,0,0,0,0,2147493867,2147493868,0,0,0,0,3359,3360,0,0,0,0,0,0,0,0,0,0,0,0,0,0,10037,0,10173,0,0,0,0,0,0,0,10173,10171,10171,0,0,0,0,0,0,0,0,0,10172,0,0,0,0,0,0,0,0,0,0,5401,5402,0,0,0,0,0,0,0,0,0,0,2953,2954,0,0,0,0,0,0,2147493871,2147493872,0,0,0,0,3163,3164,0,0,0,0,0,0,0,0,0,0,10049,0,0,0,0,0,0,0,0,0,0,0,0,0,0,0,0,0,0,0,0,0,0,0,0,0,0,0,0,0,0,0,0,0,0,0,0,5501,5502,0,0,0,0,0,0,0,0,0,0,3053,3054,0,0,0,0,0,0,0,0,0,0,0,2147493875,3263,3264,0,0,0,0,0,0,0,0,0,0,0,0,0,0,0,1073752049,10222,0,0,0,0,10226,1073752045,10214,0,0,0,0,0,0,0,0,0,0,0,0,10172,0,0,0,0,10173,2147493821,0,10173,10171,2147493821,0,0,10049,0,0,0,0,10049,0,0,0,0,0,0,0,0,0,0,0,0,10220,10219,0,0,0,0,10295,0,5525,0,0,0,0,0,0,5525,5423,0,0,0,0,0,0,1073752050,10221,10295,0,0,0,10225,1073752046,10213,0,10295,0,0,0,0,0,0,0,0,0,0,0,0,0,0,10292,0,0,0,0,0,0,0,0,0,0,0,0,0,0,0,0,0,0,0,0,0,0,0,10043,0,0,0,10044,0,0,0,0,0,0,0,0,0,0,0,0,0,0,0,0,10260,0,0,0,10260,0,0,10050,0,0,0,10050,0,0,0,0,0,10173,10171,10171,10171,10171,10171,10171,10171,2147493821,0,0,0,0,0,0,0,0,0,0,0,0,0,0,0,0,0,0,0,0,0,0,0,0,0,0,0,0,0,0,0,0,0,0,0,0,0,0,0,0,0,0,0,0,0,0,0,0,0,0,0,0,0,0,0,0,0,0,0,0,0,0,0,0,0,0,0,0,0,0,0,0,0,0,0,0,0,0,0,0,0,0,0,0,0,0,0,0,0,0,0,0,0,0,0,0,0,0,0,0,0,0,0,0,0,0,0,0,0,0,0,0,0,0,0,0,0,0,0,0,0,0,0,0,0,0,0,0,0,0,0,0,0,0,0,0,0,0,0,0,0,0,0,0,0,0,0,0,0,0,0,0,0,0,0,0,0,0,0,0,0,0,0,0,0,0,0,0,0,0,0,0,0,0,0,0,0,0,0,0,0,0,0,0,0,0,0,0,0,0,0,0,0,0,0,0,0,0,0,0,0,0,0,0,0,0,0,0,0,0,0,0,0,0,0,0,0,0,0,0,0,0,0,0,0,0,0,0,0,0,0,0,0,0,0,0,0,0,0,0,0,0,0,0,0,0,0,0,0,0,0,0,0,10045,0,0,0,0,0,10038,0,0,0,10037,0,0,0,0,0,0,0,0,0,0,10038,0,0,0,10037,0,0,0,0,0,0,0,0,0,0,0,0,0,0,0,0,0,0,0,0,0,0,0,0,0,0,0,0,0,0,0,0,0,0,0,0,0,0,0,0,0,0,0,0,0,0,0,0,0,10055,0,0,0,0,0,10262,0,0,0,0,0,0,0,0,0,0,0,0,0,0,10260,0,0,0,10260,0,0,0,0,0,0,0,0,0,0,0,0,0,0,0,0,0,0,0,0,10292,0,0,0,0,10248,0,0,0,0,0,0,0,0,0,0,0,0,0,0,0,0,0,0,0,0,0,0,0,0,0,0,0,0,0,10172,0,0,0,0,0,0,0,0,0,0,0,0,0,0,10172,0,0,0,0,0,0,0,0,0,0,0,0,0,0,0,10172,0,0,0,0,0,0,0,0,10172,0,0,0,0,10245,0,0,0,0,0,0,0,0,0,0,0,0,0,0,0,0,0,0,0,0,0,0,0,0,0,0,0,0,0,10171,0,0,0,0,0,0,0,0,0,0,0,0,0,0,10171,0,0,0,0,0,0,0,0,0,0,0,0,0,0,0,10171,0,0,0,0,0,0,0,0,10171,0,0,0,10178,10245,0,0,0,0,0,0,0,0,0,0,0,0,0,0,0,0,0,0,0,0,0,0,0,0,0,0,0,0,0,10171,0,0,0,0,0,0,0,0,0,0,0,0,0,0,10171,0,0,0,0,0,0,0,0,0,0,0,0,0,0,0,10171,0,0,0,0,0,0,0,0,1073751996,0,0,0,0,10245,0,0,0,0,0,0,0,0,0,0,0,0,0,0,0,0,0,0,0,0,0,0,0,0,0,0,0,0,0,10171,0,0,0,0,0,0,0,0,0,0,0,0,0,0,10171,0,0,0,0,0,0,0,0,0,0,0,0,0,0,0,1073751996,0,0,0,0,0,0,0,0,10178,0,10178,0,0,10245,10044,0,0,0,0,0,0,0,0,0,0,0,0,0,0,0,0,0,0,0,0,0,0,0,0,0,0,0,0,10171,0,0,0,0,0,0,0,0,0,0,0,0,0,0,10171,0,0,0,0,0,0,0,0,0,0,0,0,0,0,0,3163,3164,0,0,0,0,0,0,0,10172,0,0,0,0,10249,0,0,0,0,0,0,0,0,0,0,0,0,0,0,0,0,0,0,0,0,0,0,0,0,0,0,0,0,0,1073751996,0,0,0,0,0,0,0,0,0,0,0,0,0,0,10171,0,0,0,0,0,0,0,0,0,0,0,0,0,0,0,3263,3264,0,0,0,0,0,0,0,10171,0,0,0,0,0,0,0,0,0,0,0,0,0,0,0,0,0,0,0,0,0,0,0,0,0,0,0,0,0,0,0,0,0,0,0,0,0,0,0,10173,10171,10171,2147493821,0,0,0,0,0,10045,1073751996,0,0,0,0,0,0,0,0,0,0,0,0,0,0,0,10172,0,0,0,0,0,0,0,0,1073751996,0,0,0,0,0,0,0,0,0,0,0,0,0,0,0,0,0,0,0,0,0,0,0,0,0,5524,0,0,0,0,0,0,0,0,0,0,0,0,0,0,0,0,0,0,10049,0,0,10046,10055,10040,0,0,0,0,0,10049,0,10173,0,0,0,0,0,0,0,10046,0,0,0,0,0,0,10173,2147493821,10045,0,0,0,0,0,0,0,0,0,0,10172,0,0,0,0,0,0,10172,0,0,0,0,0,0,10172,0,0,0,0,0,0,0,0,0,10172,0,0,0,0,0,5524,5524,0,0,0,0,0,0,0,0,0,0,0,0,0,0,0,0,0,0,0,0,0,0,0,0,0,0,0,0,0,0,0,0,10055,0,0,0,0,0,0,0,0,0,0,10171,0,0,0,0,0,0,10171,0,0,0,0,0,0,10171,0,0,0,0,0,0,0,0,0,10171,0,0,0,0,0,5525,0,0,0,0,0,0,10240,0,0,0,0,0,0,0,0,0,0,0,0,0,0,0,0,0,0,0,0,0,0,0,0,0,0,0,0,10178,0,0,0,0,0,0,0,0,10171,0,0,0,0,0,0,1073751996,0,0,0,0,0,0,10171,0,0,0,0,0,0,0,0,0,10171,0,0,0,0,0,0,0,0,0,0,0,0,10239,0,0,0,0,0,0,0,0,2936,2937,3138,3139,0,0,3138,3139,2940,2941,0,0,0,0,0,0,0,0,0,10172,0,0,0,0,0,0,0,0,0,10171,0,0,0,0,0,0,1073752041,0,0,0,0,0,0,10171,0,0,0,0,0,0,0,0,0,10171,0,0,0,0,0,0,0,0,0,0,0,0,10238,0,0,0,0,0,0,0,0,3036,3037,3238,3239,0,0,3238,3239,3040,3041,0,0,0,0,0,0,0,0,0,0,0,0,0,0,0,0,0,0,0,10171,0,0,0,0,0,0,1073752042,0,0,0,0,0,0,10171,0,0,0,0,0,0,0,0,0,10171,0,0,0,0,0,0,5401,5402,0,0,0,0,0,0,0,0,0,0,0,10049,0,2740,2741,0,0,0,0,0,0,2740,2741,0,0,0,0,0,0,0,0,0,10172,0,0,0,0,0,0,0,0,0,10171,0,0,0,0,0,0,10172,0,0,0,0,0,0,10171,0,0,0,0,0,0,0,0,0,10171,0,0,0,0,0,0,5501,5502,0,0,0,0,0,0,0,0,0,0,0,0,0,2840,2841,5229,0,0,0,0,5229,2840,2841,0,0,0,0,0,0,0,0,0,0,0,0,0,0,0,0,0,0,0,10171,0,0,0,0,0,0,10171,0,0,0,0,0,0,10171,0,0,0,0,0,0,0,0,0,10171,0,0,0,0,0,0,0,0,0,0,0,0,0,0,10038,0,0,0,0,0,0,2740,2741,5329,0,0,0,0,5329,2740,2741,0,0,0,0,0,0,0,0,0,10172,0,0,0,0,0,0,0,0,0,1073751996,0,0,0,0,0,0,1073751996,0,0,0,0,0,0,1073751996,0,10173,0,0,0,0,0,0,10173,10171,0,0,0,0,0,0,0,0,0,0,0,0,0,0,0,0,0,0,0,0,0,2840,2841,0,0,0,0,0,0,2840,2841,0,0,0,0,0,0,0,0,0,1073751996,0,0,0,0,0,0,0,0,0,0,0,0,0,0,0,0,0,0,0,0,0,0,0,0,0,0,0,0,0,0,0,0,0,0,0,0,0,0,0,0,0,0,0,0,0,0,0,0,0,0,0,0,0,0,0,2740,2741,5230,0,0,0,0,5230,2740,2741,0,10173,10171,10171,10171,10171,10171,10171,2147493821,0,0,0,0,0,0,0,0,0,0,0,0,0,0,0,5426,0,0,0,0,0,0,0,0,0,0,10153,10154,0,0,0,0,10049,0,0,0,0,0,0,0,0,0,0,0,0,0,0,0,0,0,0,0,0,0,0,0,2840,2841,5330,0,0,0,0,5330,2840,2841,0,0,0,0,0,0,0,10044,0,0,0,0,0,0,0,10177,0,0,0,0,0,0,0,0,0,0,0,0,0,0,0,0,0,0,0,10155,10156,0,0,0,0,0,0,0,0,0,0,0,0,0,0,0,0,0,0,0,0,0,0,0,0,0,0,5424,0,3136,3137,3138,3139,3138,3139,3138,3139,3140,3141,0,0,0,0,0,0,0,0,0,0,0,0,0,0,0,0,0,0,0,0,0,0,0,0,0,0,0,0,0,0,0,0,0,0,0,0,0,0,0,0,0,0,0,0,0,0,0,0,0,0,0,0,0,0,0,0,0,5019,5020,0,0,0,0,0,0,3236,3237,3238,3239,3238,3239,3238,3239,3240,3241,0,0,0,0,0,0,0,0,0,0,0,0,0,0,0,0,0,0,0,0,0,0,0,0,0,0,0,0,0,0,0,0,0,0,0,0,0,0,0,0,0,0,0,0,0,0,0,0,0,0,0,0,0,0,0,0,0,5119,5120,0,0,0,0,0,0,0,0,0,0,0,0,0,0,0,0,0,0,0,0,0,0,0,0,0,0,0,0,0,0,0,0,0,0,0,0,0,0,0,0,0,0,0,0,0,0,0,0,0,0,0,0,0,0,0,0,0,0,0,10292,0,0,0,0,0,0,0,0,0,0,0,0,0,0,0,0,0,0,10292,0,0,0,0,0,0,0,0,0,0,0,0,0,0,0,0,0,0,0,0,0,0,10178,0,0,0,0,0,0,0,0,0,0,0,0,0,0,0,0,0,0,0,0,0,0,0,10177,0,0,0,0,0,0,0,0,0,0,0,0,0,0,0,0,0,0,0,0,0,0,0,0,0,0,0,0,0,0,0,0,0,0,0,0,0,0,0,0,0,0,0,0,0,0,0,0,0,0,0,0,0,0,0,10177,0,0,0,0,0,0,0,0,0,0,0,0,0,0,0,0,0,0,0,0,0,0,0,0,0,0,0,0,0,0,0,0,0,0,0,0,0,0,0,0,0,0,0,0,0,0,0,0,10177,0,10178,0,0,0,0,0,0,0,0,0,0,10177,0,0,0,0,0,0,0,0]},{"id":4,"name":"buildings-base","type":"tilelayer","visible":true,"opacity":1,"x":0,"y":0,"width":75,"height":50,"data":[0,0,0,0,0,0,0,0,0,0,0,0,0,0,0,0,0,0,0,0,0,0,0,0,0,0,0,0,0,0,0,0,0,0,0,0,0,0,0,0,0,0,0,0,0,0,0,0,0,0,0,0,0,0,0,0,0,0,0,0,0,0,0,0,0,0,0,0,0,0,0,0,0,0,0,0,0,0,0,0,0,0,0,0,0,0,0,0,0,0,0,0,0,0,0,0,0,0,0,0,0,0,0,0,0,0,0,0,0,0,0,0,0,0,0,0,0,0,0,0,0,0,0,0,0,0,0,0,0,0,0,0,0,0,0,0,0,0,0,0,0,0,0,0,0,0,0,0,0,0,0,0,0,0,0,0,0,0,0,0,0,0,0,0,0,0,0,0,0,0,0,0,0,0,0,0,0,0,0,0,0,0,0,0,0,0,0,0,0,0,0,0,0,0,0,0,0,0,0,0,0,0,0,0,0,0,0,0,0,0,0,0,0,0,0,0,0,0,0,0,0,0,0,0,0,0,0,0,0,0,0,0,0,0,0,0,0,0,0,0,0,0,0,0,0,0,0,0,0,0,0,0,0,0,0,0,0,0,0,0,0,0,0,0,0,0,0,0,0,0,0,0,0,0,0,0,0,0,0,0,0,0,0,0,0,0,0,0,0,0,0,0,0,0,0,0,0,0,0,0,0,0,0,0,0,0,0,0,0,0,0,0,0,0,0,0,0,0,0,0,0,0,0,0,0,0,0,0,0,0,0,0,0,0,0,0,0,0,0,0,0,0,0,0,0,0,0,0,0,0,0,0,0,0,0,0,0,0,0,0,0,0,0,0,0,0,0,0,0,0,0,0,0,0,0,0,0,0,0,0,0,0,0,0,0,0,0,0,0,0,0,0,0,0,0,0,0,0,0,0,0,0,0,0,0,0,0,0,0,0,0,0,0,0,0,0,0,0,0,0,0,0,0,0,0,0,0,0,0,0,0,0,0,0,0,0,0,0,0,0,0,0,0,0,0,0,0,0,0,0,0,0,0,0,0,0,0,0,0,0,0,0,0,0,0,0,0,0,0,0,0,0,0,0,0,0,0,0,0,0,0,0,0,0,0,0,0,0,0,0,0,0,0,0,0,0,0,0,0,0,0,0,0,0,0,0,0,0,0,0,0,0,0,0,0,0,0,0,0,0,0,0,0,0,0,0,0,0,0,0,0,0,0,0,0,0,0,0,0,0,0,0,0,0,0,0,0,0,0,0,0,0,0,0,0,0,0,0,0,0,0,0,0,0,0,0,0,0,0,0,0,0,0,0,0,0,0,0,0,0,0,0,0,0,0,0,0,0,0,0,0,0,0,0,0,0,0,0,0,0,0,0,0,0,0,0,0,0,0,0,0,0,0,0,0,0,0,0,0,0,0,0,0,0,0,0,0,0,0,0,0,0,0,0,0,0,0,0,0,0,0,0,0,0,0,0,0,0,0,0,0,0,0,0,0,0,0,0,0,0,0,0,0,0,0,0,0,0,0,0,0,0,0,0,0,0,0,0,0,0,0,0,0,0,0,0,0,0,0,0,0,0,0,0,0,0,0,0,0,0,0,0,0,0,0,0,0,0,0,0,0,4270,3357,4272,4273,4274,3358,4276,4277,0,0,0,0,0,0,0,0,0,0,0,0,0,0,0,0,0,0,0,0,0,0,0,0,0,0,0,0,0,0,0,0,0,0,0,0,0,0,0,0,0,0,0,0,0,0,0,0,0,0,0,0,0,0,0,0,0,0,0,0,0,0,0,0,0,0,0,4370,3457,4372,4373,4374,3458,4376,4377,0,0,0,0,0,0,0,0,0,0,0,0,0,0,0,0,0,0,0,0,0,0,0,0,0,0,0,0,0,0,0,0,0,0,0,0,0,0,0,0,0,0,0,0,0,0,0,0,0,0,0,0,0,0,0,0,0,0,0,0,0,0,0,0,0,0,0,4470,4475,4472,4473,4474,4475,4476,4477,0,0,0,0,0,0,0,3121,3122,3123,3124,3125,3122,3123,3124,3125,3122,3123,3126,0,0,0,0,0,0,0,0,0,0,0,0,0,0,0,0,0,0,0,0,0,0,0,0,0,0,0,0,0,0,0,0,0,0,0,0,0,4470,4475,4476,4477,4478,4483,4484,4483,4484,4485,0,4570,4575,4572,4573,4574,4575,4576,4577,0,0,0,0,0,0,0,3221,3222,3223,3224,3225,3222,3223,3224,3225,3222,3223,3226,0,0,0,0,0,0,0,0,0,0,0,0,0,0,0,0,0,0,0,0,0,0,0,0,0,0,0,0,0,0,0,0,0,0,0,0,0,4570,4575,4576,4577,4578,4583,4584,4583,4584,4585,0,4670,4675,4672,4673,4674,4675,4676,4677,0,0,0,0,0,0,0,3321,10051,10052,4951,4952,3322,3323,4951,4952,10051,10052,3326,0,0,0,0,0,0,0,0,0,0,0,0,0,0,0,0,0,0,0,0,0,0,0,0,0,0,0,0,0,0,0,0,0,0,0,0,0,4670,3186,3187,4677,4678,4683,3186,3187,4684,4685,0,0,0,0,0,0,0,0,0,0,0,0,0,0,0,0,3421,10053,10054,5051,5052,3422,3423,5051,5052,10053,10054,3426,0,0,0,0,0,0,0,0,0,0,0,0,0,0,4370,10103,10104,10103,10104,4377,0,0,0,0,0,0,0,0,0,0,0,0,0,0,0,0,0,0,0,0,0,0,0,0,0,0,0,0,0,0,0,0,0,0,0,0,0,0,0,0,0,0,0,3521,3522,3523,3524,3525,3188,3189,3524,3525,3522,3523,3526,0,3121,3122,3123,3124,3125,3122,3123,3124,3126,0,0,0,0,4470,10105,10106,10105,10106,4477,0,0,0,0,0,0,0,0,0,0,0,0,0,0,0,0,0,0,0,0,0,0,0,0,0,0,0,0,0,0,0,0,0,0,0,0,0,0,0,0,0,0,0,0,0,0,0,0,0,0,0,0,0,0,0,0,3221,3222,3223,3224,3225,3222,3223,3224,3226,0,0,0,0,4570,4575,4576,4575,4576,4577,0,0,0,0,0,0,0,0,0,0,0,0,0,0,0,0,0,0,0,0,0,0,0,0,0,0,0,0,0,0,0,0,0,0,0,0,0,0,0,0,0,0,0,0,0,0,0,0,0,0,0,0,0,0,0,0,3321,10051,10052,3324,3325,3322,10051,10052,3326,0,0,0,0,4670,4675,3186,3187,4676,4677,0,0,0,0,0,0,0,0,0,0,0,0,0,0,0,0,0,0,0,0,0,0,0,0,0,0,0,0,0,0,0,0,0,0,0,0,0,0,0,0,0,0,0,0,0,0,0,0,0,0,0,0,0,0,0,0,3421,10053,10054,3424,3425,3422,10053,10054,3426,0,0,0,0,0,0,0,0,0,0,0,0,0,0,0,0,0,0,0,0,0,0,0,0,0,0,0,0,0,0,0,0,0,0,0,0,0,0,0,0,0,0,0,0,0,0,0,0,0,0,0,0,0,0,0,0,0,0,0,0,0,0,0,0,0,0,3521,3522,3523,3188,3189,3522,3523,3524,3526,0,0,0,0,0,0,0,0,0,0,0,0,0,0,0,0,0,0,0,0,0,0,0,0,0,0,0,0,0,0,0,0,0,0,0,0,0,0,0,0,0,0,0,0,0,0,0,0,0,0,0,0,0,0,0,0,0,0,0,0,0,0,0,0,0,0,0,0,0,0,0,0,0,0,0,0,0,0,0,0,0,0,0,0,0,0,0,0,0,0,0,0,0,0,0,0,0,0,0,0,0,0,0,0,0,0,0,0,0,0,0,0,0,0,0,0,0,0,0,0,0,0,0,0,0,0,0,0,0,0,0,0,0,0,0,0,0,0,0,0,0,0,0,0,0,0,0,0,0,0,0,0,0,0,0,0,0,0,0,0,0,0,0,0,0,0,0,0,0,0,0,0,0,0,0,0,0,0,0,0,0,0,0,0,0,0,0,0,0,0,0,0,0,0,0,0,0,0,0,0,0,0,0,0,0,0,0,0,0,0,0,0,0,0,0,0,0,0,0,0,0,0,0,0,0,0,0,0,0,0,0,0,0,0,0,0,0,0,0,0,0,0,0,0,0,0,0,0,0,0,0,0,0,0,0,0,0,0,0,0,0,0,0,0,0,0,0,0,0,0,0,0,0,0,0,0,0,0,0,0,0,0,0,0,0,0,0,0,0,0,0,0,0,0,0,0,0,0,0,0,0,0,0,0,0,0,0,0,0,0,0,0,0,0,0,0,0,0,0,0,0,0,0,0,0,0,0,0,0,0,0,0,0,0,0,0,0,0,0,0,0,0,0,0,0,0,0,0,0,0,0,0,0,0,0,0,0,0,0,0,0,0,0,0,0,0,0,0,0,0,0,0,0,0,0,0,0,0,0,0,0,0,0,0,0,0,0,0,0,0,0,0,0,0,0,0,0,0,0,0,0,0,0,0,0,0,0,0,0,0,0,0,0,0,0,0,0,0,0,0,0,0,0,0,0,0,0,0,0,0,0,0,0,0,0,0,0,0,0,0,0,0,0,0,0,0,0,0,0,0,0,0,0,0,0,0,0,0,0,0,0,0,0,0,0,0,0,0,0,0,0,0,0,0,0,0,0,0,0,0,0,0,0,0,0,0,0,0,0,0,0,0,0,0,0,0,0,0,0,0,0,0,0,0,0,0,0,0,0,0,0,0,0,0,0,0,0,0,0,0,0,0,0,0,0,0,0,0,0,0,0,0,0,0,0,0,0,0,0,0,0,0,0,0,0,0,0,0,0,0,0,0,0,0,0,0,0,0,0,0,0,0,0,0,0,0,0,0,0,0,0,0,0,0,0,0,0,0,0,0,0,0,0,0,0,0,0,0,0,0,0,0,0,0,0,0,0,0,0,0,0,0,0,0,0,0,0,0,0,0,0,0,0,0,0,0,0,0,0,0,0,0,0,0,0,0,0,0,0,0,0,0,0,0,0,0,0,0,0,0,0,0,0,0,0,0,0,0,0,0,0,0,0,0,0,0,0,0,0,0,0,0,0,0,0,0,4278,4283,4279,4280,4281,4282,4283,4285,0,0,0,0,0,0,0,4470,4475,4476,4477,4478,4483,4484,4485,4470,4475,4476,4477,4478,4483,4484,4485,4470,4475,4476,4477,4478,4483,4484,4485,4470,4475,4476,4477,0,0,0,0,0,4470,4475,4476,4477,4478,4483,4484,4483,4484,4485,0,0,0,0,0,0,0,0,0,0,0,0,0,0,0,0,0,4378,4383,4379,4380,4381,4382,4383,4385,0,0,0,0,0,0,0,4570,4575,4576,4577,4578,4583,4584,4585,4570,4575,4576,4577,4578,4583,4584,4585,4570,4575,4576,4577,4578,4583,4584,4585,4570,4575,4576,4577,0,0,0,0,0,4570,4575,4576,4577,4578,4583,4584,4583,4584,4585,0,0,0,0,0,0,0,0,3327,3328,3329,3328,3329,3328,3329,3330,0,4478,4483,4479,4480,4481,4482,4483,4485,0,0,0,0,0,0,0,4670,3186,3187,4677,4678,3186,3187,4685,4670,3186,3187,4677,4678,3186,3187,4685,4670,3186,3187,4677,4678,3186,3187,4685,4670,3186,3187,4677,0,0,0,0,0,4670,3186,3187,4677,4678,4683,3186,3187,4684,4685,0,0,0,0,0,0,0,0,3427,10051,10052,3428,3429,10051,10052,3430,0,4578,4583,4579,4580,4581,4582,4583,4585,0,0,0,0,0,0,0,0,0,0,0,0,0,0,0,0,0,0,0,0,0,0,0,0,0,0,0,0,0,0,0,0,0,0,0,0,0,0,0,0,0,0,0,0,0,0,0,0,0,0,0,0,0,0,0,0,0,0,3527,10053,10054,3186,3187,10053,10054,3530,0,4678,4683,4679,4680,4681,4682,4683,4685,0,0,0,0,0,0,0,0,0,0,0,0,0,0,0,0,0,0,0,0,0,0,0,0,0,0,0,0,0,0,0,0,0,0,0,0,0,0,0,0,0,0,0,0,0,0,0,0,0,0,0,0,0,0,0,0,0,0,0,0,0,0,0,0,0,0,0,0,0,0,0,0,0,0,0,0,0,0,0,0,0,0,0,0,0,0,0,0,0,0,0,0,0,0,0,0,0,0,0,0,0,0,0,0,0,0,0,0,0,0,0,0,0,0,0,0,0,0,0,0,0,0,0,0,0,0,0,0,0,0,0,0,0,0,0,0,0,0,0,0,0,0,0,0,0,0,0,0,0,0,0,0,0,0,0,0,0,0,0,0,0,0,0,0,0,0,0,0,0,0,0,0,0,0,0,0,0,0,0,0,0,0,0,0,0,0,0,0,0,0,0,0,0,0,0,0,0,0,0,0,0,0,0,0,0,0,0,0,0,0,0,0,0,0,0,0,0,0,0,0,0,0,0,0,0,0,0,0,0,0,0,0,0,0,0,0,0,0,0,0,0,0,0,0,0,0,0,0,0,0,0,0,3121,3122,3123,3124,3125,3122,3123,3126,0,0,0,0,0,0,0,0,0,0,0,0,0,0,0,0,0,0,0,0,0,0,0,0,0,0,0,0,0,0,0,0,0,0,0,0,0,0,0,0,0,0,0,0,0,4370,10103,10104,10103,10104,4377,0,4370,10103,10104,10103,10104,4377,0,4370,10103,10104,10103,10104,4377,0,0,3221,3222,3223,3224,3225,3222,3223,3226,0,0,0,0,0,0,0,0,0,0,0,0,0,0,0,0,0,0,0,0,0,0,0,0,0,0,0,0,0,0,0,0,0,4278,4283,4279,4280,4281,4282,4283,4285,0,0,0,0,4470,10105,10106,10105,10106,4477,0,4470,10105,10106,10105,10106,4477,0,4470,10105,10106,10105,10106,4477,0,0,3321,10051,10052,3324,3325,10051,10052,3326,0,0,0,0,0,0,0,0,0,0,0,0,0,0,0,0,0,0,0,0,0,0,0,0,0,0,0,0,0,0,0,0,0,4378,4383,4379,4380,4381,4382,4383,4385,0,0,0,0,4570,4575,4576,4575,4576,4577,0,4570,4575,4576,4575,4576,4577,0,4570,4575,4576,4575,4576,4577,0,0,3421,10053,10054,3424,3425,10053,10054,3426,0,0,0,0,0,0,0,0,0,0,0,0,0,0,0,0,0,0,0,0,0,0,0,0,0,0,0,0,0,0,0,0,0,4478,10051,10052,4480,4481,10051,10052,4485,0,0,0,0,4670,4675,3186,3187,4676,4677,0,4670,4675,3186,3187,4676,4677,0,4670,4675,3186,3187,4676,4677,0,0,3521,3522,3523,3186,3187,3522,3523,3526,0,0,0,0,0,0,0,0,0,0,0,0,0,0,0,0,0,0,0,0,0,0,0,0,0,0,0,0,0,0,0,0,0,4578,10053,10054,4580,4581,10053,10054,4585,0,0,0,0,0,0,0,0,0,0,0,0,0,0,0,0,0,0,0,0,0,0,0,0,0,0,0,0,0,0,0,0,0,0,0,0,0,0,0,0,0,0,0,0,0,0,0,0,0,0,0,0,0,0,0,0,0,0,0,0,0,0,0,0,0,0,0,4678,4683,4679,4680,4681,4682,4683,4685,0,0,0,0,0,0,0,0,0,0,0,0,0,0,0,0,0,0,0,0,0,0,0,0,0,0,0,0,0,0,0,0,0,0,0,0,0,0,0,0,0,0,0,0,0,0,0,0,0,0,0,0,0,0,0,0,0,0,0,0,0,0,0,0,0,0,0,0,0,0,0,0,0,0,0,0,0,0,0,0,0,0,0,0,0,0,0,0,0,0,0,0,0,0,0,0,0,0,0,0,0,0,0,0,0,0,0,0,0,0,0,0,0,0,0,0,0,0,0,0,0,0,0,0,0,0,0,0,0,0,0,0,0,0,0,0,0,0,0,0,0,0,0,0,0,0,0,0,0,0,0,0,0,0,0,0,0,0,0,0,0,0,0,0,0,0,0,0,0,0,0,0,0,0,0,0,0,0,0,0,0,0,0,0,0,0,0,0,0,0,0,0,0,0,0,0,0,0,0,0,0,0,0,0,0,0,0,0,0,0,0,0,0,0,0,0,0,0,0,0,0,0,0,0,0,0,0,0,0,0,0,0,0,0,0,0,0,0,0,0,0,0,0,0,0,0,0,0,0,0,0,0,0,0,0,0,0,0,0,0,0,0,0,0,0,0,0,0,0,0,0,0,0,0,0,0,0,0,0,0,0,0,0,0,0,0,0,0,0,0,0,0,0,0,0,0,0,0,0,0,0,0,0,0,0,0,0,0,0,0,0,0,0,0,0,0,0,0,0,0,0,0,0,0,0,0,0,0,0,0,0,0,0,0,0,0,0,0,0,0,0,0,0,0,0,0,0,0,0,0,0,0,0,0,0,0,0,0,0,0,0,0,0,0,0,0,0,0,0,0,0,0,0,0,0,0,0,0,0,0,0,0,0,0,0,0,0,0,0,0,0,0,0,0,0,0,0,0,0,0,0,0,0,0,0,0,0,0,0,0,0,0,0,0,0,0,0,0,0,0,0,0,0,0,0,0,0,0,0,0,0,0,0,0,0,0,0,0,0,0,0,0,0,0,0,0,0,0,0,0,0,0,0,0,0,0,0,0,0,0,0,0,0,0,0,0,0,0,0,0,0,0,0,0,0,0,0,0,0,0,0,0,0,0,0,0,0,0,0,0,0,0,0,0,0,0,0,0,0,0,0,0,0,0,0,0,0,0,0,0,0,0,0,0,0,0,0,0,0,0,0,0,0,0,0,0,0,0,0,0,0,0,0,0,0,0,0,0,0,0,0,0,0,0,0,0,0,0,0,0,0,0,0,0,0,0,0,0,0,0,0,0,0,0,0,0,0,0,0,0,0,0,0,0,0,0,0,0,0,0,0,0,0,0,0,0,0,0,0,0,0,0,0,0,0,0,0,0,0,0,0,0]},{"id":5,"name":"buildings-top","type":"tilelayer","visible":true,"opacity":1,"x":0,"y":0,"width":75,"height":50,"data":[0,0,0,0,0,0,0,0,0,0,0,0,0,0,0,0,0,0,0,0,0,0,0,0,0,0,0,0,0,0,0,0,0,0,0,0,0,0,0,0,0,0,0,0,0,0,0,0,0,0,0,0,0,0,0,0,0,0,0,0,0,0,0,0,0,0,0,0,0,0,0,0,0,0,0,0,0,0,0,0,0,0,0,0,0,0,0,0,0,0,0,0,0,0,0,0,0,0,0,0,0,0,0,0,0,0,0,0,0,0,0,0,0,0,0,0,0,0,0,0,0,0,0,0,0,0,10291,0,0,0,0,0,0,0,0,0,0,0,0,0,0,0,0,0,0,0,0,0,0,0,0,0,0,0,0,0,0,0,0,0,0,0,0,0,0,0,0,0,0,0,0,0,0,0,0,0,0,0,0,0,0,0,0,0,0,0,0,0,0,0,0,0,0,0,0,0,0,0,0,0,0,0,0,0,0,0,0,0,0,0,0,0,0,0,0,0,0,0,0,0,0,0,0,0,0,0,0,0,0,0,0,0,0,0,0,0,0,0,0,0,0,0,0,0,0,0,0,0,0,0,0,0,0,0,0,0,0,0,0,0,0,0,0,0,0,0,0,0,0,0,0,0,0,0,0,0,0,0,0,0,0,0,0,0,0,0,0,0,0,0,0,0,0,0,0,0,0,0,0,0,0,0,0,0,0,0,0,0,0,0,0,0,0,0,0,0,0,0,0,0,0,0,0,0,0,0,0,0,0,0,0,0,0,0,0,0,0,0,0,0,0,0,0,0,0,0,0,0,0,0,0,0,0,0,0,0,0,0,0,0,0,0,0,0,0,0,0,0,0,0,0,0,0,0,0,0,0,0,0,0,0,0,0,0,0,0,0,0,0,0,0,0,0,0,0,0,0,0,0,0,0,0,0,0,0,0,0,0,0,0,0,0,0,0,0,0,0,0,0,0,0,0,0,0,0,0,0,0,0,0,0,0,0,0,0,0,0,0,0,0,0,0,0,0,0,0,0,0,0,0,0,0,0,0,0,0,0,0,0,0,0,0,0,0,0,0,0,0,0,0,0,0,0,0,0,0,0,0,0,0,0,0,0,0,0,0,0,0,0,0,0,0,0,0,0,0,0,0,0,0,0,0,0,0,0,0,0,0,0,0,0,0,0,0,0,0,0,0,0,0,0,0,0,0,0,0,0,0,0,0,0,0,0,0,0,0,0,0,0,0,0,0,0,0,0,0,0,0,0,0,0,0,0,0,0,0,0,0,0,0,0,194,195,196,197,195,196,197,198,0,0,0,0,0,0,0,194,195,196,197,195,196,197,195,196,197,195,198,0,0,0,0,0,0,0,0,0,0,0,0,0,0,0,0,0,0,0,0,0,0,0,0,0,0,0,0,0,0,0,0,0,0,0,0,0,0,0,0,0,0,0,0,0,10165,0,0,4170,4175,4172,4173,4174,4175,4176,4177,0,0,0,0,0,0,0,294,295,296,297,295,296,297,295,296,297,295,298,0,0,0,0,0,0,0,0,0,0,0,0,0,0,0,0,0,0,0,0,0,0,0,0,0,0,0,0,0,0,0,0,0,0,0,0,0,194,195,196,198,10081,10082,10082,10082,10082,10083,0,0,0,0,0,0,0,0,0,0,0,0,0,0,0,0,394,395,396,397,395,396,397,395,396,397,395,398,0,0,0,0,0,0,0,0,0,0,0,0,0,0,0,0,0,0,0,0,0,0,0,0,0,0,0,0,0,0,0,0,0,0,0,0,0,294,295,296,298,10084,10085,10085,10085,10085,10086,0,0,0,0,0,0,0,0,0,0,0,0,0,0,0,0,3021,3022,3023,3024,3025,3022,3023,3024,3025,3022,3023,3026,0,0,0,0,0,0,0,0,0,0,0,0,0,0,0,0,0,0,10165,0,0,0,0,0,0,0,0,0,0,0,0,0,0,0,0,0,0,594,595,596,598,3557,3558,3559,3560,3561,3562,0,0,0,0,0,0,0,0,0,0,0,0,0,0,0,0,0,0,0,0,0,0,0,0,0,0,0,0,0,0,0,0,0,0,0,0,0,0,0,0,0,0,10071,10072,10072,10072,10072,10073,0,0,0,0,0,0,0,0,0,0,0,0,0,0,0,0,0,0,3149,3150,0,3657,3658,3659,3660,3661,3662,0,0,0,0,0,0,0,0,0,0,0,0,0,0,0,0,0,0,0,0,0,0,0,0,0,0,0,0,0,194,195,196,197,195,196,197,195,198,0,0,0,0,10074,10075,10075,10075,10075,10076,0,0,0,0,0,0,0,0,0,0,0,0,0,0,0,0,0,0,3086,3087,0,0,0,3086,3087,0,0,0,0,0,0,0,0,0,0,0,0,0,0,0,0,0,0,0,0,0,0,0,0,0,0,0,0,0,0,0,294,295,296,297,295,296,297,295,298,0,0,0,0,10077,10078,10078,10078,10078,10079,0,0,0,0,0,0,0,0,0,0,0,0,0,0,0,0,0,0,0,0,0,0,0,0,0,0,0,0,0,0,0,0,0,0,0,0,0,0,0,0,0,0,0,0,0,0,0,0,3088,3089,0,0,0,0,0,0,3021,3022,3023,3024,3025,3022,3023,3024,3026,0,0,0,0,0,0,0,0,0,0,0,0,0,0,0,0,0,0,0,0,0,0,0,0,0,0,0,0,0,0,0,0,0,0,0,0,0,0,0,0,0,0,0,0,0,0,0,0,0,0,0,0,0,0,0,0,0,0,0,0,0,0,0,0,0,0,0,0,0,0,0,0,0,0,0,0,0,0,0,0,0,0,10266,0,0,0,0,0,0,0,0,0,0,0,0,0,0,0,0,0,0,0,0,0,0,0,0,0,0,0,0,0,0,0,0,0,0,0,0,0,0,0,0,0,0,0,0,0,0,0,0,0,0,0,0,0,0,0,0,0,0,0,0,0,0,0,0,0,0,0,0,0,0,0,0,0,3086,3087,10265,0,0,0,0,0,0,0,0,0,0,0,0,0,0,0,0,0,0,0,0,0,0,0,0,0,0,0,0,0,0,0,0,0,0,0,0,0,0,0,0,0,0,0,0,0,0,0,0,0,0,0,0,0,0,0,0,0,0,0,0,0,0,0,0,0,0,0,0,0,0,0,0,0,0,0,0,0,0,0,0,0,0,0,0,0,0,0,0,0,0,0,0,0,0,0,0,0,0,0,0,0,0,0,0,0,0,0,0,0,0,0,0,0,0,0,0,0,0,0,0,0,0,0,0,0,0,0,0,0,0,0,0,0,0,0,3088,3089,0,0,0,0,0,0,0,0,10291,0,0,0,0,0,0,0,0,0,0,0,0,0,0,0,0,0,0,0,0,0,0,0,0,0,0,0,0,0,0,0,0,0,0,0,0,0,0,0,0,0,0,0,0,10258,0,0,0,10258,0,0,0,0,0,0,0,0,0,0,0,0,0,0,0,0,0,0,0,0,0,0,0,0,0,0,0,0,0,0,0,0,0,0,0,0,0,0,0,0,0,0,0,0,0,0,0,0,0,0,0,0,0,0,0,0,0,0,0,0,0,0,0,0,0,0,0,0,0,0,0,0,0,0,0,0,0,0,0,0,0,0,0,0,0,0,0,0,0,0,0,0,0,0,0,0,0,0,0,0,0,0,0,0,0,0,0,0,0,0,0,0,0,0,0,0,0,0,0,0,0,0,0,0,0,0,0,0,0,0,0,0,0,0,0,0,0,0,0,0,0,0,0,0,0,0,0,0,0,0,0,0,0,0,0,0,0,0,0,0,0,0,0,0,0,0,0,0,0,0,0,0,0,0,0,0,0,0,0,0,0,0,0,0,0,0,0,0,0,0,0,0,0,0,0,0,0,0,0,0,0,0,0,0,0,0,0,0,0,0,0,0,0,0,0,0,0,0,0,0,0,0,0,0,0,0,0,0,0,0,0,0,0,0,0,0,0,0,0,0,0,0,0,0,0,0,0,0,0,0,0,0,0,0,0,0,0,0,0,0,0,0,0,0,0,0,0,0,0,0,0,0,0,0,0,0,0,0,0,0,0,0,0,0,0,0,0,0,0,0,0,0,0,0,0,0,0,0,0,0,0,0,0,0,0,0,0,0,0,0,0,0,0,0,0,0,0,0,0,0,0,0,0,0,0,0,0,0,0,0,0,0,0,0,0,0,0,0,0,0,0,0,0,0,0,0,0,0,0,0,0,0,0,0,0,10263,0,0,0,0,0,0,0,0,0,0,0,0,0,0,10258,0,0,0,10258,0,0,0,0,0,0,0,0,0,0,0,0,0,0,0,0,0,0,0,0,10291,0,0,0,0,0,0,0,0,0,0,0,0,0,0,0,0,0,0,0,0,0,0,0,0,0,0,0,0,0,0,0,0,0,0,0,0,0,0,0,0,0,0,0,0,0,0,0,10165,0,0,0,0,0,0,0,0,0,0,0,0,0,0,0,10165,0,0,0,0,0,0,0,0,0,0,0,0,0,0,0,0,0,10081,10082,10082,10083,10071,10072,10072,10073,10081,10082,10082,10083,10071,10072,10072,10073,10081,10082,10082,10083,10071,10072,10072,10073,10081,10082,10082,10083,0,0,0,0,0,194,195,196,198,10081,10082,10082,10082,10082,10083,0,0,0,0,0,0,0,0,10081,10082,10082,10082,10082,10082,10082,10083,0,194,195,196,197,195,196,197,198,0,0,0,0,0,0,0,10084,10085,10085,10086,10074,10075,10075,10076,10084,10085,10085,10086,10074,10075,10075,10076,10084,10085,10085,10086,10074,10075,10075,10076,10084,10085,10085,10086,0,0,0,0,0,294,295,296,298,10084,10085,10085,10085,10085,10086,0,0,0,0,0,0,0,0,10084,10085,10085,10085,10085,10085,10085,10086,0,4178,4183,4179,4180,4181,4182,4183,4185,0,0,0,0,0,0,0,10087,10088,10088,10089,10077,10078,10078,10079,10087,10088,10088,10089,10077,10078,10078,10079,10087,10088,10088,10089,10077,10078,10078,10079,10087,10088,10088,10089,0,0,0,0,0,594,595,596,598,3557,3558,3559,3560,3561,3562,0,0,0,0,0,0,0,0,10084,10085,10085,10085,10085,10085,10085,10086,0,0,0,0,0,0,0,0,0,0,0,0,0,0,0,0,0,0,0,0,0,0,0,0,0,0,0,0,0,0,0,0,0,0,0,0,0,0,0,0,0,0,0,0,0,0,0,0,0,0,3153,3154,0,3657,3658,3659,3660,3661,3662,0,0,0,0,0,0,0,0,10087,10088,10088,10088,10088,10088,10088,10089,0,0,0,0,0,0,0,0,0,0,0,0,0,0,0,0,0,3086,3087,0,0,3086,3087,0,0,3086,3087,0,0,3086,3087,0,0,3086,3087,0,0,3086,3087,0,0,3086,3087,0,0,0,0,0,0,0,3086,3087,0,0,0,3086,3087,0,0,0,0,0,0,0,0,0,0,0,0,0,0,0,3149,3150,0,0,0,0,0,0,0,0,0,0,0,0,0,0,0,0,0,0,0,0,0,0,0,0,0,0,0,0,0,0,0,0,0,0,0,0,0,0,0,0,0,0,0,0,0,0,0,0,0,0,0,0,0,0,0,0,0,0,0,0,0,0,0,0,0,0,0,0,0,0,0,3086,3087,0,0,0,0,0,0,0,0,0,0,0,0,0,0,0,0,0,0,0,0,0,0,0,0,0,0,0,0,0,0,0,0,0,0,0,0,0,0,0,0,0,0,0,0,0,0,0,0,0,0,0,0,0,0,0,0,0,0,0,0,0,0,0,0,0,0,0,0,0,0,0,0,0,0,0,0,0,0,0,0,0,0,0,0,0,0,0,0,0,0,0,0,0,0,0,0,10165,0,0,0,0,0,0,10165,0,0,0,0,0,0,10165,0,0,0,0,0,0,0,0,0,0,0,0,0,0,0,0,0,0,0,0,0,0,0,0,0,0,0,0,0,0,0,0,0,0,0,0,0,0,0,0,0,0,0,0,0,0,0,0,0,0,0,0,0,0,0,0,10081,10082,10082,10082,10082,10083,0,10081,10082,10082,10082,10082,10083,0,10071,10072,10072,10072,10072,10073,0,0,194,195,196,197,195,196,197,198,0,0,0,0,0,0,0,0,0,0,0,0,0,0,0,0,0,0,0,0,0,0,0,0,0,0,0,0,0,0,0,0,0,0,0,0,0,0,0,0,0,0,0,0,0,10084,10085,10085,10085,10085,10086,0,10084,10085,10085,10085,10085,10086,0,10074,10075,10075,10075,10075,10076,0,0,3021,3022,3023,3024,3025,3022,3023,3026,0,0,0,0,0,0,0,0,0,0,0,0,0,0,0,0,0,0,0,0,0,0,0,0,0,0,0,0,0,0,0,0,0,0,0,0,0,0,0,0,0,0,0,0,0,10087,10088,10088,10088,10088,10089,0,10087,10088,10088,10088,10088,10089,0,10077,10078,10078,10078,10078,10079,0,0,0,0,0,0,0,0,0,0,0,0,0,0,0,0,0,0,0,0,0,0,0,0,0,0,0,0,0,0,0,0,0,0,0,0,0,0,0,0,0,0,0,4178,4183,4179,4180,4181,4182,4183,4185,0,0,0,0,0,0,0,0,0,0,0,0,0,0,0,0,0,0,0,0,0,0,0,0,0,0,0,0,0,0,0,0,0,0,0,0,0,0,0,0,0,0,0,0,0,0,0,0,0,0,0,0,0,0,0,0,0,0,0,0,0,0,0,0,0,0,0,0,0,0,0,0,0,0,0,0,0,0,0,0,0,0,10266,0,0,0,0,0,0,10266,0,0,0,0,0,0,10266,0,0,0,0,0,0,0,0,0,0,0,0,0,0,0,0,0,0,0,0,0,0,0,0,0,0,0,0,0,0,0,0,0,0,0,0,0,0,0,0,0,0,0,0,0,0,0,0,0,0,0,0,0,0,0,0,0,0,0,3086,3087,10265,0,0,0,0,3086,3087,10265,0,0,0,0,3086,3087,10265,0,0,0,0,0,0,3086,3087,0,0,0,0,0,0,0,0,0,0,0,0,0,0,0,0,0,0,0,0,0,0,0,0,0,0,0,0,0,0,0,0,0,0,0,0,0,0,0,0,0,0,0,0,0,0,0,0,0,0,0,0,0,0,0,0,0,0,0,0,0,0,0,0,0,0,0,0,0,0,0,0,0,0,0,0,0,0,0,0,0,0,0,0,0,0,0,0,0,0,0,0,0,0,0,0,0,0,0,0,0,0,0,0,0,0,0,0,0,0,0,0,0,0,0,0,0,0,0,0,0,0,0,0,0,0,0,0,0,0,0,0,0,0,0,0,0,0,0,0,0,0,0,0,0,0,0,0,0,0,0,0,0,0,0,0,0,0,0,0,0,0,0,0,0,0,0,0,0,0,0,0,0,0,0,0,0,0,0,0,0,0,0,0,0,0,0,0,0,0,0,0,0,0,0,0,0,0,0,0,0,0,0,0,0,0,0,0,0,0,0,0,0,0,0,0,0,0,0,0,0,0,0,0,0,0,0,0,0,0,0,0,0,0,0,0,0,0,0,0,0,0,0,0,0,0,0,0,0,0,0,0,0,0,0,0,0,0,0,0,0,0,0,0,0,0,0,0,0,0,0,0,0,0,0,0,0,0,0,0,0,0,0,0,0,0,0,0,0,0,0,0,0,0,0,0,0,0,0,0,0,0,0,0,0,0,0,0,0,0,0,0,0,0,0,0,0,0,0,0,0,0,0,0,0,0,0,0,0,0,0,0,0,0,0,0,0,0,0,0,0,0,0,0,0,0,0,0,0,0,0,0,0,0,0,0,0,0,0,0,0,0,0,0,0,0,0,0,0,0,0,0,0,0,0,0,0,0,0,0,0,0,0,0,0,0,0,0,0,0,0,0,0,0,0,0,0,0,0,0,0,0,0,0,0,0,0,0,0,0,0,0,0,0,0,0,0,0,0,0,0,0,0,0,0,0,0,0,0,0,0,0,0,0,0,0,0,0,0,0,0,0,0,0,0,0,0,0,0,0,0,0,0,0,0,0,0,0,0,0,0,0,0,0,0,0,0,0,0,0,0,0,0,0,0,0,0,0,0,0,0,0,0,0,0,0,0,0,0,0,0,0,0,0,0,0,0,0,0,0,0,0,0,0,0,0,0,0,0,0,0,0,0,0,0,0,0,0,0,0,0,0,0,0,0,0,0,0,10291,0,0,0,0,0,0,0,0,0,0,0,0,0,0,0,0,0,0,10291,0,0,0,0,0,0,0,0,0,0,0,0,0,0,0,0,0,0,0,0,0,0,0,0,0,0,0,0,0,0,0,0,0,0,0,0,0,0,0,0,0,0,0,0,0,0,0,0,0,0,0,0,0,0,0,0,0,0,0,0,0,0,0,0,0,0,0,0,0,0,0,0,0,0,0,0,0,0,0,0,0,0,0,0,0,0,0,0,0,0,0,0,0,0,0,0,0,0,0,0,0,0,0,0,0,0,0,0,0,0,0,0,0,0,0,0,0,0,0,0,0,0,0,0,0,0,0,0,0,0,0,0,0,0,0,0,0,0,0,0,0,0,0,0,0,0,0,0,0,0,0,0,0,0,0,0,0,0,0,0,0,0,0,0,0,0,0,0,0,0,0,0,0,0,0,0,0,0,0,0,0,0,0,0,0,0,0,0,0,0,0,0,0,0,0,0,0,0,0,0,0,0,0,0,0,0,0,0,0,0,0,0,0,0,0,0,0,0,0,0,0,0,0,0,0,0,0,0,0,0,0,0,0,0,0,0,0,0,0,0,0,0,0,0,0,0,0,0]},{"id":6,"name":"collision","type":"objectgroup","visible":true,"opacity":1,"x":0,"y":0,"draworder":"topdown","objects":[{"id":1,"name":"","type":"","rotation":0,"visible":true,"x":128,"y":32,"width":176,"height":16},{"id":2,"name":"","type":"","rotation":0,"visible":true,"x":96,"y":48,"width":240,"height":16},{"id":3,"name":"","type":"","rotation":0,"visible":true,"x":80,"y":64,"width":272,"height":16},{"id":4,"name":"","type":"","rotation":0,"visible":true,"x":64,"y":80,"width":304,"height":16},{"id":5,"name":"","type":"","rotation":0,"visible":true,"x":64,"y":96,"width":304,"height":16},{"id":6,"name":"","type":"","rotation":0,"visible":true,"x":80,"y":112,"width":272,"height":16},{"id":7,"name":"","type":"","rotation":0,"visible":true,"x":96,"y":128,"width":240,"height":16},{"id":8,"name":"","type":"","rotation":0,"visible":true,"x":128,"y":144,"width":176,"height":16},{"id":9,"name":"","type":"","rotation":0,"visible":true,"x":224,"y":176,"width":80,"height":16},{"id":10,"name":"","type":"","rotation":0,"visible":true,"x":176,"y":192,"width":160,"height":16},{"id":11,"name":"","type":"","rotation":0,"visible":true,"x":160,"y":208,"width":192,"height":16},{"id":12,"name":"","type":"","rotation":0,"visible":true,"x":144,"y":224,"width":208,"height":16},{"id":13,"name":"","type":"","rotation":0,"visible":true,"x":128,"y":240,"width":240,"height":16},{"id":14,"name":"","type":"","rotation":0,"visible":true,"x":144,"y":256,"width":144,"height":16},{"id":15,"name":"","type":"","rotation":0,"visible":true,"x":320,"y":256,"width":48,"height":16},{"id":16,"name":"","type":"","rotation":0,"visible":true,"x":160,"y":272,"width":128,"height":16},{"id":17,"name":"","type":"","rotation":0,"visible":true,"x":320,"y":272,"width":32,"height":16},{"id":18,"name":"","type":"","rotation":0,"visible":true,"x":192,"y":288,"width":96,"height":16},{"id":19,"name":"","type":"","rotation":0,"visible":true,"x":320,"y":288,"width":16,"height":16},{"id":20,"name":"","type":"","rotation":0,"visible":true,"x":400,"y":144,"width":64,"height":96},{"id":21,"name":"","type":"","rotation":0,"visible":true,"x":464,"y":144,"width":96,"height":96},{"id":22,"name":"","type":"","rotation":0,"visible":true,"x":464,"y":256,"width":32,"height":16},{"id":23,"name":"","type":"","rotation":0,"visible":true,"x":464,"y":272,"width":32,"height":16},{"id":24,"name":"","type":"","rotation":0,"visible":true,"x":464,"y":304,"width":32,"height":16},{"id":25,"name":"","type":"","rotation":0,"visible":true,"x":544,"y":288,"width":32,"height":16},{"id":26,"name":"","type":"","rotation":0,"visible":true,"x":560,"y":304,"width":16,"height":16},{"id":27,"name":"","type":"","rotation":0,"visible":true,"x":576,"y":112,"width":128,"height":112},{"id":28,"name":"","type":"","rotation":0,"visible":true,"x":816,"y":112,"width":192,"height":144},{"id":29,"name":"","type":"","rotation":0,"visible":true,"x":832,"y":288,"width":16,"height":32},{"id":30,"name":"","type":"","rotation":0,"visible":true,"x":848,"y":288,"width":16,"height":32},{"id":31,"name":"","type":"","rotation":0,"visible":true,"x":864,"y":304,"width":16,"height":16},{"id":32,"name":"","type":"","rotation":0,"visible":true,"x":928,"y":288,"width":16,"height":32},{"id":33,"name":"","type":"","rotation":0,"visible":true,"x":944,"y":288,"width":16,"height":32},{"id":34,"name":"","type":"","rotation":0,"visible":true,"x":960,"y":288,"width":16,"height":32},{"id":35,"name":"","type":"","rotation":0,"visible":true,"x":992,"y":304,"width":16,"height":16},{"id":36,"name":"","type":"","rotation":0,"visible":true,"x":1024,"y":192,"width":144,"height":128},{"id":37,"name":"","type":"","rotation":0,"visible":true,"x":64,"y":416,"width":64,"height":96},{"id":38,"name":"","type":"","rotation":0,"visible":true,"x":128,"y":416,"width":64,"height":96},{"id":39,"name":"","type":"","rotation":0,"visible":true,"x":192,"y":416,"width":64,"height":96},{"id":40,"name":"","type":"","rotation":0,"visible":true,"x":256,"y":416,"width":64,"height":96},{"id":41,"name":"","type":"","rotation":0,"visible":true,"x":320,"y":416,"width":64,"height":96},{"id":42,"name":"","type":"","rotation":0,"visible":true,"x":384,"y":416,"width":64,"height":96},{"id":43,"name":"","type":"","rotation":0,"visible":true,"x":448,"y":416,"width":64,"height":96},{"id":44,"name":"","type":"","rotation":0,"visible":true,"x":32,"y":544,"width":96,"height":112},{"id":45,"name":"","type":"","rotation":0,"visible":true,"x":144,"y":544,"width":96,"height":112},{"id":46,"name":"","type":"","rotation":0,"visible":true,"x":256,"y":544,"width":96,"height":112},{"id":47,"name":"","type":"","rotation":0,"visible":true,"x":240,"y":592,"width":16,"height":32},{"id":48,"name":"","type":"","rotation":0,"visible":true,"x":384,"y":544,"width":128,"height":112},{"id":49,"name":"","type":"","rotation":0,"visible":true,"x":32,"y":192,"width":96,"height":112},{"id":50,"name":"","type":"","rotation":0,"visible":true,"x":656,"y":416,"width":96,"height":96},{"id":51,"name":"","type":"","rotation":0,"visible":true,"x":592,"y":416,"width":64,"height":96},{"id":52,"name":"","type":"","rotation":0,"visible":true,"x":1024,"y":416,"width":128,"height":112},{"id":53,"name":"","type":"","rotation":0,"visible":true,"x":880,"y":416,"width":128,"height":112},{"id":54,"name":"","type":"","rotation":0,"visible":true,"x":1040,"y":576,"width":128,"height":96},{"id":55,"name":"","type":"","rotation":0,"visible":true,"x":816,"y":64,"width":192,"height":32},{"id":56,"name":"","type":"","rotation":0,"visible":true,"x":1008,"y":208,"width":32,"height":32},{"id":57,"name":"","type":"","rotation":0,"visible":true,"x":868.8,"y":324.8,"width":6.4,"height":11.2},{"id":58,"name":"","type":"","rotation":0,"visible":true,"x":932.8,"y":324.8,"width":6.4,"height":11.2},{"id":59,"name":"","type":"","rotation":0,"visible":true,"x":560,"y":240,"width":32,"height":32},{"id":60,"name":"","type":"","rotation":0,"visible":true,"x":672,"y":240,"width":64,"height":64},{"id":61,"name":"","type":"","rotation":0,"visible":true,"x":752,"y":272,"width":16,"height":16},{"id":62,"name":"","type":"","rotation":0,"visible":true,"x":560,"y":272,"width":32,"height":32},{"id":63,"name":"","type":"","rotation":0,"visible":true,"x":544,"y":192,"width":16,"height":16},{"id":64,"name":"","type":"","rotation":0,"visible":true,"x":704,"y":64,"width":16,"height":16},{"id":65,"name":"","type":"","rotation":0,"visible":true,"x":596.0,"y":292.0,"width":8.0,"height":12.0},{"id":66,"name":"","type":"","rotation":0,"visible":true,"x":704,"y":208,"width":48,"height":16},{"id":67,"name":"","type":"","rotation":0,"visible":true,"x":385.6,"y":244.8,"width":12.8,"height":11.2},{"id":68,"name":"","type":"","rotation":0,"visible":true,"x":451.2,"y":244.8,"width":9.6,"height":11.2},{"id":69,"name":"","type":"","rotation":0,"visible":true,"x":563.2,"y":244.8,"width":9.6,"height":11.2},{"id":70,"name":"","type":"","rotation":0,"visible":true,"x":419.2,"y":324.8,"width":9.6,"height":11.2},{"id":71,"name":"","type":"","rotation":0,"visible":true,"x":483.2,"y":323.2,"width":9.6,"height":12.8},{"id":72,"name":"","type":"","rotation":0,"visible":true,"x":176,"y":304,"width":16,"height":16},{"id":73,"name":"","type":"","rotation":0,"visible":true,"x":256,"y":304,"width":16,"height":16},{"id":74,"name":"","type":"","rotation":0,"visible":true,"x":336,"y":288,"width":32,"height":16},{"id":75,"name":"","type":"","rotation":0,"visible":true,"x":400,"y":240,"width":16,"height":16},{"id":76,"name":"","type":"","rotation":0,"visible":true,"x":144,"y":192,"width":16,"height":16},{"id":77,"name":"","type":"","rotation":0,"visible":true,"x":356.0,"y":196.0,"width":8.0,"height":12.0},{"id":78,"name":"","type":"","rotation":0,"visible":true,"x":16,"y":48,"width":16,"height":16},{"id":79,"name":"","type":"","rotation":0,"visible":true,"x":32,"y":128,"width":16,"height":16},{"id":80,"name":"","type":"","rotation":0,"visible":true,"x":384,"y":48,"width":16,"height":16},{"id":81,"name":"","type":"","rotation":0,"visible":true,"x":400,"y":80,"width":16,"height":16},{"id":82,"name":"","type":"","rotation":0,"visible":true,"x":32,"y":416,"width":16,"height":96},{"id":83,"name":"","type":"","rotation":0,"visible":true,"x":51.2,"y":483.2,"width":9.6,"height":12.8},{"id":84,"name":"","type":"","rotation":0,"visible":true,"x":385.6,"y":697.6,"width":28.8,"height":19.2},{"id":85,"name":"","type":"","rotation":0,"visible":true,"x":387.2,"y":692.8,"width":9.6,"height":11.2},{"id":86,"name":"","type":"","rotation":0,"visible":true,"x":480,"y":688,"width":16,"height":16},{"id":87,"name":"","type":"","rotation":0,"visible":true,"x":500.0,"y":692.0,"width":8.0,"height":12.0},{"id":88,"name":"","type":"","rotation":0,"visible":true,"x":132.0,"y":692.0,"width":8.0,"height":12.0},{"id":89,"name":"","type":"","rotation":0,"visible":true,"x":324.0,"y":692.0,"width":8.0,"height":12.0},{"id":90,"name":"","type":"","rotation":0,"visible":true,"x":64,"y":720,"width":16,"height":16},{"id":91,"name":"","type":"","rotation":0,"visible":true,"x":192,"y":736,"width":16,"height":16},{"id":92,"name":"","type":"","rotation":0,"visible":true,"x":288,"y":720,"width":16,"height":16},{"id":93,"name":"","type":"","rotation":0,"visible":true,"x":432,"y":736,"width":16,"height":16},{"id":94,"name":"","type":"","rotation":0,"visible":true,"x":740.8,"y":532.8,"width":6.4,"height":11.2},{"id":95,"name":"","type":"","rotation":0,"visible":true,"x":672,"y":528,"width":16,"height":16},{"id":96,"name":"","type":"","rotation":0,"visible":true,"x":723.2,"y":532.8,"width":9.6,"height":11.2},{"id":97,"name":"","type":"","rotation":0,"visible":true,"x":720,"y":560,"width":16,"height":48},{"id":98,"name":"","type":"","rotation":0,"visible":true,"x":644.0,"y":532.0,"width":8.0,"height":12.0},{"id":99,"name":"","type":"","rotation":0,"visible":true,"x":592,"y":576,"width":16,"height":16},{"id":100,"name":"","type":"","rotation":0,"visible":true,"x":848,"y":528,"width":16,"height":16},{"id":101,"name":"","type":"","rotation":0,"visible":true,"x":1011.2,"y":532.8,"width":9.6,"height":11.2},{"id":102,"name":"","type":"","rotation":0,"visible":true,"x":1008,"y":480,"width":32,"height":32},{"id":103,"name":"","type":"","rotation":0,"visible":true,"x":1156.8,"y":548.8,"width":6.4,"height":11.2},{"id":104,"name":"","type":"","rotation":0,"visible":true,"x":868.0,"y":548.0,"width":8.0,"height":12.0},{"id":105,"name":"","type":"","rotation":0,"visible":true,"x":1140.0,"y":548.0,"width":8.0,"height":12.0},{"id":106,"name":"","type":"","rotation":0,"visible":true,"x":864,"y":576,"width":64,"height":16},{"id":107,"name":"","type":"","rotation":0,"visible":true,"x":960,"y":576,"width":64,"height":16},{"id":108,"name":"","type":"","rotation":0,"visible":true,"x":864,"y":704,"width":160,"height":16},{"id":109,"name":"","type":"","rotation":0,"visible":true,"x":864,"y":592,"width":16,"height":112},{"id":110,"name":"","type":"","rotation":0,"visible":true,"x":1008,"y":592,"width":16,"height":112},{"id":111,"name":"","type":"","rotation":0,"visible":true,"x":896,"y":624,"width":16,"height":16},{"id":112,"name":"","type":"","rotation":0,"visible":true,"x":896,"y":672,"width":16,"height":16},{"id":113,"name":"","type":"","rotation":0,"visible":true,"x":976,"y":624,"width":16,"height":16},{"id":114,"name":"","type":"","rotation":0,"visible":true,"x":976,"y":672,"width":16,"height":16},{"id":115,"name":"","type":"","rotation":0,"visible":true,"x":832,"y":608,"width":16,"height":16},{"id":116,"name":"","type":"","rotation":0,"visible":true,"x":1060.0,"y":692.0,"width":8.0,"height":12.0},{"id":117,"name":"","type":"","rotation":0,"visible":true,"x":1139.2,"y":691.2,"width":9.6,"height":12.8},{"id":118,"name":"","type":"","rotation":0,"visible":true,"x":84.0,"y":308.0,"width":8.0,"height":12.0},{"id":119,"name":"","type":"","rotation":0,"visible":true,"x":340.0,"y":308.0,"width":8.0,"height":12.0},{"id":120,"name":"","type":"","rotation":0,"visible":true,"x":724.0,"y":308.0,"width":8.0,"height":12.0},{"id":121,"name":"","type":"","rotation":0,"visible":true,"x":1012.0,"y":308.0,"width":8.0,"height":12.0},{"id":122,"name":"","type":"","rotation":0,"visible":true,"x":196.0,"y":388.0,"width":8.0,"height":12.0},{"id":123,"name":"","type":"","rotation":0,"visible":true,"x":484.0,"y":388.0,"width":8.0,"height":12.0},{"id":124,"name":"","type":"","rotation":0,"visible":true,"x":644.0,"y":388.0,"width":8.0,"height":12.0},{"id":125,"name":"","type":"","rotation":0,"visible":true,"x":900.0,"y":388.0,"width":8.0,"height":12.0},{"id":126,"name":"","type":"","rotation":0,"visible":true,"x":1092.0,"y":388.0,"width":8.0,"height":12.0},{"id":127,"name":"","type":"","rotation":0,"visible":true,"x":420.8,"y":404.8,"width":6.4,"height":11.2},{"id":128,"name":"","type":"","rotation":0,"visible":true,"x":756.0,"y":84.0,"width":8.0,"height":12.0},{"id":129,"name":"","type":"","rotation":0,"visible":true,"x":820.0,"y":180.0,"width":8.0,"height":12.0},{"id":130,"name":"","type":"","rotation":0,"visible":true,"x":516.0,"y":740.0,"width":8.0,"height":12.0},{"id":131,"name":"","type":"","rotation":0,"visible":true,"x":757.6,"y":324.8,"width":4.8,"height":11.2},{"id":132,"name":"","type":"","rotation":0,"visible":true,"x":821.6,"y":324.8,"width":4.8,"height":11.2},{"id":133,"name":"","type":"","rotation":0,"visible":true,"x":757.6,"y":404.8,"width":4.8,"height":11.2},{"id":134,"name":"","type":"","rotation":0,"visible":true,"x":821.6,"y":404.8,"width":4.8,"height":11.2},{"id":135,"name":"","type":"","rotation":0,"visible":true,"x":517.6,"y":404.8,"width":4.8,"height":11.2},{"id":136,"name":"","type":"","rotation":0,"visible":true,"x":464,"y":64,"width":16,"height":16},{"id":137,"name":"","type":"","rotation":0,"visible":true,"x":528,"y":48,"width":16,"height":16},{"id":138,"name":"","type":"","rotation":0,"visible":true,"x":640,"y":48,"width":16,"height":16},{"id":139,"name":"","type":"","rotation":0,"visible":true,"x":1040,"y":32,"width":16,"height":16},{"id":140,"name":"","type":"","rotation":0,"visible":true,"x":1104,"y":16,"width":16,"height":16},{"id":141,"name":"","type":"","rotation":0,"visible":true,"x":1168,"y":48,"width":16,"height":16},{"id":142,"name":"","type":"","rotation":0,"visible":true,"x":1072,"y":96,"width":16,"height":16},{"id":143,"name":"","type":"","rotation":0,"visible":true,"x":1152,"y":112,"width":16,"height":16},{"id":144,"name":"","type":"","rotation":0,"visible":true,"x":608,"y":704,"width":16,"height":16},{"id":145,"name":"","type":"","rotation":0,"visible":true,"x":656,"y":736,"width":16,"height":16},{"id":146,"name":"","type":"","rotation":0,"visible":true,"x":608,"y":480,"width":16,"height":16},{"id":147,"name":"","type":"","rotation":0,"visible":true,"x":704,"y":752,"width":16,"height":16},{"id":148,"name":"","type":"","rotation":0,"visible":true,"x":864,"y":768,"width":16,"height":16},{"id":149,"name":"","type":"","rotation":0,"visible":true,"x":1152,"y":736,"width":16,"height":16},{"id":150,"name":"","type":"","rotation":0,"visible":true,"x":1168,"y":672,"width":16,"height":16},{"id":151,"name":"","type":"","rotation":0,"visible":true,"x":0,"y":-16,"width":1200,"height":16},{"id":152,"name":"","type":"","rotation":0,"visible":true,"x":0,"y":800,"width":1200,"height":16},{"id":153,"name":"","type":"","rotation":0,"visible":true,"x":-16,"y":0,"width":16,"height":800},{"id":154,"name":"","type":"","rotation":0,"visible":true,"x":1200,"y":0,"width":16,"height":800},{"id":155,"name":"","type":"","rotation":0,"visible":true,"x":16,"y":16,"width":16,"height":16},{"id":156,"name":"","type":"","rotation":0,"visible":true,"x":48,"y":16,"width":16,"height":16},{"id":157,"name":"","type":"","rotation":0,"visible":true,"x":112,"y":16,"width":16,"height":16},{"id":158,"name":"","type":"","rotation":0,"visible":true,"x":176,"y":16,"width":16,"height":16},{"id":159,"name":"","type":"","rotation":0,"visible":true,"x":240,"y":16,"width":16,"height":16},{"id":160,"name":"","type":"","rotation":0,"visible":true,"x":272,"y":16,"width":16,"height":16},{"id":161,"name":"","type":"","rotation":0,"visible":true,"x":304,"y":16,"width":16,"height":16},{"id":162,"name":"","type":"","rotation":0,"visible":true,"x":368,"y":16,"width":16,"height":16},{"id":163,"name":"","type":"","rotation":0,"visible":true,"x":400,"y":16,"width":16,"height":16},{"id":164,"name":"","type":"","rotation":0,"visible":true,"x":432,"y":16,"width":16,"height":16},{"id":165,"name":"","type":"","rotation":0,"visible":true,"x":464,"y":16,"width":16,"height":16},{"id":166,"name":"","type":"","rotation":0,"visible":true,"x":496,"y":16,"width":16,"height":16},{"id":167,"name":"","type":"","rotation":0,"visible":true,"x":528,"y":16,"width":16,"height":16},{"id":168,"name":"","type":"","rotation":0,"visible":true,"x":560,"y":16,"width":16,"height":16},{"id":169,"name":"","type":"","rotation":0,"visible":true,"x":592,"y":16,"width":16,"height":16},{"id":170,"name":"","type":"","rotation":0,"visible":true,"x":624,"y":16,"width":16,"height":16},{"id":171,"name":"","type":"","rotation":0,"visible":true,"x":656,"y":16,"width":16,"height":16},{"id":172,"name":"","type":"","rotation":0,"visible":true,"x":688,"y":16,"width":16,"height":16},{"id":173,"name":"","type":"","rotation":0,"visible":true,"x":720,"y":16,"width":16,"height":16},{"id":174,"name":"","type":"","rotation":0,"visible":true,"x":848,"y":16,"width":16,"height":16},{"id":175,"name":"","type":"","rotation":0,"visible":true,"x":880,"y":16,"width":16,"height":16},{"id":176,"name":"","type":"","rotation":0,"visible":true,"x":912,"y":16,"width":16,"height":16},{"id":177,"name":"","type":"","rotation":0,"visible":true,"x":944,"y":16,"width":16,"height":16},{"id":178,"name":"","type":"","rotation":0,"visible":true,"x":976,"y":16,"width":16,"height":16},{"id":179,"name":"","type":"","rotation":0,"visible":true,"x":1008,"y":16,"width":16,"height":16},{"id":180,"name":"","type":"","rotation":0,"visible":true,"x":1072,"y":16,"width":16,"height":16},{"id":181,"name":"","type":"","rotation":0,"visible":true,"x":1136,"y":16,"width":16,"height":16},{"id":182,"name":"","type":"","rotation":0,"visible":true,"x":1168,"y":16,"width":16,"height":16},{"id":183,"name":"","type":"","rotation":0,"visible":true,"x":576,"y":80,"width":16,"height":16},{"id":184,"name":"","type":"","rotation":0,"visible":true,"x":16,"y":784,"width":16,"height":16},{"id":185,"name":"","type":"","rotation":0,"visible":true,"x":48,"y":784,"width":16,"height":16},{"id":186,"name":"","type":"","rotation":0,"visible":true,"x":80,"y":784,"width":16,"height":16},{"id":187,"name":"","type":"","rotation":0,"visible":true,"x":112,"y":784,"width":16,"height":16},{"id":188,"name":"","type":"","rotation":0,"visible":true,"x":144,"y":784,"width":16,"height":16},{"id":189,"name":"","type":"","rotation":0,"visible":true,"x":176,"y":784,"width":16,"height":16},{"id":190,"name":"","type":"","rotation":0,"visible":true,"x":208,"y":784,"width":16,"height":16},{"id":191,"name":"","type":"","rotation":0,"visible":true,"x":240,"y":784,"width":16,"height":16},{"id":192,"name":"","type":"","rotation":0,"visible":true,"x":272,"y":784,"width":16,"height":16},{"id":193,"name":"","type":"","rotation":0,"visible":true,"x":304,"y":784,"width":16,"height":16},{"id":194,"name":"","type":"","rotation":0,"visible":true,"x":336,"y":784,"width":16,"height":16},{"id":195,"name":"","type":"","rotation":0,"visible":true,"x":368,"y":784,"width":16,"height":16},{"id":196,"name":"","type":"","rotation":0,"visible":true,"x":400,"y":784,"width":16,"height":16},{"id":197,"name":"","type":"","rotation":0,"visible":true,"x":432,"y":784,"width":16,"height":16},{"id":198,"name":"","type":"","rotation":0,"visible":true,"x":464,"y":784,"width":16,"height":16},{"id":199,"name":"","type":"","rotation":0,"visible":true,"x":496,"y":784,"width":16,"height":16},{"id":200,"name":"","type":"","rotation":0,"visible":true,"x":592,"y":784,"width":16,"height":16},{"id":201,"name":"","type":"","rotation":0,"visible":true,"x":624,"y":784,"width":16,"height":16},{"id":202,"name":"","type":"","rotation":0,"visible":true,"x":656,"y":784,"width":16,"height":16},{"id":203,"name":"","type":"","rotation":0,"visible":true,"x":688,"y":784,"width":16,"height":16},{"id":204,"name":"","type":"","rotation":0,"visible":true,"x":720,"y":784,"width":16,"height":16},{"id":205,"name":"","type":"","rotation":0,"visible":true,"x":912,"y":784,"width":16,"height":16},{"id":206,"name":"","type":"","rotation":0,"visible":true,"x":944,"y":784,"width":16,"height":16},{"id":207,"name":"","type":"","rotation":0,"visible":true,"x":976,"y":784,"width":16,"height":16},{"id":208,"name":"","type":"","rotation":0,"visible":true,"x":1008,"y":784,"width":16,"height":16},{"id":209,"name":"","type":"","rotation":0,"visible":true,"x":1040,"y":784,"width":16,"height":16},{"id":210,"name":"","type":"","rotation":0,"visible":true,"x":1072,"y":784,"width":16,"height":16},{"id":211,"name":"","type":"","rotation":0,"visible":true,"x":1104,"y":784,"width":16,"height":16},{"id":212,"name":"","type":"","rotation":0,"visible":true,"x":1136,"y":784,"width":16,"height":16},{"id":213,"name":"","type":"","rotation":0,"visible":true,"x":1168,"y":784,"width":16,"height":16},{"id":214,"name":"","type":"","rotation":0,"visible":true,"x":16,"y":80,"width":16,"height":16},{"id":215,"name":"","type":"","rotation":0,"visible":true,"x":1168,"y":80,"width":16,"height":16},{"id":216,"name":"","type":"","rotation":0,"visible":true,"x":1168,"y":144,"width":16,"height":16},{"id":217,"name":"","type":"","rotation":0,"visible":true,"x":1168,"y":176,"width":16,"height":16},{"id":218,"name":"","type":"","rotation":0,"visible":true,"x":16,"y":208,"width":16,"height":16},{"id":219,"name":"","type":"","rotation":0,"visible":true,"x":1168,"y":208,"width":16,"height":16},{"id":220,"name":"","type":"","rotation":0,"visible":true,"x":16,"y":240,"width":16,"height":16},{"id":221,"name":"","type":"","rotation":0,"visible":true,"x":1168,"y":240,"width":16,"height":16},{"id":222,"name":"","type":"","rotation":0,"visible":true,"x":16,"y":272,"width":16,"height":16},{"id":223,"name":"","type":"","rotation":0,"visible":true,"x":1168,"y":272,"width":16,"height":16},{"id":224,"name":"","type":"","rotation":0,"visible":true,"x":16,"y":304,"width":16,"height":16},{"id":225,"name":"","type":"","rotation":0,"visible":true,"x":1168,"y":304,"width":16,"height":16},{"id":226,"name":"","type":"","rotation":0,"visible":true,"x":16,"y":400,"width":16,"height":16},{"id":227,"name":"","type":"","rotation":0,"visible":true,"x":1168,"y":400,"width":16,"height":16},{"id":228,"name":"","type":"","rotation":0,"visible":true,"x":16,"y":432,"width":16,"height":16},{"id":229,"name":"","type":"","rotation":0,"visible":true,"x":1168,"y":432,"width":16,"height":16},{"id":230,"name":"","type":"","rotation":0,"visible":true,"x":16,"y":464,"width":16,"height":16},{"id":231,"name":"","type":"","rotation":0,"visible":true,"x":1168,"y":464,"width":16,"height":16},{"id":232,"name":"","type":"","rotation":0,"visible":true,"x":16,"y":496,"width":16,"height":16},{"id":233,"name":"","type":"","rotation":0,"visible":true,"x":1168,"y":496,"width":16,"height":16},{"id":234,"name":"","type":"","rotation":0,"visible":true,"x":16,"y":528,"width":16,"height":16},{"id":235,"name":"","type":"","rotation":0,"visible":true,"x":1168,"y":528,"width":16,"height":16},{"id":236,"name":"","type":"","rotation":0,"visible":true,"x":16,"y":560,"width":16,"height":16},{"id":237,"name":"","type":"","rotation":0,"visible":true,"x":1168,"y":560,"width":16,"height":16},{"id":238,"name":"","type":"","rotation":0,"visible":true,"x":16,"y":592,"width":16,"height":16},{"id":239,"name":"","type":"","rotation":0,"visible":true,"x":1168,"y":592,"width":16,"height":16},{"id":240,"name":"","type":"","rotation":0,"visible":true,"x":16,"y":624,"width":16,"height":16},{"id":241,"name":"","type":"","rotation":0,"visible":true,"x":1168,"y":624,"width":16,"height":16},{"id":242,"name":"","type":"","rotation":0,"visible":true,"x":16,"y":656,"width":16,"height":16},{"id":243,"name":"","type":"","rotation":0,"visible":true,"x":16,"y":688,"width":16,"height":16},{"id":244,"name":"","type":"","rotation":0,"visible":true,"x":16,"y":720,"width":16,"height":16},{"id":245,"name":"","type":"","rotation":0,"visible":true,"x":16,"y":752,"width":16,"height":16},{"id":246,"name":"","type":"","rotation":0,"visible":true,"x":37.6,"y":324.8,"width":4.8,"height":11.2},{"id":247,"name":"","type":"","rotation":0,"visible":true,"x":1157.6,"y":404.8,"width":4.8,"height":11.2},{"id":248,"name":"","type":"","rotation":0,"visible":true,"x":821.6,"y":36.8,"width":4.8,"height":11.2},{"id":249,"name":"","type":"","rotation":0,"visible":true,"x":821.6,"y":756.8,"width":4.8,"height":11.2},{"id":250,"name":"","type":"","rotation":0,"visible":true,"x":517.6,"y":756.8,"width":4.8,"height":11.2},{"id":251,"name":"","type":"","rotation":0,"visible":true,"x":52.8,"y":503.2,"width":6.4,"height":8.0},{"id":252,"name":"","type":"","rotation":0,"visible":true,"x":132.8,"y":295.2,"width":6.4,"height":8.0},{"id":253,"name":"","type":"","rotation":0,"visible":true,"x":132.8,"y":279.2,"width":6.4,"height":8.0}]},{"id":7,"name":"anchors","type":"objectgroup","visible":true,"opacity":1,"x":0,"y":0,"draworder":"topdown","objects":[{"id":254,"name":"","type":"","rotation":0,"point":true,"visible":true,"x":184.0,"y":80.0,"width":0,"height":0,"properties":[{"name":"kind","type":"string","value":"water-foam"}]},{"id":255,"name":"","type":"","rotation":0,"point":true,"visible":true,"x":280.0,"y":64.0,"width":0,"height":0,"properties":[{"name":"kind","type":"string","value":"water-foam"}]},{"id":256,"name":"","type":"","rotation":0,"point":true,"visible":true,"x":184.0,"y":272.0,"width":0,"height":0,"properties":[{"name":"kind","type":"string","value":"water-foam"}]},{"id":257,"name":"","type":"","rotation":0,"point":true,"visible":true,"x":328.0,"y":272.0,"width":0,"height":0,"properties":[{"name":"kind","type":"string","value":"water-foam"}]},{"id":258,"name":"","type":"","rotation":0,"point":true,"visible":true,"x":232.0,"y":224.0,"width":0,"height":0,"properties":[{"name":"kind","type":"string","value":"water-foam"}]},{"id":259,"name":"","type":"","rotation":0,"point":true,"visible":true,"x":536.0,"y":138.4,"width":0,"height":0,"properties":[{"name":"kind","type":"string","value":"smoke"},{"name":"mode","type":"string","value":"hearth"}]},{"id":260,"name":"","type":"","rotation":0,"point":true,"visible":true,"x":104.0,"y":538.4,"width":0,"height":0,"properties":[{"name":"kind","type":"string","value":"smoke"},{"name":"mode","type":"string","value":"hearth"}]},{"id":261,"name":"","type":"","rotation":0,"point":true,"visible":true,"x":216.0,"y":538.4,"width":0,"height":0,"properties":[{"name":"kind","type":"string","value":"smoke"},{"name":"mode","type":"string","value":"hearth"}]},{"id":262,"name":"","type":"","rotation":0,"point":true,"visible":true,"x":328.0,"y":538.4,"width":0,"height":0,"properties":[{"name":"kind","type":"string","value":"smoke"},{"name":"mode","type":"string","value":"hearth"}]},{"id":263,"name":"","type":"","rotation":0,"point":true,"visible":true,"x":104.0,"y":186.4,"width":0,"height":0,"properties":[{"name":"kind","type":"string","value":"smoke"},{"name":"mode","type":"string","value":"hearth"}]},{"id":264,"name":"","type":"","rotation":0,"point":true,"visible":true,"x":728.0,"y":410.4,"width":0,"height":0,"properties":[{"name":"kind","type":"string","value":"smoke"},{"name":"mode","type":"string","value":"hearth"}]},{"id":265,"name":"","type":"","rotation":0,"point":true,"visible":true,"x":984.0,"y":410.4,"width":0,"height":0,"properties":[{"name":"kind","type":"string","value":"smoke"},{"name":"mode","type":"string","value":"hearth"}]},{"id":266,"name":"","type":"","rotation":0,"point":true,"visible":true,"x":696.0,"y":272.0,"width":0,"height":0,"properties":[{"name":"kind","type":"string","value":"water-foam"}]},{"id":267,"name":"","type":"","rotation":0,"point":true,"visible":true,"x":552.0,"y":208.0,"width":0,"height":0,"properties":[{"name":"kind","type":"string","value":"tree"},{"name":"stamp","type":"string","value":"tree_fruit_a"}]},{"id":268,"name":"","type":"","rotation":0,"point":true,"visible":true,"x":712.0,"y":80.0,"width":0,"height":0,"properties":[{"name":"kind","type":"string","value":"tree"},{"name":"stamp","type":"string","value":"tree_fruit_c"}]},{"id":269,"name":"","type":"","rotation":0,"point":true,"visible":true,"x":600.0,"y":304.0,"width":0,"height":0,"properties":[{"name":"kind","type":"string","value":"lamp"}]},{"id":270,"name":"","type":"","rotation":0,"point":true,"visible":true,"x":360.0,"y":208.0,"width":0,"height":0,"properties":[{"name":"kind","type":"string","value":"lamp"}]},{"id":271,"name":"","type":"","rotation":0,"point":true,"visible":true,"x":24.0,"y":64.0,"width":0,"height":0,"properties":[{"name":"kind","type":"string","value":"tree"},{"name":"stamp","type":"string","value":"tree_light"}]},{"id":272,"name":"","type":"","rotation":0,"point":true,"visible":true,"x":40.0,"y":144.0,"width":0,"height":0,"properties":[{"name":"kind","type":"string","value":"tree"},{"name":"stamp","type":"string","value":"tree_dark"}]},{"id":273,"name":"","type":"","rotation":0,"point":true,"visible":true,"x":392.0,"y":64.0,"width":0,"height":0,"properties":[{"name":"kind","type":"string","value":"tree"},{"name":"stamp","type":"string","value":"tree_light"}]},{"id":274,"name":"","type":"","rotation":0,"point":true,"visible":true,"x":408.0,"y":96.0,"width":0,"height":0,"properties":[{"name":"kind","type":"string","value":"tree"},{"name":"stamp","type":"string","value":"tree_light"}]},{"id":275,"name":"Public Library","type":"","rotation":0,"point":true,"visible":true,"x":400.0,"y":720.0,"width":0,"height":0,"properties":[{"name":"kind","type":"string","value":"noticeboard"}]},{"id":276,"name":"","type":"","rotation":0,"point":true,"visible":true,"x":504.0,"y":704.0,"width":0,"height":0,"properties":[{"name":"kind","type":"string","value":"lamp"}]},{"id":277,"name":"","type":"","rotation":0,"point":true,"visible":true,"x":136.0,"y":704.0,"width":0,"height":0,"properties":[{"name":"kind","type":"string","value":"lamp"}]},{"id":278,"name":"","type":"","rotation":0,"point":true,"visible":true,"x":328.0,"y":704.0,"width":0,"height":0,"properties":[{"name":"kind","type":"string","value":"lamp"}]},{"id":279,"name":"","type":"","rotation":0,"point":true,"visible":true,"x":72.0,"y":736.0,"width":0,"height":0,"properties":[{"name":"kind","type":"string","value":"tree"},{"name":"stamp","type":"string","value":"tree_fruit_b"}]},{"id":280,"name":"","type":"","rotation":0,"point":true,"visible":true,"x":200.0,"y":752.0,"width":0,"height":0,"properties":[{"name":"kind","type":"string","value":"tree"},{"name":"stamp","type":"string","value":"tree_light"}]},{"id":281,"name":"","type":"","rotation":0,"point":true,"visible":true,"x":296.0,"y":736.0,"width":0,"height":0,"properties":[{"name":"kind","type":"string","value":"tree"},{"name":"stamp","type":"string","value":"tree_round_small"}]},{"id":282,"name":"","type":"","rotation":0,"point":true,"visible":true,"x":440.0,"y":752.0,"width":0,"height":0,"properties":[{"name":"kind","type":"string","value":"tree"},{"name":"stamp","type":"string","value":"tree_dark"}]},{"id":283,"name":"","type":"","rotation":0,"point":true,"visible":true,"x":648.0,"y":544.0,"width":0,"height":0,"properties":[{"name":"kind","type":"string","value":"lamp"}]},{"id":284,"name":"","type":"","rotation":0,"point":true,"visible":true,"x":600.0,"y":592.0,"width":0,"height":0,"properties":[{"name":"kind","type":"string","value":"tree"},{"name":"stamp","type":"string","value":"tree_round_small"}]},{"id":285,"name":"","type":"","rotation":0,"point":true,"visible":true,"x":872.0,"y":560.0,"width":0,"height":0,"properties":[{"name":"kind","type":"string","value":"lamp"}]},{"id":286,"name":"","type":"","rotation":0,"point":true,"visible":true,"x":1144.0,"y":560.0,"width":0,"height":0,"properties":[{"name":"kind","type":"string","value":"lamp"}]},{"id":287,"name":"","type":"","rotation":0,"point":true,"visible":true,"x":1064.0,"y":704.0,"width":0,"height":0,"properties":[{"name":"kind","type":"string","value":"lamp"}]},{"id":288,"name":"","type":"","rotation":0,"point":true,"visible":true,"x":88.0,"y":320.0,"width":0,"height":0,"properties":[{"name":"kind","type":"string","value":"lamp"}]},{"id":289,"name":"","type":"","rotation":0,"point":true,"visible":true,"x":344.0,"y":320.0,"width":0,"height":0,"properties":[{"name":"kind","type":"string","value":"lamp"}]},{"id":290,"name":"","type":"","rotation":0,"point":true,"visible":true,"x":728.0,"y":320.0,"width":0,"height":0,"properties":[{"name":"kind","type":"string","value":"lamp"}]},{"id":291,"name":"","type":"","rotation":0,"point":true,"visible":true,"x":1016.0,"y":320.0,"width":0,"height":0,"properties":[{"name":"kind","type":"string","value":"lamp"}]},{"id":292,"name":"","type":"","rotation":0,"point":true,"visible":true,"x":200.0,"y":400.0,"width":0,"height":0,"properties":[{"name":"kind","type":"string","value":"lamp"}]},{"id":293,"name":"","type":"","rotation":0,"point":true,"visible":true,"x":488.0,"y":400.0,"width":0,"height":0,"properties":[{"name":"kind","type":"string","value":"lamp"}]},{"id":294,"name":"","type":"","rotation":0,"point":true,"visible":true,"x":648.0,"y":400.0,"width":0,"height":0,"properties":[{"name":"kind","type":"string","value":"lamp"}]},{"id":295,"name":"","type":"","rotation":0,"point":true,"visible":true,"x":904.0,"y":400.0,"width":0,"height":0,"properties":[{"name":"kind","type":"string","value":"lamp"}]},{"id":296,"name":"","type":"","rotation":0,"point":true,"visible":true,"x":1096.0,"y":400.0,"width":0,"height":0,"properties":[{"name":"kind","type":"string","value":"lamp"}]},{"id":297,"name":"","type":"","rotation":0,"point":true,"visible":true,"x":760.0,"y":96.0,"width":0,"height":0,"properties":[{"name":"kind","type":"string","value":"lamp"}]},{"id":298,"name":"","type":"","rotation":0,"point":true,"visible":true,"x":824.0,"y":192.0,"width":0,"height":0,"properties":[{"name":"kind","type":"string","value":"lamp"}]},{"id":299,"name":"","type":"","rotation":0,"point":true,"visible":true,"x":520.0,"y":752.0,"width":0,"height":0,"properties":[{"name":"kind","type":"string","value":"lamp"}]},{"id":300,"name":"","type":"","rotation":0,"point":true,"visible":true,"x":760.0,"y":312.0,"width":0,"height":0,"properties":[{"name":"axis","type":"string","value":"v"},{"name":"kind","type":"string","value":"signal"}]},{"id":301,"name":"","type":"","rotation":0,"point":true,"visible":true,"x":824.0,"y":312.0,"width":0,"height":0,"properties":[{"name":"axis","type":"string","value":"h"},{"name":"kind","type":"string","value":"signal"}]},{"id":302,"name":"","type":"","rotation":0,"point":true,"visible":true,"x":760.0,"y":392.0,"width":0,"height":0,"properties":[{"name":"axis","type":"string","value":"h"},{"name":"kind","type":"string","value":"signal"}]},{"id":303,"name":"","type":"","rotation":0,"point":true,"visible":true,"x":824.0,"y":392.0,"width":0,"height":0,"properties":[{"name":"axis","type":"string","value":"v"},{"name":"kind","type":"string","value":"signal"}]},{"id":304,"name":"","type":"","rotation":0,"point":true,"visible":true,"x":472.0,"y":80.0,"width":0,"height":0,"properties":[{"name":"kind","type":"string","value":"tree"},{"name":"stamp","type":"string","value":"tree_light"}]},{"id":305,"name":"","type":"","rotation":0,"point":true,"visible":true,"x":536.0,"y":64.0,"width":0,"height":0,"properties":[{"name":"kind","type":"string","value":"tree"},{"name":"stamp","type":"string","value":"tree_light"}]},{"id":306,"name":"","type":"","rotation":0,"point":true,"visible":true,"x":648.0,"y":64.0,"width":0,"height":0,"properties":[{"name":"kind","type":"string","value":"tree"},{"name":"stamp","type":"string","value":"tree_round_small"}]},{"id":307,"name":"","type":"","rotation":0,"point":true,"visible":true,"x":1048.0,"y":48.0,"width":0,"height":0,"properties":[{"name":"kind","type":"string","value":"tree"},{"name":"stamp","type":"string","value":"tree_dark"}]},{"id":308,"name":"","type":"","rotation":0,"point":true,"visible":true,"x":1112.0,"y":32.0,"width":0,"height":0,"properties":[{"name":"kind","type":"string","value":"tree"},{"name":"stamp","type":"string","value":"tree_light"}]},{"id":309,"name":"","type":"","rotation":0,"point":true,"visible":true,"x":1176.0,"y":64.0,"width":0,"height":0,"properties":[{"name":"kind","type":"string","value":"tree"},{"name":"stamp","type":"string","value":"tree_dark"}]},{"id":310,"name":"","type":"","rotation":0,"point":true,"visible":true,"x":1080.0,"y":112.0,"width":0,"height":0,"properties":[{"name":"kind","type":"string","value":"tree"},{"name":"stamp","type":"string","value":"tree_dark"}]},{"id":311,"name":"","type":"","rotation":0,"point":true,"visible":true,"x":1160.0,"y":128.0,"width":0,"height":0,"properties":[{"name":"kind","type":"string","value":"tree"},{"name":"stamp","type":"string","value":"tree_light"}]},{"id":312,"name":"","type":"","rotation":0,"point":true,"visible":true,"x":616.0,"y":720.0,"width":0,"height":0,"properties":[{"name":"kind","type":"string","value":"tree"},{"name":"stamp","type":"string","value":"tree_light"}]},{"id":313,"name":"","type":"","rotation":0,"point":true,"visible":true,"x":664.0,"y":752.0,"width":0,"height":0,"properties":[{"name":"kind","type":"string","value":"tree"},{"name":"stamp","type":"string","value":"tree_dark"}]},{"id":314,"name":"","type":"","rotation":0,"point":true,"visible":true,"x":616.0,"y":496.0,"width":0,"height":0,"properties":[{"name":"kind","type":"string","value":"tree"},{"name":"stamp","type":"string","value":"tree_light"}]},{"id":315,"name":"","type":"","rotation":0,"point":true,"visible":true,"x":712.0,"y":768.0,"width":0,"height":0,"properties":[{"name":"kind","type":"string","value":"tree"},{"name":"stamp","type":"string","value":"tree_light"}]},{"id":316,"name":"","type":"","rotation":0,"point":true,"visible":true,"x":872.0,"y":784.0,"width":0,"height":0,"properties":[{"name":"kind","type":"string","value":"tree"},{"name":"stamp","type":"string","value":"tree_light"}]},{"id":317,"name":"","type":"","rotation":0,"point":true,"visible":true,"x":1160.0,"y":752.0,"width":0,"height":0,"properties":[{"name":"kind","type":"string","value":"tree"},{"name":"stamp","type":"string","value":"tree_round_small"}]},{"id":318,"name":"","type":"","rotation":0,"point":true,"visible":true,"x":1176.0,"y":688.0,"width":0,"height":0,"properties":[{"name":"kind","type":"string","value":"tree"},{"name":"stamp","type":"string","value":"tree_light"}]},{"id":319,"name":"","type":"","rotation":0,"point":true,"visible":true,"x":24.0,"y":32.0,"width":0,"height":0,"properties":[{"name":"kind","type":"string","value":"tree"},{"name":"stamp","type":"string","value":"tree_round_small"}]},{"id":320,"name":"","type":"","rotation":0,"point":true,"visible":true,"x":56.0,"y":32.0,"width":0,"height":0,"properties":[{"name":"kind","type":"string","value":"tree"},{"name":"stamp","type":"string","value":"tree_round_small"}]},{"id":321,"name":"","type":"","rotation":0,"point":true,"visible":true,"x":120.0,"y":32.0,"width":0,"height":0,"properties":[{"name":"kind","type":"string","value":"tree"},{"name":"stamp","type":"string","value":"tree_round_small"}]},{"id":322,"name":"","type":"","rotation":0,"point":true,"visible":true,"x":184.0,"y":32.0,"width":0,"height":0,"properties":[{"name":"kind","type":"string","value":"tree"},{"name":"stamp","type":"string","value":"tree_round_small"}]},{"id":323,"name":"","type":"","rotation":0,"point":true,"visible":true,"x":248.0,"y":32.0,"width":0,"height":0,"properties":[{"name":"kind","type":"string","value":"tree"},{"name":"stamp","type":"string","value":"tree_round_small"}]},{"id":324,"name":"","type":"","rotation":0,"point":true,"visible":true,"x":280.0,"y":32.0,"width":0,"height":0,"properties":[{"name":"kind","type":"string","value":"tree"},{"name":"stamp","type":"string","value":"tree_round_small"}]},{"id":325,"name":"","type":"","rotation":0,"point":true,"visible":true,"x":312.0,"y":32.0,"width":0,"height":0,"properties":[{"name":"kind","type":"string","value":"tree"},{"name":"stamp","type":"string","value":"tree_round_small"}]},{"id":326,"name":"","type":"","rotation":0,"point":true,"visible":true,"x":376.0,"y":32.0,"width":0,"height":0,"properties":[{"name":"kind","type":"string","value":"tree"},{"name":"stamp","type":"string","value":"tree_round_small"}]},{"id":327,"name":"","type":"","rotation":0,"point":true,"visible":true,"x":408.0,"y":32.0,"width":0,"height":0,"properties":[{"name":"kind","type":"string","value":"tree"},{"name":"stamp","type":"string","value":"tree_round_small"}]},{"id":328,"name":"","type":"","rotation":0,"point":true,"visible":true,"x":440.0,"y":32.0,"width":0,"height":0,"properties":[{"name":"kind","type":"string","value":"tree"},{"name":"stamp","type":"string","value":"tree_round_small"}]},{"id":329,"name":"","type":"","rotation":0,"point":true,"visible":true,"x":472.0,"y":32.0,"width":0,"height":0,"properties":[{"name":"kind","type":"string","value":"tree"},{"name":"stamp","type":"string","value":"tree_round_small"}]},{"id":330,"name":"","type":"","rotation":0,"point":true,"visible":true,"x":504.0,"y":32.0,"width":0,"height":0,"properties":[{"name":"kind","type":"string","value":"tree"},{"name":"stamp","type":"string","value":"tree_round_small"}]},{"id":331,"name":"","type":"","rotation":0,"point":true,"visible":true,"x":536.0,"y":32.0,"width":0,"height":0,"properties":[{"name":"kind","type":"string","value":"tree"},{"name":"stamp","type":"string","value":"tree_round_small"}]},{"id":332,"name":"","type":"","rotation":0,"point":true,"visible":true,"x":568.0,"y":32.0,"width":0,"height":0,"properties":[{"name":"kind","type":"string","value":"tree"},{"name":"stamp","type":"string","value":"tree_round_small"}]},{"id":333,"name":"","type":"","rotation":0,"point":true,"visible":true,"x":600.0,"y":32.0,"width":0,"height":0,"properties":[{"name":"kind","type":"string","value":"tree"},{"name":"stamp","type":"string","value":"tree_round_small"}]},{"id":334,"name":"","type":"","rotation":0,"point":true,"visible":true,"x":632.0,"y":32.0,"width":0,"height":0,"properties":[{"name":"kind","type":"string","value":"tree"},{"name":"stamp","type":"string","value":"tree_round_small"}]},{"id":335,"name":"","type":"","rotation":0,"point":true,"visible":true,"x":664.0,"y":32.0,"width":0,"height":0,"properties":[{"name":"kind","type":"string","value":"tree"},{"name":"stamp","type":"string","value":"tree_round_small"}]},{"id":336,"name":"","type":"","rotation":0,"point":true,"visible":true,"x":696.0,"y":32.0,"width":0,"height":0,"properties":[{"name":"kind","type":"string","value":"tree"},{"name":"stamp","type":"string","value":"tree_round_small"}]},{"id":337,"name":"","type":"","rotation":0,"point":true,"visible":true,"x":728.0,"y":32.0,"width":0,"height":0,"properties":[{"name":"kind","type":"string","value":"tree"},{"name":"stamp","type":"string","value":"tree_round_small"}]},{"id":338,"name":"","type":"","rotation":0,"point":true,"visible":true,"x":856.0,"y":32.0,"width":0,"height":0,"properties":[{"name":"kind","type":"string","value":"tree"},{"name":"stamp","type":"string","value":"tree_round_small"}]},{"id":339,"name":"","type":"","rotation":0,"point":true,"visible":true,"x":888.0,"y":32.0,"width":0,"height":0,"properties":[{"name":"kind","type":"string","value":"tree"},{"name":"stamp","type":"string","value":"tree_round_small"}]},{"id":340,"name":"","type":"","rotation":0,"point":true,"visible":true,"x":920.0,"y":32.0,"width":0,"height":0,"properties":[{"name":"kind","type":"string","value":"tree"},{"name":"stamp","type":"string","value":"tree_round_small"}]},{"id":341,"name":"","type":"","rotation":0,"point":true,"visible":true,"x":952.0,"y":32.0,"width":0,"height":0,"properties":[{"name":"kind","type":"string","value":"tree"},{"name":"stamp","type":"string","value":"tree_round_small"}]},{"id":342,"name":"","type":"","rotation":0,"point":true,"visible":true,"x":984.0,"y":32.0,"width":0,"height":0,"properties":[{"name":"kind","type":"string","value":"tree"},{"name":"stamp","type":"string","value":"tree_round_small"}]},{"id":343,"name":"","type":"","rotation":0,"point":true,"visible":true,"x":1016.0,"y":32.0,"width":0,"height":0,"properties":[{"name":"kind","type":"string","value":"tree"},{"name":"stamp","type":"string","value":"tree_round_small"}]},{"id":344,"name":"","type":"","rotation":0,"point":true,"visible":true,"x":1080.0,"y":32.0,"width":0,"height":0,"properties":[{"name":"kind","type":"string","value":"tree"},{"name":"stamp","type":"string","value":"tree_round_small"}]},{"id":345,"name":"","type":"","rotation":0,"point":true,"visible":true,"x":1144.0,"y":32.0,"width":0,"height":0,"properties":[{"name":"kind","type":"string","value":"tree"},{"name":"stamp","type":"string","value":"tree_round_small"}]},{"id":346,"name":"","type":"","rotation":0,"point":true,"visible":true,"x":1176.0,"y":32.0,"width":0,"height":0,"properties":[{"name":"kind","type":"string","value":"tree"},{"name":"stamp","type":"string","value":"tree_round_small"}]},{"id":347,"name":"","type":"","rotation":0,"point":true,"visible":true,"x":584.0,"y":96.0,"width":0,"height":0,"properties":[{"name":"kind","type":"string","value":"tree"},{"name":"stamp","type":"string","value":"tree_light"}]},{"id":348,"name":"","type":"","rotation":0,"point":true,"visible":true,"x":24.0,"y":800.0,"width":0,"height":0,"properties":[{"name":"kind","type":"string","value":"tree"},{"name":"stamp","type":"string","value":"tree_light"}]},{"id":349,"name":"","type":"","rotation":0,"point":true,"visible":true,"x":56.0,"y":800.0,"width":0,"height":0,"properties":[{"name":"kind","type":"string","value":"tree"},{"name":"stamp","type":"string","value":"tree_round_small"}]},{"id":350,"name":"","type":"","rotation":0,"point":true,"visible":true,"x":88.0,"y":800.0,"width":0,"height":0,"properties":[{"name":"kind","type":"string","value":"tree"},{"name":"stamp","type":"string","value":"tree_dark"}]},{"id":351,"name":"","type":"","rotation":0,"point":true,"visible":true,"x":120.0,"y":800.0,"width":0,"height":0,"properties":[{"name":"kind","type":"string","value":"tree"},{"name":"stamp","type":"string","value":"tree_round_small"}]},{"id":352,"name":"","type":"","rotation":0,"point":true,"visible":true,"x":152.0,"y":800.0,"width":0,"height":0,"properties":[{"name":"kind","type":"string","value":"tree"},{"name":"stamp","type":"string","value":"tree_light"}]},{"id":353,"name":"","type":"","rotation":0,"point":true,"visible":true,"x":184.0,"y":800.0,"width":0,"height":0,"properties":[{"name":"kind","type":"string","value":"tree"},{"name":"stamp","type":"string","value":"tree_round_small"}]},{"id":354,"name":"","type":"","rotation":0,"point":true,"visible":true,"x":216.0,"y":800.0,"width":0,"height":0,"properties":[{"name":"kind","type":"string","value":"tree"},{"name":"stamp","type":"string","value":"tree_round_small"}]},{"id":355,"name":"","type":"","rotation":0,"point":true,"visible":true,"x":248.0,"y":800.0,"width":0,"height":0,"properties":[{"name":"kind","type":"string","value":"tree"},{"name":"stamp","type":"string","value":"tree_round_small"}]},{"id":356,"name":"","type":"","rotation":0,"point":true,"visible":true,"x":280.0,"y":800.0,"width":0,"height":0,"properties":[{"name":"kind","type":"string","value":"tree"},{"name":"stamp","type":"string","value":"tree_light"}]},{"id":357,"name":"","type":"","rotation":0,"point":true,"visible":true,"x":312.0,"y":800.0,"width":0,"height":0,"properties":[{"name":"kind","type":"string","value":"tree"},{"name":"stamp","type":"string","value":"tree_round_small"}]},{"id":358,"name":"","type":"","rotation":0,"point":true,"visible":true,"x":344.0,"y":800.0,"width":0,"height":0,"properties":[{"name":"kind","type":"string","value":"tree"},{"name":"stamp","type":"string","value":"tree_light"}]},{"id":359,"name":"","type":"","rotation":0,"point":true,"visible":true,"x":376.0,"y":800.0,"width":0,"height":0,"properties":[{"name":"kind","type":"string","value":"tree"},{"name":"stamp","type":"string","value":"tree_round_small"}]},{"id":360,"name":"","type":"","rotation":0,"point":true,"visible":true,"x":408.0,"y":800.0,"width":0,"height":0,"properties":[{"name":"kind","type":"string","value":"tree"},{"name":"stamp","type":"string","value":"tree_round_small"}]},{"id":361,"name":"","type":"","rotation":0,"point":true,"visible":true,"x":440.0,"y":800.0,"width":0,"height":0,"properties":[{"name":"kind","type":"string","value":"tree"},{"name":"stamp","type":"string","value":"tree_round_small"}]},{"id":362,"name":"","type":"","rotation":0,"point":true,"visible":true,"x":472.0,"y":800.0,"width":0,"height":0,"properties":[{"name":"kind","type":"string","value":"tree"},{"name":"stamp","type":"string","value":"tree_round_small"}]},{"id":363,"name":"","type":"","rotation":0,"point":true,"visible":true,"x":504.0,"y":800.0,"width":0,"height":0,"properties":[{"name":"kind","type":"string","value":"tree"},{"name":"stamp","type":"string","value":"tree_round_small"}]},{"id":364,"name":"","type":"","rotation":0,"point":true,"visible":true,"x":600.0,"y":800.0,"width":0,"height":0,"properties":[{"name":"kind","type":"string","value":"tree"},{"name":"stamp","type":"string","value":"tree_round_small"}]},{"id":365,"name":"","type":"","rotation":0,"point":true,"visible":true,"x":632.0,"y":800.0,"width":0,"height":0,"properties":[{"name":"kind","type":"string","value":"tree"},{"name":"stamp","type":"string","value":"tree_round_small"}]},{"id":366,"name":"","type":"","rotation":0,"point":true,"visible":true,"x":664.0,"y":800.0,"width":0,"height":0,"properties":[{"name":"kind","type":"string","value":"tree"},{"name":"stamp","type":"string","value":"tree_light"}]},{"id":367,"name":"","type":"","rotation":0,"point":true,"visible":true,"x":696.0,"y":800.0,"width":0,"height":0,"properties":[{"name":"kind","type":"string","value":"tree"},{"name":"stamp","type":"string","value":"tree_round_small"}]},{"id":368,"name":"","type":"","rotation":0,"point":true,"visible":true,"x":728.0,"y":800.0,"width":0,"height":0,"properties":[{"name":"kind","type":"string","value":"tree"},{"name":"stamp","type":"string","value":"tree_round_small"}]},{"id":369,"name":"","type":"","rotation":0,"point":true,"visible":true,"x":920.0,"y":800.0,"width":0,"height":0,"properties":[{"name":"kind","type":"string","value":"tree"},{"name":"stamp","type":"string","value":"tree_round_small"}]},{"id":370,"name":"","type":"","rotation":0,"point":true,"visible":true,"x":952.0,"y":800.0,"width":0,"height":0,"properties":[{"name":"kind","type":"string","value":"tree"},{"name":"stamp","type":"string","value":"tree_round_small"}]},{"id":371,"name":"","type":"","rotation":0,"point":true,"visible":true,"x":984.0,"y":800.0,"width":0,"height":0,"properties":[{"name":"kind","type":"string","value":"tree"},{"name":"stamp","type":"string","value":"tree_round_small"}]},{"id":372,"name":"","type":"","rotation":0,"point":true,"visible":true,"x":1016.0,"y":800.0,"width":0,"height":0,"properties":[{"name":"kind","type":"string","value":"tree"},{"name":"stamp","type":"string","value":"tree_round_small"}]},{"id":373,"name":"","type":"","rotation":0,"point":true,"visible":true,"x":1048.0,"y":800.0,"width":0,"height":0,"properties":[{"name":"kind","type":"string","value":"tree"},{"name":"stamp","type":"string","value":"tree_round_small"}]},{"id":374,"name":"","type":"","rotation":0,"point":true,"visible":true,"x":1080.0,"y":800.0,"width":0,"height":0,"properties":[{"name":"kind","type":"string","value":"tree"},{"name":"stamp","type":"string","value":"tree_round_small"}]},{"id":375,"name":"","type":"","rotation":0,"point":true,"visible":true,"x":1112.0,"y":800.0,"width":0,"height":0,"properties":[{"name":"kind","type":"string","value":"tree"},{"name":"stamp","type":"string","value":"tree_round_small"}]},{"id":376,"name":"","type":"","rotation":0,"point":true,"visible":true,"x":1144.0,"y":800.0,"width":0,"height":0,"properties":[{"name":"kind","type":"string","value":"tree"},{"name":"stamp","type":"string","value":"tree_round_small"}]},{"id":377,"name":"","type":"","rotation":0,"point":true,"visible":true,"x":1176.0,"y":800.0,"width":0,"height":0,"properties":[{"name":"kind","type":"string","value":"tree"},{"name":"stamp","type":"string","value":"tree_round_small"}]},{"id":378,"name":"","type":"","rotation":0,"point":true,"visible":true,"x":24.0,"y":96.0,"width":0,"height":0,"properties":[{"name":"kind","type":"string","value":"tree"},{"name":"stamp","type":"string","value":"tree_round_small"}]},{"id":379,"name":"","type":"","rotation":0,"point":true,"visible":true,"x":1176.0,"y":96.0,"width":0,"height":0,"properties":[{"name":"kind","type":"string","value":"tree"},{"name":"stamp","type":"string","value":"tree_dark"}]},{"id":380,"name":"","type":"","rotation":0,"point":true,"visible":true,"x":1176.0,"y":160.0,"width":0,"height":0,"properties":[{"name":"kind","type":"string","value":"tree"},{"name":"stamp","type":"string","value":"tree_round_small"}]},{"id":381,"name":"","type":"","rotation":0,"point":true,"visible":true,"x":1176.0,"y":192.0,"width":0,"height":0,"properties":[{"name":"kind","type":"string","value":"tree"},{"name":"stamp","type":"string","value":"tree_round_small"}]},{"id":382,"name":"","type":"","rotation":0,"point":true,"visible":true,"x":24.0,"y":224.0,"width":0,"height":0,"properties":[{"name":"kind","type":"string","value":"tree"},{"name":"stamp","type":"string","value":"tree_round_small"}]},{"id":383,"name":"","type":"","rotation":0,"point":true,"visible":true,"x":1176.0,"y":224.0,"width":0,"height":0,"properties":[{"name":"kind","type":"string","value":"tree"},{"name":"stamp","type":"string","value":"tree_round_small"}]},{"id":384,"name":"","type":"","rotation":0,"point":true,"visible":true,"x":24.0,"y":256.0,"width":0,"height":0,"properties":[{"name":"kind","type":"string","value":"tree"},{"name":"stamp","type":"string","value":"tree_round_small"}]},{"id":385,"name":"","type":"","rotation":0,"point":true,"visible":true,"x":1176.0,"y":256.0,"width":0,"height":0,"properties":[{"name":"kind","type":"string","value":"tree"},{"name":"stamp","type":"string","value":"tree_round_small"}]},{"id":386,"name":"","type":"","rotation":0,"point":true,"visible":true,"x":24.0,"y":288.0,"width":0,"height":0,"properties":[{"name":"kind","type":"string","value":"tree"},{"name":"stamp","type":"string","value":"tree_round_small"}]},{"id":387,"name":"","type":"","rotation":0,"point":true,"visible":true,"x":1176.0,"y":288.0,"width":0,"height":0,"properties":[{"name":"kind","type":"string","value":"tree"},{"name":"stamp","type":"string","value":"tree_round_small"}]},{"id":388,"name":"","type":"","rotation":0,"point":true,"visible":true,"x":24.0,"y":320.0,"width":0,"height":0,"properties":[{"name":"kind","type":"string","value":"tree"},{"name":"stamp","type":"string","value":"tree_round_small"}]},{"id":389,"name":"","type":"","rotation":0,"point":true,"visible":true,"x":1176.0,"y":320.0,"width":0,"height":0,"properties":[{"name":"kind","type":"string","value":"tree"},{"name":"stamp","type":"string","value":"tree_round_small"}]},{"id":390,"name":"","type":"","rotation":0,"point":true,"visible":true,"x":24.0,"y":416.0,"width":0,"height":0,"properties":[{"name":"kind","type":"string","value":"tree"},{"name":"stamp","type":"string","value":"tree_round_small"}]},{"id":391,"name":"","type":"","rotation":0,"point":true,"visible":true,"x":1176.0,"y":416.0,"width":0,"height":0,"properties":[{"name":"kind","type":"string","value":"tree"},{"name":"stamp","type":"string","value":"tree_round_small"}]},{"id":392,"name":"","type":"","rotation":0,"point":true,"visible":true,"x":24.0,"y":448.0,"width":0,"height":0,"properties":[{"name":"kind","type":"string","value":"tree"},{"name":"stamp","type":"string","value":"tree_round_small"}]},{"id":393,"name":"","type":"","rotation":0,"point":true,"visible":true,"x":1176.0,"y":448.0,"width":0,"height":0,"properties":[{"name":"kind","type":"string","value":"tree"},{"name":"stamp","type":"string","value":"tree_round_small"}]},{"id":394,"name":"","type":"","rotation":0,"point":true,"visible":true,"x":24.0,"y":480.0,"width":0,"height":0,"properties":[{"name":"kind","type":"string","value":"tree"},{"name":"stamp","type":"string","value":"tree_round_small"}]},{"id":395,"name":"","type":"","rotation":0,"point":true,"visible":true,"x":1176.0,"y":480.0,"width":0,"height":0,"properties":[{"name":"kind","type":"string","value":"tree"},{"name":"stamp","type":"string","value":"tree_round_small"}]},{"id":396,"name":"","type":"","rotation":0,"point":true,"visible":true,"x":24.0,"y":512.0,"width":0,"height":0,"properties":[{"name":"kind","type":"string","value":"tree"},{"name":"stamp","type":"string","value":"tree_round_small"}]},{"id":397,"name":"","type":"","rotation":0,"point":true,"visible":true,"x":1176.0,"y":512.0,"width":0,"height":0,"properties":[{"name":"kind","type":"string","value":"tree"},{"name":"stamp","type":"string","value":"tree_round_small"}]},{"id":398,"name":"","type":"","rotation":0,"point":true,"visible":true,"x":24.0,"y":544.0,"width":0,"height":0,"properties":[{"name":"kind","type":"string","value":"tree"},{"name":"stamp","type":"string","value":"tree_round_small"}]},{"id":399,"name":"","type":"","rotation":0,"point":true,"visible":true,"x":1176.0,"y":544.0,"width":0,"height":0,"properties":[{"name":"kind","type":"string","value":"tree"},{"name":"stamp","type":"string","value":"tree_round_small"}]},{"id":400,"name":"","type":"","rotation":0,"point":true,"visible":true,"x":24.0,"y":576.0,"width":0,"height":0,"properties":[{"name":"kind","type":"string","value":"tree"},{"name":"stamp","type":"string","value":"tree_round_small"}]},{"id":401,"name":"","type":"","rotation":0,"point":true,"visible":true,"x":1176.0,"y":576.0,"width":0,"height":0,"properties":[{"name":"kind","type":"string","value":"tree"},{"name":"stamp","type":"string","value":"tree_round_small"}]},{"id":402,"name":"","type":"","rotation":0,"point":true,"visible":true,"x":24.0,"y":608.0,"width":0,"height":0,"properties":[{"name":"kind","type":"string","value":"tree"},{"name":"stamp","type":"string","value":"tree_round_small"}]},{"id":403,"name":"","type":"","rotation":0,"point":true,"visible":true,"x":1176.0,"y":608.0,"width":0,"height":0,"properties":[{"name":"kind","type":"string","value":"tree"},{"name":"stamp","type":"string","value":"tree_round_small"}]},{"id":404,"name":"","type":"","rotation":0,"point":true,"visible":true,"x":24.0,"y":640.0,"width":0,"height":0,"properties":[{"name":"kind","type":"string","value":"tree"},{"name":"stamp","type":"string","value":"tree_round_small"}]},{"id":405,"name":"","type":"","rotation":0,"point":true,"visible":true,"x":1176.0,"y":640.0,"width":0,"height":0,"properties":[{"name":"kind","type":"string","value":"tree"},{"name":"stamp","type":"string","value":"tree_round_small"}]},{"id":406,"name":"","type":"","rotation":0,"point":true,"visible":true,"x":24.0,"y":672.0,"width":0,"height":0,"properties":[{"name":"kind","type":"string","value":"tree"},{"name":"stamp","type":"string","value":"tree_round_small"}]},{"id":407,"name":"","type":"","rotation":0,"point":true,"visible":true,"x":24.0,"y":704.0,"width":0,"height":0,"properties":[{"name":"kind","type":"string","value":"tree"},{"name":"stamp","type":"string","value":"tree_round_small"}]},{"id":408,"name":"","type":"","rotation":0,"point":true,"visible":true,"x":24.0,"y":736.0,"width":0,"height":0,"properties":[{"name":"kind","type":"string","value":"tree"},{"name":"stamp","type":"string","value":"tree_round_small"}]},{"id":409,"name":"","type":"","rotation":0,"point":true,"visible":true,"x":24.0,"y":768.0,"width":0,"height":0,"properties":[{"name":"kind","type":"string","value":"tree"},{"name":"stamp","type":"string","value":"tree_round_small"}]},{"id":410,"name":"TO DENVILLE","type":"","rotation":0,"point":true,"visible":true,"x":40.0,"y":336.0,"width":0,"height":0,"properties":[{"name":"kind","type":"string","value":"roadsign"},{"name":"text","type":"string","value":"TO DENVILLE"}]},{"id":411,"name":"TO I-287","type":"","rotation":0,"point":true,"visible":true,"x":1160.0,"y":416.0,"width":0,"height":0,"properties":[{"name":"kind","type":"string","value":"roadsign"},{"name":"text","type":"string","value":"TO I-287"}]},{"id":412,"name":"TO BOONTON","type":"","rotation":0,"point":true,"visible":true,"x":824.0,"y":48.0,"width":0,"height":0,"properties":[{"name":"kind","type":"string","value":"roadsign"},{"name":"text","type":"string","value":"TO BOONTON"}]},{"id":413,"name":"TO RT 10","type":"","rotation":0,"point":true,"visible":true,"x":824.0,"y":768.0,"width":0,"height":0,"properties":[{"name":"kind","type":"string","value":"roadsign"},{"name":"text","type":"string","value":"TO RT 10"}]},{"id":414,"name":"TO MORRIS PLAINS","type":"","rotation":0,"point":true,"visible":true,"x":520.0,"y":768.0,"width":0,"height":0,"properties":[{"name":"kind","type":"string","value":"roadsign"},{"name":"text","type":"string","value":"TO MORRIS PLAINS"}]},{"id":415,"name":"Route 46","type":"","rotation":0,"point":true,"visible":true,"x":592.0,"y":368.0,"width":0,"height":0,"properties":[{"name":"kind","type":"string","value":"label"},{"name":"text","type":"string","value":"Route 46"}]},{"id":416,"name":"Corporate Park","type":"","rotation":0,"point":true,"visible":true,"x":896.0,"y":216.0,"width":0,"height":0,"properties":[{"name":"kind","type":"string","value":"label"},{"name":"text","type":"string","value":"Corporate Park"}]},{"id":417,"name":"Lake Parsippany","type":"","rotation":0,"point":true,"visible":true,"x":280.0,"y":216.0,"width":0,"height":0,"properties":[{"name":"kind","type":"string","value":"label"},{"name":"text","type":"string","value":"Lake Parsippany"}]},{"id":418,"name":"Hindu Temple","type":"","rotation":0,"point":true,"visible":true,"x":656.0,"y":240.0,"width":0,"height":0,"properties":[{"name":"kind","type":"string","value":"label"},{"name":"text","type":"string","value":"Hindu Temple"}]},{"id":419,"name":"Indian Grocery","type":"","rotation":0,"point":true,"visible":true,"x":512.0,"y":288.0,"width":0,"height":0,"properties":[{"name":"kind","type":"string","value":"label"},{"name":"text","type":"string","value":"Indian Grocery"}]},{"id":420,"name":"Public Library","type":"","rotation":0,"point":true,"visible":true,"x":416.0,"y":536.0,"width":0,"height":0,"properties":[{"name":"kind","type":"string","value":"label"},{"name":"text","type":"string","value":"Public Library"}]},{"id":421,"name":"Residential Area","type":"","rotation":0,"point":true,"visible":true,"x":224.0,"y":560.0,"width":0,"height":0,"properties":[{"name":"kind","type":"string","value":"label"},{"name":"text","type":"string","value":"Residential Area"}]},{"id":422,"name":"NJ Transit Stop","type":"","rotation":0,"point":true,"visible":true,"x":752.0,"y":528.0,"width":0,"height":0,"properties":[{"name":"kind","type":"string","value":"label"},{"name":"text","type":"string","value":"NJ Transit Stop"}]},{"id":423,"name":"Community Center","type":"","rotation":0,"point":true,"visible":true,"x":960.0,"y":496.0,"width":0,"height":0,"properties":[{"name":"kind","type":"string","value":"label"},{"name":"text","type":"string","value":"Community Center"}]},{"id":424,"name":"","type":"","rotation":0,"point":true,"visible":true,"x":56.0,"y":512.0,"width":0,"height":0,"properties":[{"name":"home","type":"string","value":"Residential Area"},{"name":"kind","type":"string","value":"yardsign"},{"name":"seat","type":"string","value":"0"}]},{"id":425,"name":"","type":"","rotation":0,"point":true,"visible":true,"x":136.0,"y":304.0,"width":0,"height":0,"properties":[{"name":"home","type":"string","value":""},{"name":"kind","type":"string","value":"yardsign"},{"name":"seat","type":"string","value":"1"}]},{"id":426,"name":"","type":"","rotation":0,"point":true,"visible":true,"x":136.0,"y":288.0,"width":0,"height":0,"properties":[{"name":"home","type":"string","value":""},{"name":"kind","type":"string","value":"yardsign"},{"name":"seat","type":"string","value":"2"}]},{"id":427,"name":"Community Center","type":"","rotation":0,"point":true,"visible":true,"x":1072.0,"y":544.0,"width":0,"height":0,"properties":[{"name":"kind","type":"string","value":"pollplace"}]},{"id":428,"name":"Community Center","type":"","rotation":0,"point":true,"visible":true,"x":1048.0,"y":480.0,"width":0,"height":0,"properties":[{"name":"kind","type":"string","value":"banner"},{"name":"mount","type":"string","value":"facade"}]},{"id":429,"name":"Community Center","type":"","rotation":0,"point":true,"visible":true,"x":1096.0,"y":480.0,"width":0,"height":0,"properties":[{"name":"kind","type":"string","value":"banner"},{"name":"mount","type":"string","value":"facade"}]},{"id":430,"name":"Community Center","type":"","rotation":0,"point":true,"visible":true,"x":1088.0,"y":464.0,"width":0,"height":0,"properties":[{"name":"kind","type":"string","value":"bunting"},{"name":"span","type":"string","value":"8"}]},{"id":431,"name":"Lake Parsippany","type":"","rotation":0,"point":true,"visible":true,"x":296.0,"y":269.6,"width":0,"height":0,"properties":[{"name":"cap","type":"string","value":"1"},{"name":"facing","type":"string","value":"up"},{"name":"kind","type":"string","value":"spot"},{"name":"order","type":"string","value":"0"},{"name":"role","type":"string","value":"platform"}]},{"id":432,"name":"Indian Grocery","type":"","rotation":0,"point":true,"visible":true,"x":552.0,"y":317.6,"width":0,"height":0,"properties":[{"name":"cap","type":"string","value":"1"},{"name":"facing","type":"string","value":"up"},{"name":"kind","type":"string","value":"spot"},{"name":"order","type":"string","value":"0"},{"name":"role","type":"string","value":"bench"}]},{"id":433,"name":"Hindu Temple","type":"","rotation":0,"point":true,"visible":true,"x":744.0,"y":285.6,"width":0,"height":0,"properties":[{"name":"cap","type":"string","value":"1"},{"name":"facing","type":"string","value":"down"},{"name":"kind","type":"string","value":"spot"},{"name":"order","type":"string","value":"0"},{"name":"role","type":"string","value":"bench"}]},{"id":434,"name":"Lake Parsippany","type":"","rotation":0,"point":true,"visible":true,"x":168.0,"y":317.6,"width":0,"height":0,"properties":[{"name":"cap","type":"string","value":"1"},{"name":"facing","type":"string","value":"down"},{"name":"kind","type":"string","value":"spot"},{"name":"order","type":"string","value":"1"},{"name":"role","type":"string","value":"bench"}]},{"id":435,"name":"Lake Parsippany","type":"","rotation":0,"point":true,"visible":true,"x":200.0,"y":317.6,"width":0,"height":0,"properties":[{"name":"cap","type":"string","value":"1"},{"name":"facing","type":"string","value":"down"},{"name":"kind","type":"string","value":"spot"},{"name":"order","type":"string","value":"2"},{"name":"role","type":"string","value":"bench"}]},{"id":436,"name":"Lake Parsippany","type":"","rotation":0,"point":true,"visible":true,"x":248.0,"y":317.6,"width":0,"height":0,"properties":[{"name":"cap","type":"string","value":"1"},{"name":"facing","type":"string","value":"down"},{"name":"kind","type":"string","value":"spot"},{"name":"order","type":"string","value":"3"},{"name":"role","type":"string","value":"bench"}]},{"id":437,"name":"Lake Parsippany","type":"","rotation":0,"point":true,"visible":true,"x":280.0,"y":317.6,"width":0,"height":0,"properties":[{"name":"cap","type":"string","value":"1"},{"name":"facing","type":"string","value":"down"},{"name":"kind","type":"string","value":"spot"},{"name":"order","type":"string","value":"4"},{"name":"role","type":"string","value":"bench"}]},{"id":438,"name":"Lake Parsippany","type":"","rotation":0,"point":true,"visible":true,"x":424.0,"y":253.6,"width":0,"height":0,"properties":[{"name":"cap","type":"string","value":"1"},{"name":"facing","type":"string","value":"down"},{"name":"kind","type":"string","value":"spot"},{"name":"order","type":"string","value":"5"},{"name":"role","type":"string","value":"bench"}]},{"id":439,"name":"Lake Parsippany","type":"","rotation":0,"point":true,"visible":true,"x":136.0,"y":205.6,"width":0,"height":0,"properties":[{"name":"cap","type":"string","value":"1"},{"name":"facing","type":"string","value":"down"},{"name":"kind","type":"string","value":"spot"},{"name":"order","type":"string","value":"6"},{"name":"role","type":"string","value":"bench"}]},{"id":440,"name":"Lake Parsippany","type":"","rotation":0,"point":true,"visible":true,"x":168.0,"y":205.6,"width":0,"height":0,"properties":[{"name":"cap","type":"string","value":"1"},{"name":"facing","type":"string","value":"down"},{"name":"kind","type":"string","value":"spot"},{"name":"order","type":"string","value":"7"},{"name":"role","type":"string","value":"bench"}]},{"id":441,"name":"Public Library","type":"","rotation":0,"point":true,"visible":true,"x":472.0,"y":701.6,"width":0,"height":0,"properties":[{"name":"cap","type":"string","value":"1"},{"name":"facing","type":"string","value":"down"},{"name":"kind","type":"string","value":"spot"},{"name":"order","type":"string","value":"0"},{"name":"role","type":"string","value":"bench"}]},{"id":442,"name":"NJ Transit Stop","type":"","rotation":0,"point":true,"visible":true,"x":664.0,"y":541.6,"width":0,"height":0,"properties":[{"name":"cap","type":"string","value":"1"},{"name":"facing","type":"string","value":"down"},{"name":"kind","type":"string","value":"spot"},{"name":"order","type":"string","value":"0"},{"name":"role","type":"string","value":"bench"}]},{"id":443,"name":"NJ Transit Stop","type":"","rotation":0,"point":true,"visible":true,"x":696.0,"y":541.6,"width":0,"height":0,"properties":[{"name":"cap","type":"string","value":"1"},{"name":"facing","type":"string","value":"down"},{"name":"kind","type":"string","value":"spot"},{"name":"order","type":"string","value":"1"},{"name":"role","type":"string","value":"bench"}]},{"id":444,"name":"Community Center","type":"","rotation":0,"point":true,"visible":true,"x":840.0,"y":541.6,"width":0,"height":0,"properties":[{"name":"cap","type":"string","value":"1"},{"name":"facing","type":"string","value":"down"},{"name":"kind","type":"string","value":"spot"},{"name":"order","type":"string","value":"5"},{"name":"role","type":"string","value":"bench"}]},{"id":445,"name":"Community Center","type":"","rotation":0,"point":true,"visible":true,"x":872.0,"y":541.6,"width":0,"height":0,"properties":[{"name":"cap","type":"string","value":"1"},{"name":"facing","type":"string","value":"down"},{"name":"kind","type":"string","value":"spot"},{"name":"order","type":"string","value":"6"},{"name":"role","type":"string","value":"bench"}]},{"id":446,"name":"Community Center","type":"","rotation":0,"point":true,"visible":true,"x":824.0,"y":621.6,"width":0,"height":0,"properties":[{"name":"cap","type":"string","value":"1"},{"name":"facing","type":"string","value":"down"},{"name":"kind","type":"string","value":"spot"},{"name":"order","type":"string","value":"7"},{"name":"role","type":"string","value":"bench"}]},{"id":447,"name":"Community Center","type":"","rotation":0,"point":true,"visible":true,"x":856.0,"y":621.6,"width":0,"height":0,"properties":[{"name":"cap","type":"string","value":"1"},{"name":"facing","type":"string","value":"down"},{"name":"kind","type":"string","value":"spot"},{"name":"order","type":"string","value":"8"},{"name":"role","type":"string","value":"bench"}]},{"id":448,"name":"Indian Grocery","type":"","rotation":0,"point":true,"visible":true,"x":512.0,"y":253.6,"width":0,"height":0,"properties":[{"name":"cap","type":"string","value":"1"},{"name":"facing","type":"string","value":"up"},{"name":"kind","type":"string","value":"spot"},{"name":"order","type":"string","value":"1"},{"name":"role","type":"string","value":"door"}]},{"id":449,"name":"Hindu Temple","type":"","rotation":0,"point":true,"visible":true,"x":624.0,"y":237.6,"width":0,"height":0,"properties":[{"name":"cap","type":"string","value":"1"},{"name":"facing","type":"string","value":"up"},{"name":"kind","type":"string","value":"spot"},{"name":"order","type":"string","value":"1"},{"name":"role","type":"string","value":"door"}]},{"id":450,"name":"Corporate Park","type":"","rotation":0,"point":true,"visible":true,"x":912.0,"y":269.6,"width":0,"height":0,"properties":[{"name":"cap","type":"string","value":"1"},{"name":"facing","type":"string","value":"up"},{"name":"kind","type":"string","value":"spot"},{"name":"order","type":"string","value":"0"},{"name":"role","type":"string","value":"door"}]},{"id":451,"name":"Residential Area","type":"","rotation":0,"point":true,"visible":true,"x":96.0,"y":525.6,"width":0,"height":0,"properties":[{"name":"cap","type":"string","value":"1"},{"name":"facing","type":"string","value":"up"},{"name":"kind","type":"string","value":"spot"},{"name":"order","type":"string","value":"0"},{"name":"role","type":"string","value":"door"}]},{"id":452,"name":"Residential Area","type":"","rotation":0,"point":true,"visible":true,"x":160.0,"y":525.6,"width":0,"height":0,"properties":[{"name":"cap","type":"string","value":"1"},{"name":"facing","type":"string","value":"up"},{"name":"kind","type":"string","value":"spot"},{"name":"order","type":"string","value":"1"},{"name":"role","type":"string","value":"door"}]},{"id":453,"name":"Residential Area","type":"","rotation":0,"point":true,"visible":true,"x":224.0,"y":525.6,"width":0,"height":0,"properties":[{"name":"cap","type":"string","value":"1"},{"name":"facing","type":"string","value":"up"},{"name":"kind","type":"string","value":"spot"},{"name":"order","type":"string","value":"2"},{"name":"role","type":"string","value":"door"}]},{"id":454,"name":"Residential Area","type":"","rotation":0,"point":true,"visible":true,"x":288.0,"y":525.6,"width":0,"height":0,"properties":[{"name":"cap","type":"string","value":"1"},{"name":"facing","type":"string","value":"up"},{"name":"kind","type":"string","value":"spot"},{"name":"order","type":"string","value":"3"},{"name":"role","type":"string","value":"door"}]},{"id":455,"name":"Residential Area","type":"","rotation":0,"point":true,"visible":true,"x":352.0,"y":525.6,"width":0,"height":0,"properties":[{"name":"cap","type":"string","value":"1"},{"name":"facing","type":"string","value":"up"},{"name":"kind","type":"string","value":"spot"},{"name":"order","type":"string","value":"4"},{"name":"role","type":"string","value":"door"}]},{"id":456,"name":"Residential Area","type":"","rotation":0,"point":true,"visible":true,"x":416.0,"y":525.6,"width":0,"height":0,"properties":[{"name":"cap","type":"string","value":"1"},{"name":"facing","type":"string","value":"up"},{"name":"kind","type":"string","value":"spot"},{"name":"order","type":"string","value":"5"},{"name":"role","type":"string","value":"door"}]},{"id":457,"name":"Residential Area","type":"","rotation":0,"point":true,"visible":true,"x":480.0,"y":525.6,"width":0,"height":0,"properties":[{"name":"cap","type":"string","value":"1"},{"name":"facing","type":"string","value":"up"},{"name":"kind","type":"string","value":"spot"},{"name":"order","type":"string","value":"6"},{"name":"role","type":"string","value":"door"}]},{"id":458,"name":"Residential Area","type":"","rotation":0,"point":true,"visible":true,"x":80.0,"y":669.6,"width":0,"height":0,"properties":[{"name":"cap","type":"string","value":"1"},{"name":"facing","type":"string","value":"up"},{"name":"kind","type":"string","value":"spot"},{"name":"order","type":"string","value":"7"},{"name":"role","type":"string","value":"door"}]},{"id":459,"name":"Residential Area","type":"","rotation":0,"point":true,"visible":true,"x":192.0,"y":669.6,"width":0,"height":0,"properties":[{"name":"cap","type":"string","value":"1"},{"name":"facing","type":"string","value":"up"},{"name":"kind","type":"string","value":"spot"},{"name":"order","type":"string","value":"8"},{"name":"role","type":"string","value":"door"}]},{"id":460,"name":"Residential Area","type":"","rotation":0,"point":true,"visible":true,"x":304.0,"y":669.6,"width":0,"height":0,"properties":[{"name":"cap","type":"string","value":"1"},{"name":"facing","type":"string","value":"up"},{"name":"kind","type":"string","value":"spot"},{"name":"order","type":"string","value":"9"},{"name":"role","type":"string","value":"door"}]},{"id":461,"name":"Public Library","type":"","rotation":0,"point":true,"visible":true,"x":448.0,"y":669.6,"width":0,"height":0,"properties":[{"name":"cap","type":"string","value":"1"},{"name":"facing","type":"string","value":"up"},{"name":"kind","type":"string","value":"spot"},{"name":"order","type":"string","value":"1"},{"name":"role","type":"string","value":"door"}]},{"id":462,"name":"NJ Transit Stop","type":"","rotation":0,"point":true,"visible":true,"x":704.0,"y":525.6,"width":0,"height":0,"properties":[{"name":"cap","type":"string","value":"1"},{"name":"facing","type":"string","value":"up"},{"name":"kind","type":"string","value":"spot"},{"name":"order","type":"string","value":"2"},{"name":"role","type":"string","value":"door"}]},{"id":463,"name":"Community Center","type":"","rotation":0,"point":true,"visible":true,"x":1072.0,"y":541.6,"width":0,"height":0,"properties":[{"name":"cap","type":"string","value":"1"},{"name":"facing","type":"string","value":"up"},{"name":"kind","type":"string","value":"spot"},{"name":"order","type":"string","value":"9"},{"name":"role","type":"string","value":"door"}]},{"id":464,"name":"Community Center","type":"","rotation":0,"point":true,"visible":true,"x":944.0,"y":541.6,"width":0,"height":0,"properties":[{"name":"cap","type":"string","value":"1"},{"name":"facing","type":"string","value":"up"},{"name":"kind","type":"string","value":"spot"},{"name":"order","type":"string","value":"10"},{"name":"role","type":"string","value":"door"}]},{"id":465,"name":"Indian Grocery","type":"","rotation":0,"point":true,"visible":true,"x":480.0,"y":253.6,"width":0,"height":0,"properties":[{"name":"cap","type":"string","value":"1"},{"name":"facing","type":"string","value":"down"},{"name":"kind","type":"string","value":"spot"},{"name":"order","type":"string","value":"2"},{"name":"role","type":"string","value":"porch"}]},{"id":466,"name":"Indian Grocery","type":"","rotation":0,"point":true,"visible":true,"x":544.0,"y":253.6,"width":0,"height":0,"properties":[{"name":"cap","type":"string","value":"1"},{"name":"facing","type":"string","value":"down"},{"name":"kind","type":"string","value":"spot"},{"name":"order","type":"string","value":"3"},{"name":"role","type":"string","value":"porch"}]},{"id":467,"name":"Hindu Temple","type":"","rotation":0,"point":true,"visible":true,"x":656.0,"y":237.6,"width":0,"height":0,"properties":[{"name":"cap","type":"string","value":"1"},{"name":"facing","type":"string","value":"down"},{"name":"kind","type":"string","value":"spot"},{"name":"order","type":"string","value":"2"},{"name":"role","type":"string","value":"porch"}]},{"id":468,"name":"Corporate Park","type":"","rotation":0,"point":true,"visible":true,"x":880.0,"y":269.6,"width":0,"height":0,"properties":[{"name":"cap","type":"string","value":"1"},{"name":"facing","type":"string","value":"down"},{"name":"kind","type":"string","value":"spot"},{"name":"order","type":"string","value":"1"},{"name":"role","type":"string","value":"porch"}]},{"id":469,"name":"Corporate Park","type":"","rotation":0,"point":true,"visible":true,"x":944.0,"y":269.6,"width":0,"height":0,"properties":[{"name":"cap","type":"string","value":"1"},{"name":"facing","type":"string","value":"down"},{"name":"kind","type":"string","value":"spot"},{"name":"order","type":"string","value":"2"},{"name":"role","type":"string","value":"porch"}]},{"id":470,"name":"Residential Area","type":"","rotation":0,"point":true,"visible":true,"x":64.0,"y":525.6,"width":0,"height":0,"properties":[{"name":"cap","type":"string","value":"1"},{"name":"facing","type":"string","value":"down"},{"name":"kind","type":"string","value":"spot"},{"name":"order","type":"string","value":"10"},{"name":"role","type":"string","value":"porch"}]},{"id":471,"name":"Residential Area","type":"","rotation":0,"point":true,"visible":true,"x":128.0,"y":525.6,"width":0,"height":0,"properties":[{"name":"cap","type":"string","value":"1"},{"name":"facing","type":"string","value":"down"},{"name":"kind","type":"string","value":"spot"},{"name":"order","type":"string","value":"11"},{"name":"role","type":"string","value":"porch"}]},{"id":472,"name":"Residential Area","type":"","rotation":0,"point":true,"visible":true,"x":192.0,"y":525.6,"width":0,"height":0,"properties":[{"name":"cap","type":"string","value":"1"},{"name":"facing","type":"string","value":"down"},{"name":"kind","type":"string","value":"spot"},{"name":"order","type":"string","value":"12"},{"name":"role","type":"string","value":"porch"}]},{"id":473,"name":"Residential Area","type":"","rotation":0,"point":true,"visible":true,"x":256.0,"y":525.6,"width":0,"height":0,"properties":[{"name":"cap","type":"string","value":"1"},{"name":"facing","type":"string","value":"down"},{"name":"kind","type":"string","value":"spot"},{"name":"order","type":"string","value":"13"},{"name":"role","type":"string","value":"porch"}]},{"id":474,"name":"Residential Area","type":"","rotation":0,"point":true,"visible":true,"x":320.0,"y":525.6,"width":0,"height":0,"properties":[{"name":"cap","type":"string","value":"1"},{"name":"facing","type":"string","value":"down"},{"name":"kind","type":"string","value":"spot"},{"name":"order","type":"string","value":"14"},{"name":"role","type":"string","value":"porch"}]},{"id":475,"name":"Residential Area","type":"","rotation":0,"point":true,"visible":true,"x":384.0,"y":525.6,"width":0,"height":0,"properties":[{"name":"cap","type":"string","value":"1"},{"name":"facing","type":"string","value":"down"},{"name":"kind","type":"string","value":"spot"},{"name":"order","type":"string","value":"15"},{"name":"role","type":"string","value":"porch"}]},{"id":476,"name":"Residential Area","type":"","rotation":0,"point":true,"visible":true,"x":448.0,"y":525.6,"width":0,"height":0,"properties":[{"name":"cap","type":"string","value":"1"},{"name":"facing","type":"string","value":"down"},{"name":"kind","type":"string","value":"spot"},{"name":"order","type":"string","value":"16"},{"name":"role","type":"string","value":"porch"}]},{"id":477,"name":"Residential Area","type":"","rotation":0,"point":true,"visible":true,"x":512.0,"y":525.6,"width":0,"height":0,"properties":[{"name":"cap","type":"string","value":"1"},{"name":"facing","type":"string","value":"down"},{"name":"kind","type":"string","value":"spot"},{"name":"order","type":"string","value":"17"},{"name":"role","type":"string","value":"porch"}]},{"id":478,"name":"Residential Area","type":"","rotation":0,"point":true,"visible":true,"x":112.0,"y":669.6,"width":0,"height":0,"properties":[{"name":"cap","type":"string","value":"1"},{"name":"facing","type":"string","value":"down"},{"name":"kind","type":"string","value":"spot"},{"name":"order","type":"string","value":"18"},{"name":"role","type":"string","value":"porch"}]},{"id":479,"name":"Residential Area","type":"","rotation":0,"point":true,"visible":true,"x":160.0,"y":669.6,"width":0,"height":0,"properties":[{"name":"cap","type":"string","value":"1"},{"name":"facing","type":"string","value":"down"},{"name":"kind","type":"string","value":"spot"},{"name":"order","type":"string","value":"19"},{"name":"role","type":"string","value":"porch"}]},{"id":480,"name":"Residential Area","type":"","rotation":0,"point":true,"visible":true,"x":224.0,"y":669.6,"width":0,"height":0,"properties":[{"name":"cap","type":"string","value":"1"},{"name":"facing","type":"string","value":"down"},{"name":"kind","type":"string","value":"spot"},{"name":"order","type":"string","value":"20"},{"name":"role","type":"string","value":"porch"}]},{"id":481,"name":"Residential Area","type":"","rotation":0,"point":true,"visible":true,"x":272.0,"y":669.6,"width":0,"height":0,"properties":[{"name":"cap","type":"string","value":"1"},{"name":"facing","type":"string","value":"down"},{"name":"kind","type":"string","value":"spot"},{"name":"order","type":"string","value":"21"},{"name":"role","type":"string","value":"porch"}]},{"id":482,"name":"Residential Area","type":"","rotation":0,"point":true,"visible":true,"x":336.0,"y":669.6,"width":0,"height":0,"properties":[{"name":"cap","type":"string","value":"1"},{"name":"facing","type":"string","value":"down"},{"name":"kind","type":"string","value":"spot"},{"name":"order","type":"string","value":"22"},{"name":"role","type":"string","value":"porch"}]},{"id":483,"name":"Public Library","type":"","rotation":0,"point":true,"visible":true,"x":416.0,"y":669.6,"width":0,"height":0,"properties":[{"name":"cap","type":"string","value":"1"},{"name":"facing","type":"string","value":"down"},{"name":"kind","type":"string","value":"spot"},{"name":"order","type":"string","value":"2"},{"name":"role","type":"string","value":"porch"}]},{"id":484,"name":"Public Library","type":"","rotation":0,"point":true,"visible":true,"x":480.0,"y":669.6,"width":0,"height":0,"properties":[{"name":"cap","type":"string","value":"1"},{"name":"facing","type":"string","value":"down"},{"name":"kind","type":"string","value":"spot"},{"name":"order","type":"string","value":"3"},{"name":"role","type":"string","value":"porch"}]},{"id":485,"name":"NJ Transit Stop","type":"","rotation":0,"point":true,"visible":true,"x":672.0,"y":525.6,"width":0,"height":0,"properties":[{"name":"cap","type":"string","value":"1"},{"name":"facing","type":"string","value":"down"},{"name":"kind","type":"string","value":"spot"},{"name":"order","type":"string","value":"3"},{"name":"role","type":"string","value":"porch"}]},{"id":486,"name":"Community Center","type":"","rotation":0,"point":true,"visible":true,"x":1040.0,"y":541.6,"width":0,"height":0,"properties":[{"name":"cap","type":"string","value":"1"},{"name":"facing","type":"string","value":"down"},{"name":"kind","type":"string","value":"spot"},{"name":"order","type":"string","value":"11"},{"name":"role","type":"string","value":"porch"}]},{"id":487,"name":"Community Center","type":"","rotation":0,"point":true,"visible":true,"x":1104.0,"y":541.6,"width":0,"height":0,"properties":[{"name":"cap","type":"string","value":"1"},{"name":"facing","type":"string","value":"down"},{"name":"kind","type":"string","value":"spot"},{"name":"order","type":"string","value":"12"},{"name":"role","type":"string","value":"porch"}]},{"id":488,"name":"Community Center","type":"","rotation":0,"point":true,"visible":true,"x":912.0,"y":541.6,"width":0,"height":0,"properties":[{"name":"cap","type":"string","value":"1"},{"name":"facing","type":"string","value":"down"},{"name":"kind","type":"string","value":"spot"},{"name":"order","type":"string","value":"13"},{"name":"role","type":"string","value":"porch"}]},{"id":489,"name":"Community Center","type":"","rotation":0,"point":true,"visible":true,"x":976.0,"y":541.6,"width":0,"height":0,"properties":[{"name":"cap","type":"string","value":"1"},{"name":"facing","type":"string","value":"down"},{"name":"kind","type":"string","value":"spot"},{"name":"order","type":"string","value":"14"},{"name":"role","type":"string","value":"porch"}]},{"id":490,"name":"Corporate Park","type":"","rotation":0,"point":true,"visible":true,"x":840.0,"y":269.6,"width":0,"height":0,"properties":[{"name":"cap","type":"string","value":"1"},{"name":"facing","type":"string","value":"up"},{"name":"kind","type":"string","value":"spot"},{"name":"order","type":"string","value":"3"},{"name":"role","type":"string","value":"window"}]},{"id":491,"name":"Corporate Park","type":"","rotation":0,"point":true,"visible":true,"x":968.0,"y":269.6,"width":0,"height":0,"properties":[{"name":"cap","type":"string","value":"1"},{"name":"facing","type":"string","value":"up"},{"name":"kind","type":"string","value":"spot"},{"name":"order","type":"string","value":"4"},{"name":"role","type":"string","value":"window"}]},{"id":492,"name":"Residential Area","type":"","rotation":0,"point":true,"visible":true,"x":56.0,"y":669.6,"width":0,"height":0,"properties":[{"name":"cap","type":"string","value":"1"},{"name":"facing","type":"string","value":"up"},{"name":"kind","type":"string","value":"spot"},{"name":"order","type":"string","value":"23"},{"name":"role","type":"string","value":"window"}]},{"id":493,"name":"Indian Grocery","type":"","rotation":0,"point":true,"visible":true,"x":504.0,"y":269.6,"width":0,"height":0,"properties":[{"name":"cap","type":"string","value":"1"},{"name":"facing","type":"string","value":"face"},{"name":"kind","type":"string","value":"spot"},{"name":"order","type":"string","value":"4"},{"name":"pair","type":"string","value":"Indian Grocery#0"},{"name":"role","type":"string","value":"chat"},{"name":"side","type":"string","value":"a"}]},{"id":494,"name":"Indian Grocery","type":"","rotation":0,"point":true,"visible":true,"x":536.0,"y":269.6,"width":0,"height":0,"properties":[{"name":"cap","type":"string","value":"1"},{"name":"facing","type":"string","value":"face"},{"name":"kind","type":"string","value":"spot"},{"name":"order","type":"string","value":"5"},{"name":"pair","type":"string","value":"Indian Grocery#0"},{"name":"role","type":"string","value":"chat"},{"name":"side","type":"string","value":"b"}]},{"id":495,"name":"Hindu Temple","type":"","rotation":0,"point":true,"visible":true,"x":600.0,"y":253.6,"width":0,"height":0,"properties":[{"name":"cap","type":"string","value":"1"},{"name":"facing","type":"string","value":"face"},{"name":"kind","type":"string","value":"spot"},{"name":"order","type":"string","value":"3"},{"name":"pair","type":"string","value":"Hindu Temple#0"},{"name":"role","type":"string","value":"chat"},{"name":"side","type":"string","value":"a"}]},{"id":496,"name":"Hindu Temple","type":"","rotation":0,"point":true,"visible":true,"x":632.0,"y":253.6,"width":0,"height":0,"properties":[{"name":"cap","type":"string","value":"1"},{"name":"facing","type":"string","value":"face"},{"name":"kind","type":"string","value":"spot"},{"name":"order","type":"string","value":"4"},{"name":"pair","type":"string","value":"Hindu Temple#0"},{"name":"role","type":"string","value":"chat"},{"name":"side","type":"string","value":"b"}]},{"id":497,"name":"Corporate Park","type":"","rotation":0,"point":true,"visible":true,"x":888.0,"y":285.6,"width":0,"height":0,"properties":[{"name":"cap","type":"string","value":"1"},{"name":"facing","type":"string","value":"face"},{"name":"kind","type":"string","value":"spot"},{"name":"order","type":"string","value":"5"},{"name":"pair","type":"string","value":"Corporate Park#0"},{"name":"role","type":"string","value":"chat"},{"name":"side","type":"string","value":"a"}]},{"id":498,"name":"Corporate Park","type":"","rotation":0,"point":true,"visible":true,"x":920.0,"y":285.6,"width":0,"height":0,"properties":[{"name":"cap","type":"string","value":"1"},{"name":"facing","type":"string","value":"face"},{"name":"kind","type":"string","value":"spot"},{"name":"order","type":"string","value":"6"},{"name":"pair","type":"string","value":"Corporate Park#0"},{"name":"role","type":"string","value":"chat"},{"name":"side","type":"string","value":"b"}]},{"id":499,"name":"Residential Area","type":"","rotation":0,"point":true,"visible":true,"x":56.0,"y":685.6,"width":0,"height":0,"properties":[{"name":"cap","type":"string","value":"1"},{"name":"facing","type":"string","value":"face"},{"name":"kind","type":"string","value":"spot"},{"name":"order","type":"string","value":"24"},{"name":"pair","type":"string","value":"Residential Area#7"},{"name":"role","type":"string","value":"chat"},{"name":"side","type":"string","value":"a"}]},{"id":500,"name":"Residential Area","type":"","rotation":0,"point":true,"visible":true,"x":88.0,"y":685.6,"width":0,"height":0,"properties":[{"name":"cap","type":"string","value":"1"},{"name":"facing","type":"string","value":"face"},{"name":"kind","type":"string","value":"spot"},{"name":"order","type":"string","value":"25"},{"name":"pair","type":"string","value":"Residential Area#7"},{"name":"role","type":"string","value":"chat"},{"name":"side","type":"string","value":"b"}]},{"id":501,"name":"Residential Area","type":"","rotation":0,"point":true,"visible":true,"x":168.0,"y":685.6,"width":0,"height":0,"properties":[{"name":"cap","type":"string","value":"1"},{"name":"facing","type":"string","value":"face"},{"name":"kind","type":"string","value":"spot"},{"name":"order","type":"string","value":"26"},{"name":"pair","type":"string","value":"Residential Area#8"},{"name":"role","type":"string","value":"chat"},{"name":"side","type":"string","value":"a"}]},{"id":502,"name":"Residential Area","type":"","rotation":0,"point":true,"visible":true,"x":200.0,"y":685.6,"width":0,"height":0,"properties":[{"name":"cap","type":"string","value":"1"},{"name":"facing","type":"string","value":"face"},{"name":"kind","type":"string","value":"spot"},{"name":"order","type":"string","value":"27"},{"name":"pair","type":"string","value":"Residential Area#8"},{"name":"role","type":"string","value":"chat"},{"name":"side","type":"string","value":"b"}]},{"id":503,"name":"Residential Area","type":"","rotation":0,"point":true,"visible":true,"x":280.0,"y":685.6,"width":0,"height":0,"properties":[{"name":"cap","type":"string","value":"1"},{"name":"facing","type":"string","value":"face"},{"name":"kind","type":"string","value":"spot"},{"name":"order","type":"string","value":"28"},{"name":"pair","type":"string","value":"Residential Area#9"},{"name":"role","type":"string","value":"chat"},{"name":"side","type":"string","value":"a"}]},{"id":504,"name":"Residential Area","type":"","rotation":0,"point":true,"visible":true,"x":312.0,"y":685.6,"width":0,"height":0,"properties":[{"name":"cap","type":"string","value":"1"},{"name":"facing","type":"string","value":"face"},{"name":"kind","type":"string","value":"spot"},{"name":"order","type":"string","value":"29"},{"name":"pair","type":"string","value":"Residential Area#9"},{"name":"role","type":"string","value":"chat"},{"name":"side","type":"string","value":"b"}]},{"id":505,"name":"Public Library","type":"","rotation":0,"point":true,"visible":true,"x":424.0,"y":685.6,"width":0,"height":0,"properties":[{"name":"cap","type":"string","value":"1"},{"name":"facing","type":"string","value":"face"},{"name":"kind","type":"string","value":"spot"},{"name":"order","type":"string","value":"4"},{"name":"pair","type":"string","value":"Public Library#0"},{"name":"role","type":"string","value":"chat"},{"name":"side","type":"string","value":"a"}]},{"id":506,"name":"Public Library","type":"","rotation":0,"point":true,"visible":true,"x":456.0,"y":685.6,"width":0,"height":0,"properties":[{"name":"cap","type":"string","value":"1"},{"name":"facing","type":"string","value":"face"},{"name":"kind","type":"string","value":"spot"},{"name":"order","type":"string","value":"5"},{"name":"pair","type":"string","value":"Public Library#0"},{"name":"role","type":"string","value":"chat"},{"name":"side","type":"string","value":"b"}]},{"id":507,"name":"NJ Transit Stop","type":"","rotation":0,"point":true,"visible":true,"x":664.0,"y":557.6,"width":0,"height":0,"properties":[{"name":"cap","type":"string","value":"1"},{"name":"facing","type":"string","value":"face"},{"name":"kind","type":"string","value":"spot"},{"name":"order","type":"string","value":"4"},{"name":"pair","type":"string","value":"NJ Transit Stop#0"},{"name":"role","type":"string","value":"chat"},{"name":"side","type":"string","value":"a"}]},{"id":508,"name":"NJ Transit Stop","type":"","rotation":0,"point":true,"visible":true,"x":696.0,"y":557.6,"width":0,"height":0,"properties":[{"name":"cap","type":"string","value":"1"},{"name":"facing","type":"string","value":"face"},{"name":"kind","type":"string","value":"spot"},{"name":"order","type":"string","value":"5"},{"name":"pair","type":"string","value":"NJ Transit Stop#0"},{"name":"role","type":"string","value":"chat"},{"name":"side","type":"string","value":"b"}]},{"id":509,"name":"Community Center","type":"","rotation":0,"point":true,"visible":true,"x":1048.0,"y":557.6,"width":0,"height":0,"properties":[{"name":"cap","type":"string","value":"1"},{"name":"facing","type":"string","value":"face"},{"name":"kind","type":"string","value":"spot"},{"name":"order","type":"string","value":"15"},{"name":"pair","type":"string","value":"Community Center#0"},{"name":"role","type":"string","value":"chat"},{"name":"side","type":"string","value":"a"}]},{"id":510,"name":"Community Center","type":"","rotation":0,"point":true,"visible":true,"x":1080.0,"y":557.6,"width":0,"height":0,"properties":[{"name":"cap","type":"string","value":"1"},{"name":"facing","type":"string","value":"face"},{"name":"kind","type":"string","value":"spot"},{"name":"order","type":"string","value":"16"},{"name":"pair","type":"string","value":"Community Center#0"},{"name":"role","type":"string","value":"chat"},{"name":"side","type":"string","value":"b"}]},{"id":511,"name":"Community Center","type":"","rotation":0,"point":true,"visible":true,"x":920.0,"y":557.6,"width":0,"height":0,"properties":[{"name":"cap","type":"string","value":"1"},{"name":"facing","type":"string","value":"face"},{"name":"kind","type":"string","value":"spot"},{"name":"order","type":"string","value":"17"},{"name":"pair","type":"string","value":"Community Center#1"},{"name":"role","type":"string","value":"chat"},{"name":"side","type":"string","value":"a"}]},{"id":512,"name":"Community Center","type":"","rotation":0,"point":true,"visible":true,"x":952.0,"y":557.6,"width":0,"height":0,"properties":[{"name":"cap","type":"string","value":"1"},{"name":"facing","type":"string","value":"face"},{"name":"kind","type":"string","value":"spot"},{"name":"order","type":"string","value":"18"},{"name":"pair","type":"string","value":"Community Center#1"},{"name":"role","type":"string","value":"chat"},{"name":"side","type":"string","value":"b"}]},{"id":513,"name":"Route 46","type":"","rotation":0,"point":true,"visible":true,"x":328.0,"y":397.6,"width":0,"height":0,"properties":[{"name":"cap","type":"string","value":"1"},{"name":"facing","type":"string","value":"face"},{"name":"kind","type":"string","value":"spot"},{"name":"order","type":"string","value":"0"},{"name":"pair","type":"string","value":"Route 46#0"},{"name":"role","type":"string","value":"chat"},{"name":"side","type":"string","value":"a"}]},{"id":514,"name":"Route 46","type":"","rotation":0,"point":true,"visible":true,"x":360.0,"y":397.6,"width":0,"height":0,"properties":[{"name":"cap","type":"string","value":"1"},{"name":"facing","type":"string","value":"face"},{"name":"kind","type":"string","value":"spot"},{"name":"order","type":"string","value":"1"},{"name":"pair","type":"string","value":"Route 46#0"},{"name":"role","type":"string","value":"chat"},{"name":"side","type":"string","value":"b"}]},{"id":515,"name":"Route 46","type":"","rotation":0,"point":true,"visible":true,"x":600.0,"y":397.6,"width":0,"height":0,"properties":[{"name":"cap","type":"string","value":"1"},{"name":"facing","type":"string","value":"face"},{"name":"kind","type":"string","value":"spot"},{"name":"order","type":"string","value":"2"},{"name":"pair","type":"string","value":"Route 46#1"},{"name":"role","type":"string","value":"chat"},{"name":"side","type":"string","value":"a"}]},{"id":516,"name":"Route 46","type":"","rotation":0,"point":true,"visible":true,"x":632.0,"y":397.6,"width":0,"height":0,"properties":[{"name":"cap","type":"string","value":"1"},{"name":"facing","type":"string","value":"face"},{"name":"kind","type":"string","value":"spot"},{"name":"order","type":"string","value":"3"},{"name":"pair","type":"string","value":"Route 46#1"},{"name":"role","type":"string","value":"chat"},{"name":"side","type":"string","value":"b"}]},{"id":517,"name":"Route 46","type":"","rotation":0,"point":true,"visible":true,"x":840.0,"y":397.6,"width":0,"height":0,"properties":[{"name":"cap","type":"string","value":"1"},{"name":"facing","type":"string","value":"face"},{"name":"kind","type":"string","value":"spot"},{"name":"order","type":"string","value":"4"},{"name":"pair","type":"string","value":"Route 46#2"},{"name":"role","type":"string","value":"chat"},{"name":"side","type":"string","value":"a"}]},{"id":518,"name":"Route 46","type":"","rotation":0,"point":true,"visible":true,"x":872.0,"y":397.6,"width":0,"height":0,"properties":[{"name":"cap","type":"string","value":"1"},{"name":"facing","type":"string","value":"face"},{"name":"kind","type":"string","value":"spot"},{"name":"order","type":"string","value":"5"},{"name":"pair","type":"string","value":"Route 46#2"},{"name":"role","type":"string","value":"chat"},{"name":"side","type":"string","value":"b"}]},{"id":519,"name":"Lake Parsippany","type":"","rotation":0,"point":true,"visible":true,"x":312.0,"y":189.6,"width":0,"height":0,"properties":[{"name":"cap","type":"string","value":"1"},{"name":"facing","type":"string","value":"face"},{"name":"kind","type":"string","value":"spot"},{"name":"order","type":"string","value":"8"},{"name":"pair","type":"string","value":"Lake Parsippany#0"},{"name":"role","type":"string","value":"chat"},{"name":"side","type":"string","value":"a"}]},{"id":520,"name":"Lake Parsippany","type":"","rotation":0,"point":true,"visible":true,"x":344.0,"y":189.6,"width":0,"height":0,"properties":[{"name":"cap","type":"string","value":"1"},{"name":"facing","type":"string","value":"face"},{"name":"kind","type":"string","value":"spot"},{"name":"order","type":"string","value":"9"},{"name":"pair","type":"string","value":"Lake Parsippany#0"},{"name":"role","type":"string","value":"chat"},{"name":"side","type":"string","value":"b"}]},{"id":521,"name":"Lake Parsippany","type":"","rotation":0,"point":true,"visible":true,"x":344.0,"y":157.6,"width":0,"height":0,"properties":[{"name":"cap","type":"string","value":"1"},{"name":"facing","type":"string","value":"down"},{"name":"kind","type":"string","value":"spot"},{"name":"order","type":"string","value":"10"},{"name":"role","type":"string","value":"lawn"}]},{"id":522,"name":"Lake Parsippany","type":"","rotation":0,"point":true,"visible":true,"x":360.0,"y":221.6,"width":0,"height":0,"properties":[{"name":"cap","type":"string","value":"1"},{"name":"facing","type":"string","value":"down"},{"name":"kind","type":"string","value":"spot"},{"name":"order","type":"string","value":"11"},{"name":"role","type":"string","value":"lawn"}]},{"id":523,"name":"Lake Parsippany","type":"","rotation":0,"point":true,"visible":true,"x":312.0,"y":157.6,"width":0,"height":0,"properties":[{"name":"cap","type":"string","value":"1"},{"name":"facing","type":"string","value":"down"},{"name":"kind","type":"string","value":"spot"},{"name":"order","type":"string","value":"12"},{"name":"role","type":"string","value":"lawn"}]},{"id":524,"name":"Lake Parsippany","type":"","rotation":0,"point":true,"visible":true,"x":184.0,"y":301.6,"width":0,"height":0,"properties":[{"name":"cap","type":"string","value":"1"},{"name":"facing","type":"string","value":"down"},{"name":"kind","type":"string","value":"spot"},{"name":"order","type":"string","value":"13"},{"name":"role","type":"string","value":"lawn"}]},{"id":525,"name":"Lake Parsippany","type":"","rotation":0,"point":true,"visible":true,"x":376.0,"y":141.6,"width":0,"height":0,"properties":[{"name":"cap","type":"string","value":"1"},{"name":"facing","type":"string","value":"down"},{"name":"kind","type":"string","value":"spot"},{"name":"order","type":"string","value":"14"},{"name":"role","type":"string","value":"lawn"}]},{"id":526,"name":"Community Center","type":"","rotation":0,"point":true,"visible":true,"x":1048.0,"y":541.6,"width":0,"height":0,"properties":[{"name":"cap","type":"string","value":"1"},{"name":"facing","type":"string","value":"up"},{"name":"kind","type":"string","value":"spot"},{"name":"order","type":"string","value":"0"},{"name":"role","type":"string","value":"queue"}]},{"id":527,"name":"Community Center","type":"","rotation":0,"point":true,"visible":true,"x":1000.0,"y":541.6,"width":0,"height":0,"properties":[{"name":"cap","type":"string","value":"1"},{"name":"facing","type":"string","value":"up"},{"name":"kind","type":"string","value":"spot"},{"name":"order","type":"string","value":"1"},{"name":"role","type":"string","value":"queue"}]},{"id":528,"name":"Community Center","type":"","rotation":0,"point":true,"visible":true,"x":968.0,"y":541.6,"width":0,"height":0,"properties":[{"name":"cap","type":"string","value":"1"},{"name":"facing","type":"string","value":"up"},{"name":"kind","type":"string","value":"spot"},{"name":"order","type":"string","value":"2"},{"name":"role","type":"string","value":"queue"}]},{"id":529,"name":"Community Center","type":"","rotation":0,"point":true,"visible":true,"x":936.0,"y":541.6,"width":0,"height":0,"properties":[{"name":"cap","type":"string","value":"1"},{"name":"facing","type":"string","value":"up"},{"name":"kind","type":"string","value":"spot"},{"name":"order","type":"string","value":"3"},{"name":"role","type":"string","value":"queue"}]},{"id":530,"name":"Community Center","type":"","rotation":0,"point":true,"visible":true,"x":904.0,"y":541.6,"width":0,"height":0,"properties":[{"name":"cap","type":"string","value":"1"},{"name":"facing","type":"string","value":"up"},{"name":"kind","type":"string","value":"spot"},{"name":"order","type":"string","value":"4"},{"name":"role","type":"string","value":"queue"}]}]},{"id":8,"name":"traffic","type":"objectgroup","visible":false,"opacity":1,"x":0,"y":0,"draworder":"topdown","objects":[{"id":531,"name":"h21","type":"","rotation":0,"visible":true,"x":0,"y":376.0,"width":0,"height":0,"polyline":[{"x":0,"y":0},{"x":1200,"y":0.0}],"properties":[{"name":"kind","type":"string","value":"lane"},{"name":"dir","type":"string","value":"e"},{"name":"road","type":"string","value":"h21"},{"name":"through","type":"string","value":"1"}]},{"id":532,"name":"","type":"","rotation":0,"point":true,"visible":true,"x":750,"y":376.0,"width":0,"height":0,"properties":[{"name":"kind","type":"string","value":"stopline"},{"name":"axis","type":"string","value":"h"},{"name":"dir","type":"string","value":"e"},{"name":"signal","type":"string","value":"1"}]},{"id":533,"name":"","type":"","rotation":0,"point":true,"visible":true,"x":510,"y":376.0,"width":0,"height":0,"properties":[{"name":"kind","type":"string","value":"stopline"},{"name":"axis","type":"string","value":"h"},{"name":"dir","type":"string","value":"e"},{"name":"signal","type":"string","value":"0"}]},{"id":534,"name":"h21","type":"","rotation":0,"visible":true,"x":1200,"y":344.0,"width":0,"height":0,"polyline":[{"x":0,"y":0},{"x":-1200,"y":0.0}],"properties":[{"name":"kind","type":"string","value":"lane"},{"name":"dir","type":"string","value":"w"},{"name":"road","type":"string","value":"h21"},{"name":"through","type":"string","value":"1"}]},{"id":535,"name":"","type":"","rotation":0,"point":true,"visible":true,"x":834,"y":344.0,"width":0,"height":0,"properties":[{"name":"kind","type":"string","value":"stopline"},{"name":"axis","type":"string","value":"h"},{"name":"dir","type":"string","value":"w"},{"name":"signal","type":"string","value":"1"}]},{"id":536,"name":"","type":"","rotation":0,"point":true,"visible":true,"x":594,"y":344.0,"width":0,"height":0,"properties":[{"name":"kind","type":"string","value":"stopline"},{"name":"axis","type":"string","value":"h"},{"name":"dir","type":"string","value":"w"},{"name":"signal","type":"string","value":"0"}]},{"id":537,"name":"v48","type":"","rotation":0,"visible":true,"x":776.0,"y":0,"width":0,"height":0,"polyline":[{"x":0,"y":0},{"x":0.0,"y":800}],"properties":[{"name":"kind","type":"string","value":"lane"},{"name":"dir","type":"string","value":"s"},{"name":"road","type":"string","value":"v48"},{"name":"through","type":"string","value":"1"}]},{"id":538,"name":"","type":"","rotation":0,"point":true,"visible":true,"x":776.0,"y":318,"width":0,"height":0,"properties":[{"name":"kind","type":"string","value":"stopline"},{"name":"axis","type":"string","value":"v"},{"name":"dir","type":"string","value":"s"},{"name":"signal","type":"string","value":"1"}]},{"id":539,"name":"v48","type":"","rotation":0,"visible":true,"x":808.0,"y":800,"width":0,"height":0,"polyline":[{"x":0,"y":0},{"x":0.0,"y":-800}],"properties":[{"name":"kind","type":"string","value":"lane"},{"name":"dir","type":"string","value":"n"},{"name":"road","type":"string","value":"v48"},{"name":"through","type":"string","value":"1"}]},{"id":540,"name":"","type":"","rotation":0,"point":true,"visible":true,"x":808.0,"y":402,"width":0,"height":0,"properties":[{"name":"kind","type":"string","value":"stopline"},{"name":"axis","type":"string","value":"v"},{"name":"dir","type":"string","value":"n"},{"name":"signal","type":"string","value":"1"}]},{"id":541,"name":"v33","type":"","rotation":0,"visible":true,"x":536.0,"y":336,"width":0,"height":0,"polyline":[{"x":0,"y":0},{"x":0.0,"y":464}],"properties":[{"name":"kind","type":"string","value":"lane"},{"name":"dir","type":"string","value":"s"},{"name":"road","type":"string","value":"v33"},{"name":"through","type":"string","value":"0"}]},{"id":542,"name":"v33","type":"","rotation":0,"visible":true,"x":568.0,"y":800,"width":0,"height":0,"polyline":[{"x":0,"y":0},{"x":0.0,"y":-464}],"properties":[{"name":"kind","type":"string","value":"lane"},{"name":"dir","type":"string","value":"n"},{"name":"road","type":"string","value":"v33"},{"name":"through","type":"string","value":"0"}]},{"id":543,"name":"","type":"","rotation":0,"point":true,"visible":true,"x":568.0,"y":402,"width":0,"height":0,"properties":[{"name":"kind","type":"string","value":"stopline"},{"name":"axis","type":"string","value":"v"},{"name":"dir","type":"string","value":"n"},{"name":"signal","type":"string","value":"0"}]}]}]}