{"type":"map","version":"1.10","tiledversion":"1.10.2","orientation":"orthogonal","renderorder":"right-down","compressionlevel":-1,"infinite":false,"width":75,"height":50,"tilewidth":16,"tileheight":16,"nextlayerid":9,"nextobjectid":537,"tilesets":[{"firstgid":1,"name":"rpg-tileset","image":"../../tilesets/rpg-tileset.png","imagewidth":1600,"imageheight":1600,"tilewidth":16,"tileheight":16,"columns":100,"tilecount":10000,"margin":0,"spacing":0},{"firstgid":10001,"name":"township-modern","image":"../../tilesets/township-modern.png","imagewidth":160,"imageheight":480,"tilewidth":16,"tileheight":16,"columns":10,"tilecount":300,"margin":0,"spacing":0}],"layers":[{"id":1,"name":"ground","type":"tilelayer","visible":true,"opacity":1,"x":0,"y":0,"width":75,"height":50,"data":[203,303,305,203,302,202,202,304,203,305,302,202,202,204,205,203,302,205,303,302,203,202,203,302,204,303,304,202,303,203,204,302,305,204,302,303,304,202,203,204,305,303,202,10020,202,10017,204,302,302,203,203,304,305,304,204,304,305,303,204,302,205,204,203,302,204,305,304,305,203,303,205,202,303,305,304,204,304,304,303,304,304,304,202,202,302,205,204,304,303,303,204,203,303,303,203,202,304,302,302,302,205,205,303,302,302,203,202,205,205,202,204,205,302,202,204,202,304,305,303,202,302,303,303,303,202,205,202,204,205,302,305,203,204,305,302,305,304,302,305,203,305,302,203,204,204,205,302,303,202,203,203,302,302,204,305,203,204,304,202,205,305,204,204,303,302,305,203,204,202,204,202,303,303,202,205,303,203,203,305,202,302,202,205,304,205,305,303,303,204,204,303,303,302,302,203,302,203,202,205,303,202,203,203,203,205,202,305,204,303,205,302,304,302,304,203,305,305,304,205,303,202,202,203,205,305,202,305,203,303,303,305,202,305,304,203,204,305,203,202,203,202,202,305,202,305,304,303,305,305,303,202,202,303,305,304,204,203,305,305,205,303,205,303,203,302,203,303,302,304,303,303,10001,204,10001,10017,204,303,304,203,305,302,10017,204,204,303,202,204,305,304,205,304,302,205,303,304,303,302,205,203,202,304,304,205,204,305,204,203,305,303,203,202,204,204,203,202,204,303,304,204,305,205,205,202,204,203,302,202,303,304,204,303,204,304,304,303,205,305,203,305,204,204,305,205,205,302,303,203,305,203,204,204,303,302,304,304,203,304,202,205,204,303,205,302,203,302,305,202,302,202,305,204,304,302,202,304,305,305,302,302,304,305,204,303,304,303,202,203,305,303,302,203,305,203,205,304,204,204,305,202,302,204,304,205,304,204,303,205,205,203,204,202,302,304,203,305,305,202,202,302,204,204,304,204,203,302,305,204,202,302,205,205,302,305,203,304,204,305,205,205,303,302,203,304,303,203,303,204,202,305,202,203,204,204,304,203,202,203,203,205,305,202,204,204,203,303,202,305,205,203,303,205,203,302,202,302,203,304,204,302,304,204,305,303,203,302,303,303,304,303,305,202,302,304,203,204,202,205,305,204,302,303,303,204,204,303,204,205,202,203,203,303,304,205,204,303,204,304,303,302,205,205,303,303,304,205,203,303,204,304,203,205,203,204,303,303,305,302,202,203,203,202,304,203,203,303,203,304,203,205,202,303,204,304,303,203,303,203,302,304,303,302,304,302,305,303,305,202,203,203,205,202,10003,203,10004,10020,304,203,205,203,304,303,10019,204,305,205,303,202,302,302,304,303,202,303,204,303,303,202,302,304,202,303,305,305,203,203,205,305,202,303,303,204,305,203,202,205,304,305,204,202,202,205,303,304,302,302,303,204,202,303,304,202,303,205,303,305,305,304,303,302,304,205,303,204,204,203,302,202,303,305,303,302,202,305,205,202,202,205,304,204,202,202,203,205,203,205,302,304,202,204,202,205,305,304,302,205,202,205,202,304,304,204,203,303,302,203,203,303,205,303,302,303,304,204,205,202,204,305,303,203,302,302,304,202,203,204,303,204,304,302,302,203,203,305,302,305,205,303,305,303,304,302,303,302,204,303,202,304,302,205,304,303,305,302,303,202,303,305,302,204,302,203,204,202,302,203,204,203,303,302,203,202,302,304,304,202,202,205,304,204,304,303,203,303,305,204,203,305,202,204,202,204,304,205,205,202,205,202,202,304,202,202,202,204,204,204,303,202,204,304,205,204,202,303,203,305,304,305,304,302,203,204,304,202,304,204,205,305,304,302,205,202,303,203,305,205,204,205,203,204,304,303,202,203,305,205,303,205,205,304,304,304,304,302,305,303,204,303,304,203,303,305,205,204,302,204,302,204,303,302,205,205,302,304,203,202,204,205,203,202,202,205,202,304,304,205,302,202,202,203,303,303,304,302,204,203,204,304,303,303,303,304,203,202,302,305,305,305,304,303,203,302,303,304,304,304,205,302,304,204,202,304,305,302,202,303,205,304,303,204,304,305,203,204,302,302,205,204,202,303,302,203,202,205,204,204,303,304,302,304,205,305,302,203,205,203,303,203,205,304,302,203,203,203,203,305,305,203,303,205,304,202,204,303,305,303,305,202,302,203,303,302,205,203,205,204,304,303,202,205,205,305,303,205,205,302,204,302,305,305,303,305,305,302,304,204,305,203,302,305,205,203,304,202,205,202,305,204,202,204,303,202,204,203,202,203,204,203,204,305,302,304,305,302,304,203,303,305,203,205,304,305,205,302,205,204,202,202,305,202,202,202,302,205,305,305,303,203,302,203,204,303,305,305,205,202,204,302,202,203,205,202,202,203,203,202,204,305,204,202,203,202,303,202,303,302,202,303,205,205,204,304,204,305,303,305,303,305,202,305,304,203,202,305,303,204,202,204,203,305,302,304,305,302,205,305,302,202,205,302,203,204,305,303,203,204,302,302,305,302,305,302,302,305,203,302,302,203,205,304,305,305,203,305,305,305,205,303,202,202,303,202,205,204,205,205,302,203,305,202,202,202,205,302,303,203,305,205,204,204,302,203,205,205,304,305,302,204,304,302,204,305,303,302,203,204,203,303,304,205,202,205,303,303,305,205,202,203,203,302,205,302,304,305,303,204,202,203,303,204,304,304,202,203,205,205,203,204,303,304,305,205,303,202,302,202,305,204,204,203,203,204,305,202,305,305,205,302,202,302,302,302,303,203,205,205,202,204,203,203,305,302,304,303,205,202,303,302,303,205,302,202,303,202,303,204,304,204,205,203,304,203,205,205,203,304,204,202,205,202,205,205,302,203,202,204,203,205,203,202,305,302,303,202,303,303,303,303,204,204,204,305,303,204,305,305,304,302,303,303,304,303,205,304,304,302,305,304,302,303,203,304,303,305,203,203,203,303,204,205,204,302,304,304,204,303,302,204,304,205,202,205,205,204,305,302,202,303,302,302,202,205,203,204,205,302,205,202,302,305,204,303,304,303,302,204,204,205,304,205,205,305,305,305,205,304,205,304,202,205,203,205,204,305,305,303,204,202,202,205,205,205,303,203,205,204,305,305,305,204,203,202,203,304,302,302,302,203,305,302,303,303,305,304,204,202,305,302,303,203,202,202,204,204,202,303,303,303,205,203,203,302,303,203,204,303,204,302,304,305,305,302,303,302,305,202,202,203,302,202,305,204,304,304,305,303,303,204,305,203,204,305,204,205,303,305,205,305,203,204,303,202,204,202,304,204,202,204,204,202,204,205,305,305,304,203,202,202,204,302,302,205,203,303,203,304,305,305,203,202,304,204,204,203,303,204,202,202,304,205,304,305,204,205,304,205,203,204,205,202,205,305,302,203,204,205,204,304,302,304,303,302,305,304,202,302,204,303,302,203,205,204,304,202,202,302,203,203,303,203,204,202,203,302,305,204,303,205,302,204,205,305,302,304,302,302,203,305,202,202,203,302,304,202,304,302,202,202,205,204,204,303,303,202,204,305,204,204,203,202,305,204,205,305,204,303,202,202,203,303,305,305,204,304,204,204,202,204,203,203,203,304,204,303,302,305,204,205,205,205,204,202,203,204,202,302,302,302,203,305,305,304,203,204,304,205,205,203,304,203,203,302,302,303,203,303,202,204,203,305,203,204,202,203,302,203,203,303,203,302,203,203,302,203,304,304,305,304,204,203,305,203,302,302,303,303,204,202,303,203,202,204,205,302,204,205,305,305,302,304,205,302,202,202,304,303,305,304,305,305,204,205,202,302,304,303,303,302,303,304,305,202,302,302,302,205,203,205,304,205,305,203,303,305,303,304,304,304,203,305,205,304,302,204,302,302,305,204,202,202,305,202,304,303,303,203,205,205,205,205,305,202,302,202,303,305,302,303,204,304,302,204,305,202,302,203,203,303,305,204,304,303,304,204,202,202,305,303,202,203,202,203,202,302,305,205,203,303,10002,204,203,304,10002,202,304,305,205,202,304,202,202,205,304,203,205,202,204,303,304,204,303,204,204,205,305,305,305,303,302,305,204,10019,205,203,204,303,304,203,203,202,204,303,302,204,203,304,304,304,205,303,203,203,204,302,304,205,305,302,205,203,203,205,203,305,203,204,302,305,304,204,205,205,304,302,304,302,305,303,204,204,302,205,304,305,304,303,205,302,304,303,205,205,302,304,304,304,202,304,204,303,304,302,203,204,304,10019,302,302,303,305,204,303,304,304,203,305,204,204,203,305,302,305,305,304,203,305,203,202,204,302,305,304,303,303,205,203,302,204,303,304,303,204,204,304,303,203,303,203,202,203,205,205,302,305,203,203,204,305,203,303,204,204,302,304,202,303,305,303,304,305,304,304,205,205,305,303,302,303,205,303,204,10017,305,304,302,205,304,202,303,204,303,303,202,305,205,203,203,203,205,203,203,302,304,203,302,204,302,204,303,202,204,303,303,205,202,204,304,202,305,305,304,302,304,204,202,303,304,202,304,303,204,203,203,205,303,204,203,302,303,205,205,202,305,202,304,305,303,302,303,202,203,305,302,204,204,10018,305,302,304,204,303,303,304,303,203,305,304,302,202,303,305,304,305,302,204,302,304,302,304,303,304,304,303,203,302,303,204,303,302,302,205,304,204,304,203,203,202,304,10004,305,203,305,10001,204,305,205,302,302,304,303,302,305,205,305,302,302,304,205,205,302,202,303,202,302,204,205,305,202,302,302,205,302,203,304,204,205,304,204,205,302,303,202,304,303,205,205,303,305,203,202,203,202,303,203,305,205,302,304,202,302,205,203,203,203,205,303,204,205,204,204,304,303,204,202,305,303,304,202,305,303,202,304,304,203,305,302,203,202,203,305,204,305,202,203,205,302,303,204,203,204,302,303,304,305,305,303,305,304,304,305,202,203,303,303,305,302,303,202,202,203,205,202,303,202,302,305,304,305,203,302,202,303,204,303,303,305,302,204,305,204,302,302,202,203,203,203,304,304,202,302,302,305,202,205,305,203,305,305,205,302,205,202,202,202,304,204,203,305,202,303,202,203,302,204,203,202,203,204,305,202,305,305,302,303,205,204,303,303,304,305,304,302,203,203,204,203,204,305,203,205,304,304,205,304,205,202,302,204,304,202,202,303,202,203,202,304,205,204,303,304,205,205,202,302,204,204,302,202,203,304,302,303,203,205,202,303,202,303,205,203,305,203,302,302,202,302,304,205,305,203,304,205,303,303,305,303,204,202,302,202,303,303,303,305,205,304,303,303,205,303,204,205,302,305,203,202,203,305,303,205,205,304,203,204,305,205,305,205,304,202,202,202,305,202,205,305,203,303,303,204,302,305,202,304,202,205,202,205,202,305,304,304,202,202,304,304,304,204,205,205,304,203,305,202,202,305,205,204,205,202,203,204,303,304,205,305,305,305,305,204,203,204,304,204,303,202,302,303,205,305,205,203,204,203,204,305,202,205,303,302,203,303,303,302,204,302,305,203,205,204,304,302,205,202,205,304,204,305,302,302,304,305,304,203,205,305,302,204,204,204,305,304,302,202,203,302,202,203,205,204,302,305,303,202,304,302,205,303,205,202,204,205,305,304,202,304,302,304,305,302,202,304,205,302,304,205,204,305,205,303,304,203,302,305,204,205,304,303,305,202,204,203,203,302,305,204,304,205,303,304,203,205,302,303,204,205,303,202,302,303,305,304,305,204,303,302,205,302,204,305,204,302,205,204,303,302,204,204,302,205,302,304,203,202,202,204,205,205,303,202,202,202,303,303,203,302,302,203,304,202,202,302,303,205,302,303,305,302,305,303,203,202,202,204,305,202,204,303,304,304,203,303,302,302,202,303,204,304,305,304,203,302,203,202,203,204,203,304,305,303,204,303,304,303,303,203,203,202,305,203,303,303,302,202,205,202,202,204,305,305,302,304,203,205,305,205,304,204,304,302,203,302,302,205,302,304,305,304,205,203,205,203,202,304,304,302,304,202,304,202,304,202,203,205,204,204,202,304,202,303,205,204,305,304,203,303,305,205,203,305,202,202,302,202,305,205,302,205,203,302,305,303,205,305,202,203,303,305,204,304,304,304,303,304,203,202,202,204,202,305,203,202,204,203,202,304,203,304,305,204,202,205,304,203,302,302,204,205,205,204,203,204,205,302,303,203,304,205,204,204,305,302,205,10003,202,305,303,10003,205,302,303,303,205,203,304,205,205,305,205,204,202,304,203,303,202,304,202,205,204,304,203,202,203,302,204,202,303,202,303,305,303,305,205,202,202,304,202,305,203,202,203,203,304,303,204,304,202,302,302,203,205,204,304,304,305,303,305,303,304,202,305,302,204,204,302,202,202,10002,10019,204,203,303,10019,10001,204,203,305,304,303,304,302,304,202,304,304,303,302,302,202,305,304,203,203,304,204,203,205,303,304,302,304,305,203,204,304,305,305,203,205,305,303,202,304,202,205,203,203,204,202,205,302,303,204,205,302,305,203,303,205,205,203,304,202,304,302,303,302,205,205,305,204,204,10017,202,304,305,302,203,10018,304,203,203,303,205,304,204,302,303,203,305,304,305,304,202,204,303,205,202,204,305,304,202,305,303,302,303,205,202,302,204,204,202,202,305,305,303,202,303,203,303,305,203,204,204,305,302,203,205,304,203,302,203,203,304,304,304,302,205,202,305,204,304,205,303,304,202,203,204,302,203,204,204,203,303,203,205,304,204,204,203,203,303,205,204,202,204,302,302,303,303,203,203,303,203,204,202,304,303,203,203,304,204,203,305,204,302,302,205,204,202,204,203,202,204,203,204,305,205,202,205,202,204,205,203,304,204,302,305,203,303,303,302,202,304,304,304,202,303,202,302,205,202,302,205,202,302,202,303,202,204,303,204,203,205,202,302,304,302,303,203,302,205,302,205,202,303,303,302,304,304,305,205,302,202,203,202,302,305,302,204,203,203,303,302,304,203,203,204,305,303,204,305,304,205,205,302,303,304,205,302,303,202,204,304,202,304,203,204,205,305,204,202,205,303,302,204,205,303,205,202,205,204,205,205,203,203,202,205,204,305,205,205,205,302,202,205,204,303,302,202,202,204,302,204,304,302,304,202,205,202,304,304,302,203,303,302,202,205,204,204,302,305,204,205,305,205,305,203,204,203,304,303,205,302,304,303,303,202,204,305,204,305,304,202,203,303,304,303,203,204,203,203,10019,303,302,205,304,305,10018,304,302,203,303,205,302,202,305,202,205,204,203,205,202,205,205,303,204,203,303,302,303,203,303,305,204,204,303,204,202,305,303,205,203,204,203,205,302,302,202,304,202,303,203,204,203,205,202,303,302,302,203,302,203,203,302,303,305,303,202,305,205,302,203,303,205,304,205,10003,10020,204,305,305,10019,10004,203,203,302,304,203,304,202,205,202,303,202,202,304,304,304,203,305,203,205,202,204,205,304,303,305,305,303,203,304,304,204,303,204,305,205,302,305,203,203,203,303,304,203,305,205,204,305,204,202,202,302,305,302,304,302,205,203,304,205,304,202,202,303,203,203,304,303,304,303,303,303,205,303,205,305,203,205,203,303,203,305,203,202,203,304,302,303,304,302,202,205,202,303,305,205,202,203,304,303,204,202,305,202,205,303,205,202,303,305,203,205,202,305,202,204,205,205,205,305,302,302,305,202,202,202,305,303,303,205,203,203,303,203,304,202,303,202,304,204,204,203,302,205,303,304,303,302,302,303,203,303,204,304,202,203,303,202,204,202,202,205,204,303,305,205,203,303,203,302,302,302,203,305,203,303,203,203,302,303,204,302,303,304,204,303,203,305,204,302,302,205,303,305,304,204,305,305,202,205,304,203,305,203,203,303,203,202,205,305,203,204,203,305,302,305,304,205,204,303,305,302,205,303,303,303,205,205,304,303,204,204,302,205,304,304,304,302,204,305,202,304,202,204,305,205,203,305,203,304,202,202,202,302,303,302,203,305,305,205,304,203,202,204,304,302,305,305,303,205,303,304,304,304,302,305,303,203,203,302,203,305,302,203,203,303,203,305,203,203,202,202,204,303,204,203,205,203,303,202,304,202,202,305,204,203,303,204,305,202,304,302,302,302,202,305,205,305,202,303,303,302,303,304,204,204,202,202,304,205,202,302,202,302,304,303,304,205,204,205,203,304,302,204,205,205,302,202,202,303,203,202,303,304,303,305,203,203,303,303,205,205,303,205,303,205,204,205,303,202,205,205,204,304,304,202,302,305,205,304,304,303,204,203,205,302,202,304,302,203,204,305,303,202,302,203,202,303,304,304,203,203,202,202,304,303,304,202,303,305,203,304,203,302,304,302,304,205,303,303,302,202,304,305,305,302,302,203,305,203,304,203,303,204,203,203,204,305,202,203,202,205,305,302,205,305,302,305,205,305,203,305,205,303,204,203,202,202,202,204,304,202,302,302,205,305,305,302,205,305,204,302,304,303,204,202,303,304]},{"id":2,"name":"ground-detail","type":"tilelayer","visible":true,"opacity":1,"x":0,"y":0,"width":75,"height":50,"data":[10182,10192,2334,2334,2334,2334,2335,10190,1824,1824,1823,1823,1823,1823,10190,10182,10182,10183,10181,10182,10181,10182,10181,10184,10181,10181,10183,10182,10183,10184,10182,10182,10183,10184,10182,10182,10181,10182,10182,10184,10184,10189,10021,10005,10006,10007,10021,10188,10182,10182,10181,10183,10184,10184,10183,10182,10183,10183,10181,10182,10181,10183,10184,10181,10183,10184,10183,10184,10183,10181,10182,10184,10184,10183,10181,10192,2540,2433,2435,2435,2435,2436,2539,1922,1924,1924,1923,1923,1925,2126,10190,10191,10191,10191,10191,10191,10191,10184,10183,10182,10184,10183,10184,10183,10183,10181,10182,10184,10183,10184,10181,10184,10181,10182,10181,10184,10192,10024,10008,10036,10009,10024,10190,10191,10191,10191,10191,10191,10191,10191,10191,10191,10191,10183,10183,10183,10184,10184,10182,10184,10181,10182,10181,10182,10183,10183,10183,10183,10181,10183,2632,2433,2634,2635,2634,2634,2634,2436,2022,2023,2023,2123,2123,2125,2126,0,0,0,0,0,0,10194,10188,10181,10181,10191,10191,10183,10181,10181,10191,10191,10184,10184,10184,10191,10183,10184,10184,10191,10192,10193,10024,10008,10002,10009,10024,0,10021,10022,10022,10022,10022,10022,10022,10022,10022,10023,10190,10191,10191,10191,10191,10191,10191,10191,10191,10191,10191,10191,10191,10191,10184,10181,10184,2532,2533,2534,2535,2635,2535,2534,2636,2022,2124,2124,2124,2123,2125,2026,0,0,0,0,0,0,0,10188,10181,10189,1903,2004,10188,10184,10189,1905,10194,10188,10183,10189,0,10188,10181,10189,10193,0,0,10024,10008,10003,10009,10026,10022,10028,10041,10041,10041,10041,10041,10041,10041,10041,10024,0,0,0,0,0,0,0,0,0,0,0,0,0,0,10188,10184,10181,2532,2733,2634,2634,2534,2535,2534,2736,2022,2024,2124,2123,2024,2025,2026,0,0,0,0,0,0,0,10188,10181,10189,2104,2104,10190,10191,10192,2205,0,10190,10191,10192,0,10188,10183,10189,0,0,0,10024,10008,10036,10003,10006,10006,10006,10002,10002,10002,10003,10004,10003,10002,10009,10024,0,0,0,0,0,0,0,0,0,0,0,0,0,10185,10181,10181,10182,10187,2440,2733,2734,2734,2734,2736,2439,2222,2223,2223,2224,2224,2225,2126,0,0,0,0,0,0,0,10190,10191,10192,2202,2203,2205,0,2202,0,0,0,0,0,0,10190,10191,10192,0,0,0,10024,10008,10001,10004,10002,10004,10001,10004,10002,10001,10002,10003,10003,10002,10009,10024,10179,0,0,0,0,0,0,0,0,0,0,0,0,10188,10181,10181,10184,10184,10187,0,0,0,0,0,0,2324,2323,2324,2323,2324,2323,0,0,0,0,0,0,0,0,0,0,0,0,0,0,0,0,0,0,0,0,0,0,0,0,0,0,0,0,10024,10008,10004,10002,10011,10011,10011,10004,10002,10004,10001,10003,10004,10004,10009,10024,10180,0,0,0,0,0,0,0,0,0,0,0,0,10190,10183,10184,10181,10181,10189,10195,0,0,0,0,0,0,0,0,0,0,0,0,0,0,0,0,0,0,0,0,10185,10186,10186,10186,10186,10186,10186,10186,10186,10186,10186,10186,10186,10186,10186,10186,10187,0,0,10024,10008,10036,10009,10021,10022,10023,10010,10011,10011,10011,10011,10011,10011,10012,10024,0,0,0,0,0,0,0,0,0,0,0,0,0,10194,10188,10184,10184,10182,10182,10187,0,0,0,0,0,0,0,0,0,0,0,0,0,0,0,0,0,0,0,0,0,0,0,0,0,0,0,0,0,0,0,0,0,0,0,0,0,0,0,10024,10008,10003,10009,10024,0,10026,10022,10022,10022,10022,10022,10022,10022,10022,10025,0,0,0,0,0,0,0,0,0,0,0,0,0,0,10188,10183,10183,10181,10184,10189,0,0,0,0,0,0,0,0,0,0,0,0,10021,10022,884,882,782,883,10023,0,0,0,0,0,0,0,0,0,0,0,0,0,0,0,0,0,0,0,0,10024,10008,10004,10009,10024,10185,10186,10186,10186,10186,10186,10186,10186,10186,10187,10024,0,0,0,0,0,0,0,0,0,0,0,0,0,0,10188,10184,10183,10183,10181,10189,0,0,0,0,0,0,0,0,0,0,0,0,0,0,0,10264,10264,0,0,0,0,0,0,0,0,0,0,0,0,0,0,0,0,0,0,0,0,0,0,10024,10008,10036,10009,10024,0,0,0,0,0,0,0,0,0,0,10026,10022,783,785,784,784,10022,10022,10022,884,783,782,885,10023,0,10190,10181,10183,10181,10184,10189,0,0,0,0,0,0,0,0,0,0,0,0,0,0,0,0,0,0,0,0,0,0,0,0,0,0,0,0,0,0,0,0,0,0,0,0,0,0,0,10024,10008,10003,10009,10024,0,0,0,0,0,0,0,0,0,0,0,0,10179,10264,10264,10179,10180,0,0,10179,10264,10264,10179,0,0,10194,10188,10182,10183,10182,10189,0,0,0,0,0,0,0,0,0,0,0,0,0,0,0,0,0,0,0,0,0,0,0,0,0,0,0,0,0,0,0,0,0,0,0,0,0,0,0,10024,10008,10001,10009,10024,0,0,0,0,0,0,0,0,0,0,0,0,0,0,0,0,0,0,0,0,0,0,0,0,0,0,10188,10181,10184,10181,10189,0,0,0,0,0,0,0,0,0,0,0,0,0,0,0,0,0,0,0,0,0,0,0,0,0,0,0,0,0,0,0,0,0,0,0,0,0,0,0,10024,10008,10036,10009,10024,0,0,0,0,0,0,0,0,0,0,0,0,0,0,0,0,0,0,0,0,0,0,0,0,0,10196,10188,10181,10184,10184,10189,0,0,0,0,0,0,0,0,0,0,0,10185,10186,10186,10186,10186,10186,10186,10187,0,0,0,0,0,0,0,0,0,0,0,0,0,0,0,0,0,0,0,0,10024,10008,10001,10009,10024,0,0,0,0,0,0,0,0,0,0,0,0,0,0,0,0,0,0,0,0,0,0,10185,10186,10186,10186,10191,10191,10183,10184,10189,10195,0,0,0,0,0,0,0,0,0,0,0,0,0,0,0,0,0,0,0,0,0,0,0,0,0,0,0,0,0,0,0,0,0,0,0,0,0,0,10024,10008,10001,10009,10024,0,0,0,0,0,0,0,0,0,0,0,10185,10186,10186,10186,10186,10186,10186,10187,0,0,0,0,0,0,0,0,10194,10184,10182,10181,10186,10186,10186,10186,10186,10187,0,0,0,0,0,0,0,0,0,0,0,0,0,0,10021,10022,10022,10022,10022,10022,10022,10022,10022,10022,10022,10022,10022,10023,10185,10186,10186,10186,10187,10024,10008,10036,10009,10024,0,0,0,0,0,0,0,0,0,0,0,0,0,0,0,0,0,0,0,0,0,0,0,0,0,0,0,0,10182,10184,10189,10193,0,0,0,0,0,0,0,0,0,0,0,0,0,0,0,0,0,0,0,0,10179,10180,10180,10180,0,10179,10180,0,0,0,10024,10020,10025,0,0,0,0,0,10024,10008,10003,10009,10024,0,0,0,0,0,0,0,0,0,0,0,0,0,0,0,0,0,0,0,0,0,0,0,0,0,0,0,0,10181,10182,10189,0,0,0,0,0,0,5709,5807,5808,5709,0,0,0,0,0,0,0,0,0,0,0,0,0,0,0,0,10179,10179,0,0,0,10024,10020,10025,0,0,0,0,0,10024,10008,10004,10009,10024,0,0,0,0,0,0,0,0,0,0,0,0,0,0,0,0,0,0,0,0,0,0,0,0,0,0,0,0,10183,10182,10189,0,0,0,0,0,0,5710,5807,5809,5907,0,0,0,0,0,0,0,0,0,0,10021,10022,10022,10023,0,0,0,0,0,0,0,10024,10020,10025,0,0,0,0,0,10024,10008,10036,10009,10024,0,0,0,10021,10022,10022,10023,0,0,0,0,0,0,0,0,0,0,0,0,0,0,0,0,0,0,0,0,0,10181,10182,10192,0,0,0,0,0,0,5907,5810,5709,5808,0,0,0,0,0,0,0,0,0,0,10024,10018,10018,10025,0,0,0,0,0,0,0,10024,10017,10025,0,0,0,0,0,10024,10008,10001,10009,10024,0,0,0,10024,10019,10020,10025,0,0,0,0,0,0,0,0,0,0,0,0,10021,10023,0,0,0,0,0,0,0,10183,10189,10193,0,0,0,0,0,0,5909,5710,5908,5810,0,0,0,0,0,0,0,0,0,0,10024,10019,10017,10025,0,0,0,0,0,0,0,10024,10018,10025,0,0,0,0,0,10024,10008,10001,10009,10024,0,0,0,10024,10018,10018,10025,0,0,0,0,0,0,0,0,0,0,0,0,10024,10025,0,0,0,0,0,0,0,10191,10192,0,0,0,0,0,0,0,5809,5809,5909,5907,0,0,0,0,0,0,0,0,0,0,10024,10020,10020,10025,0,0,0,0,0,0,0,10024,10019,10025,0,0,0,0,0,10024,10008,10036,10009,10024,0,0,0,10024,10018,10017,10025,0,0,0,0,0,0,0,0,0,0,0,0,10024,10025,0,0,0,0,0,0,0,10021,10022,10022,10022,10022,10022,10022,10022,10022,10022,10022,10022,10022,10022,10022,10022,10022,10022,10022,10022,10022,10022,10022,10027,10027,10027,10027,10022,10022,10022,10022,10022,10022,10022,10027,10027,10027,10022,10022,10022,10022,10022,10028,10034,10034,10034,10026,10022,10022,10022,10027,10027,10027,10027,10022,10022,10022,10022,10022,10022,10022,10022,10022,10022,10022,10022,10027,10027,10022,10022,785,882,885,885,10023,10005,10006,10006,10041,10006,10041,10006,10041,10006,10033,10006,10006,10006,10006,10006,10006,10006,10006,10006,10006,10006,10006,10006,10006,10006,10006,10006,10006,10006,10041,10006,10041,10006,10006,10006,10033,10006,10006,10041,10006,10041,10006,10033,10001,10004,10004,10033,10006,10006,10006,10006,10006,10006,10006,10006,10006,10006,10006,10006,10006,10006,10006,10042,10006,10006,10006,10006,10006,10006,10006,10006,10006,10006,10006,10007,10008,10035,10003,10003,10035,10004,10003,10035,10001,10033,10035,10002,10001,10035,10004,10001,10035,10002,10004,10035,10004,10003,10035,10003,10004,10035,10003,10001,10035,10004,10001,10035,10003,10003,10035,10033,10001,10035,10004,10002,10035,10001,10033,10002,10004,10002,10033,10002,10004,10035,10004,10004,10035,10001,10002,10035,10001,10003,10035,10002,10004,10035,10003,10003,10035,10002,10002,10035,10003,10001,10035,10004,10003,10035,10009,10010,10011,10011,10011,10011,10011,10011,10011,10011,10033,10011,10011,10011,10042,10011,10011,10011,10011,10011,10011,10011,10011,10011,10011,10011,10011,10011,10011,10011,10011,10011,10011,10011,10011,10011,10033,10011,10011,10011,10011,10011,10011,10033,10003,10003,10003,10033,10011,10011,10011,10011,10011,10011,10011,10011,10011,10011,10011,10011,10011,10011,10011,10011,10011,10011,10011,10011,10011,10011,10011,10011,10011,10011,10011,10012,10021,10022,10022,10022,10022,10022,10022,10022,10022,10022,10022,10022,10022,10022,10022,10022,10022,10022,10022,10022,10022,10022,10022,10022,10022,10022,10022,10022,10022,10022,10022,10022,10022,10022,10022,10022,10022,10022,10022,10022,10022,10022,10023,10034,10034,10034,10021,10022,10022,10022,10022,10022,10022,10022,10022,10022,10022,10022,10022,10022,10022,10022,10022,10022,10022,10022,10022,10022,10022,10022,10022,10022,10022,10022,10023,10186,10187,10024,10020,10019,10018,10019,10020,10017,10019,10018,10025,0,0,0,0,2012,2013,2015,0,0,0,0,0,0,0,0,10185,10186,10186,10186,10186,10187,0,0,0,10185,10186,10186,10186,10186,10187,10024,10008,10036,10009,10024,10185,10186,10186,10186,10186,10187,0,0,0,0,0,0,0,0,2112,2015,0,10185,10186,10186,10186,10186,10187,0,0,0,10185,10186,10181,10189,10024,10018,10019,10018,10020,10017,10020,10019,10019,10025,0,0,0,0,2112,2113,2115,0,0,0,0,0,0,0,0,0,0,0,0,0,0,0,0,0,0,0,0,0,0,0,10024,10008,10001,10009,10024,0,0,0,0,0,0,0,0,0,0,0,0,0,0,2012,2115,0,0,0,0,0,0,0,0,0,10196,10188,10184,10183,10189,10024,10017,10019,10017,10018,10017,10019,10017,10020,10025,0,0,0,0,2012,2013,2115,0,0,0,0,0,0,0,0,0,0,0,0,0,0,0,0,0,0,0,0,0,0,0,10024,10008,10004,10009,10024,0,0,0,0,0,0,0,0,0,0,0,0,0,0,2112,2015,0,0,0,0,0,0,0,0,0,10185,10181,10184,10184,10189,10026,10027,10027,10027,10027,10027,10027,10027,10027,10028,0,0,0,0,2212,2213,2215,0,0,0,0,0,0,0,0,0,0,0,0,0,0,0,0,0,0,0,0,0,0,0,10024,10008,10036,10009,10024,0,0,0,0,0,0,0,0,0,0,0,0,0,0,2112,2115,0,0,0,0,0,0,0,0,10196,10188,10183,10183,10183,10183,10187,10195,0,0,0,0,0,0,0,0,0,0,0,0,0,0,0,0,0,0,0,0,0,0,0,0,0,0,0,0,0,0,0,0,0,0,0,0,0,0,10024,10008,10004,10009,10024,0,0,0,0,0,0,10021,0,622,623,624,625,0,0,2112,2115,0,0,0,0,0,0,0,0,10185,10183,10184,10183,10182,10184,10182,10186,10186,10187,0,0,0,0,0,0,0,0,0,0,0,0,0,0,0,0,0,0,0,0,0,0,0,0,0,0,0,0,10021,0,0,0,0,0,0,0,10024,10008,10002,10009,10024,0,0,0,0,0,0,10024,0,722,723,724,725,0,0,2112,2015,0,0,0,0,0,0,0,0,10188,10184,10182,10184,10183,10184,10191,10182,10183,10189,1905,0,0,0,10018,10018,10018,10018,10018,10018,10018,10018,0,0,0,0,0,0,0,0,0,0,0,0,0,0,0,0,10024,0,0,0,0,0,0,0,10024,10008,10036,10009,10024,0,0,0,0,0,0,10024,0,822,823,824,825,0,0,2112,2015,0,0,0,0,0,0,0,0,10190,10183,10181,10183,10183,10189,2202,10190,10191,10192,2105,0,0,0,10018,2103,0,10201,10202,10202,10203,10018,0,0,0,10018,0,0,0,0,0,0,0,0,0,0,0,0,10024,0,0,0,0,0,0,0,10024,10008,10002,10009,10024,0,0,0,0,0,0,10024,0,922,923,924,925,0,0,2012,2015,2018,0,0,0,0,0,0,0,0,10188,10182,10182,10183,10189,0,2102,2104,2104,2105,0,0,0,10018,2103,0,2104,0,2004,10206,10018,10201,10203,2114,2113,2014,0,0,0,0,0,884,883,785,782,10022,10022,10027,10022,10022,783,784,885,784,10022,10028,10008,10002,10009,10026,10022,783,884,784,783,10022,10028,0,907,908,909,910,0,0,2012,2114,1914,1913,885,883,885,785,1915,10185,10186,10183,10181,10184,10184,10189,1902,2203,2104,2204,2205,0,0,0,10018,2103,0,2103,0,2104,0,10018,0,2014,2013,2114,2013,2013,0,0,0,0,0,10264,10264,0,0,0,0,0,0,10180,10264,10264,10024,10028,10005,10001,10036,10002,10007,10026,10025,10264,10264,10180,10180,0,0,0,908,909,0,0,0,2112,2115,1918,0,0,10264,10264,0,0,0,10194,10188,10181,10181,10183,10189,0,0,2202,0,0,0,0,0,10018,10018,10018,10018,10018,10018,10018,10018,10018,2014,2114,2114,2114,2013,10018,0,0,10185,10186,10186,10186,10186,10187,0,10185,10186,10186,10186,10186,10187,10024,10005,10041,10001,10002,10002,10041,10007,10024,0,10201,0,0,0,0,0,908,909,0,0,0,2012,2015,0,0,0,0,0,0,0,0,0,10188,10183,10182,10182,10189,10195,0,0,0,0,0,0,0,10018,2104,0,2104,0,2104,0,10018,0,2113,2014,2113,2114,2013,0,0,0,0,0,0,0,0,0,0,0,0,0,0,0,0,10024,10008,10004,10004,10002,10004,10002,10009,10024,0,10206,10203,0,0,0,0,908,909,0,0,2019,2012,2015,0,0,0,0,0,0,0,0,0,10188,10184,10183,10181,10183,10187,0,0,0,0,0,0,0,10018,2104,0,2003,0,2104,0,10018,0,0,2014,2114,2013,0,0,0,0,0,0,0,0,0,0,0,0,0,0,0,0,0,10024,10008,10002,10004,10001,10002,10001,10009,10024,0,0,10206,0,0,0,0,908,909,0,1912,1914,2013,2115,2018,0,0,0,0,0,0,0,0,10188,10182,10182,10183,10183,10189,0,0,0,0,0,0,0,10018,2104,0,2104,0,2104,0,10018,0,0,0,10018,0,0,0,0,0,0,0,0,0,0,0,0,0,0,0,0,0,0,10024,10008,10002,10003,10003,10003,10002,10009,10024,0,1912,1914,1914,1915,0,0,908,909,0,2212,2213,2213,2214,1915,0,0,0,0,0,0,0,0,10188,10181,10181,10181,10183,10192,0,0,0,0,0,0,0,10018,10018,10018,10018,10018,10018,10018,10018,0,0,0,0,0,0,0,0,0,0,0,0,0,0,0,0,0,0,0,0,0,0,10024,10010,10004,10001,10002,10001,10004,10012,10024,2019,2112,2014,2113,2115,0,0,908,909,0,0,0,0,1919,2012,0,0,0,0,0,0,0,0,10188,10182,10182,10183,10189,10193,0,0,0,0,0,0,0,0,0,0,0,0,0,0,0,0,0,0,0,0,0,0,0,0,0,0,0,0,0,0,0,0,0,0,0,0,0,10024,10023,10010,10011,10011,10011,10012,10021,10028,1912,2013,2014,2114,2015,0,0,908,909,0,0,0,0,0,2012,2018,0,0,0,0,0,0,0,10188,10184,10182,10183,10192,0,0,0,0,0,0,0,0,0,0,0,0,0,0,0,0,0,0,0,0,0,0,0,0,0,0,0,0,0,0,0,0,0,0,0,0,0,0,10024,10027,10022,10022,10022,10022,10022,10028,0,2012,2113,2114,2114,2015,0,0,908,909,0,0,0,0,0,2212,1914,1914,1914,1915,884,882,784,883,10188,10181,10183,10189,10193,0,0,0,0,0,0,0,0,0,0,0,0,0,0,0,0,0,0,0,0,0,0,0,0,0,0,0,0,0,0,0,0,0,0,0,0,0,0,10024,0,1902,0,1902,1905,0,0,0,2212,2014,2013,2013,2215,0,0,908,909,0,0,0,0,10196,10185,10186,10187,0,0,0,10264,10264,0,10188,10183,10184,10189,0,0,0,0,0,0,0,0,0,0,0,0,0,0,0,0,0,0,0,0,0,0,0,0,0,0,10021,784,883,882,783,10022,10022,10022,884,882,783,885,10022,10028,1902,2204,1904,2104,2104,1903,1905,0,1919,2212,2214,2215,1918,0,0,908,909,0,0,10185,10186,10186,10182,10182,10189,0,0,0,0,0,0,10188,10183,10184,10189,10195,0,0,0,0,0,0,0,0,0,0,0,0,0,0,0,0,0,0,0,0,0,0,0,0,0,0,0,10264,10264,0,0,0,0,0,10264,10264,0,0,0,0,0,0,2202,2205,0,0,0,0,0,0,0,0,0,0,908,909,0,10196,10188,10182,10183,10181,10184,10189,10195,0,0,0,0,10196,10188,10184,10184,10184,10186,10186,10186,10186,10186,10186,10186,10186,10186,10186,10186,10186,10186,10186,10186,10186,10186,10186,10186,10186,10186,10186,10186,10186,10186,10186,10186,10186,10186,10186,10186,10186,10186,10186,10186,10186,10186,10186,10186,10186,10186,10186,10186,10186,10186,10186,10186,10186,10186,10186,10186,10186,10186,10186,10187,908,909,10185,10186,10182,10182,10181,10182,10183,10182,10186,10186,10186,10186,10186,10186,10184,10181,10183,10184,10181,10184,10181,10182,10183,10183,10181,10182,10181,10184,10184,10181,10182,10181,10181,10182,10184,10183,10182,10183,10184,10181,10181,10182,10184,10183,10182,10184,10182,10182,10182,10183,10184,10183,10182,10183,10182,10183,10184,10184,10182,10183,10182,10182,10183,10181,10181,10184,10189,0,10188,10183,10181,10181,10189,908,909,10188,10184,10182,10184,10181,10183,10181,10181,10181,10183,10183,10184,10181,10183,10181,10184,10181]},{"id":3,"name":"deco-below","type":"tilelayer","visible":true,"opacity":1,"x":0,"y":0,"width":75,"height":50,"data":[0,0,0,0,0,0,0,0,0,0,0,0,0,0,0,0,0,0,0,10177,0,0,0,0,0,0,0,0,0,0,0,0,0,10178,0,0,0,0,0,0,0,0,0,0,0,0,0,0,0,0,0,0,0,0,0,0,0,0,0,0,0,0,0,0,0,0,0,0,0,0,0,0,0,10178,0,0,0,0,0,0,0,0,0,0,0,0,0,0,0,0,0,0,0,0,0,0,0,0,0,0,0,0,0,0,0,0,0,0,0,0,0,0,0,0,0,0,0,0,0,0,0,0,0,0,0,0,0,0,0,0,0,0,0,10178,0,0,0,0,0,0,0,0,0,0,0,0,0,0,0,0,0,0,0,0,0,0,0,0,0,4927,5127,5127,4828,0,0,0,0,0,0,0,0,0,10172,0,0,10178,0,0,0,0,0,0,0,0,0,0,0,0,0,0,0,0,10292,0,0,0,0,0,0,0,0,0,0,0,0,0,0,0,0,0,0,0,0,0,0,0,0,0,0,0,0,0,0,0,0,0,0,0,0,0,0,0,0,0,4927,5128,4928,5028,0,0,0,0,0,0,0,0,0,10171,0,0,0,0,0,0,0,0,0,0,0,0,0,0,0,0,0,0,0,0,0,0,0,10262,0,10040,10234,0,1073752045,10230,1073752045,0,0,1073752045,0,0,0,0,0,0,0,10172,0,0,0,0,0,0,10172,0,0,0,0,0,0,0,0,0,0,0,0,4828,5027,5027,4927,0,0,0,0,0,0,0,0,0,10171,0,0,0,0,0,0,0,0,0,0,0,0,0,0,0,0,0,0,0,0,0,0,0,0,0,0,10233,0,1073752046,10229,1073752046,0,0,1073752046,0,0,0,0,0,0,0,10171,0,0,0,0,0,0,10171,0,0,0,0,0,0,0,0,0,0,0,0,0,0,0,0,0,0,0,0,0,0,0,0,0,10171,0,0,0,0,0,0,0,0,0,0,0,0,0,0,0,0,0,0,0,0,0,0,0,0,0,0,0,0,0,0,0,0,0,10295,3165,3166,0,0,0,0,0,10171,0,0,0,0,0,0,10171,0,0,0,0,0,0,0,0,0,0,0,0,0,0,0,0,0,0,0,0,0,0,0,0,0,10171,0,0,0,0,0,0,0,0,0,0,0,0,0,0,0,0,0,0,0,0,0,0,0,0,0,0,0,0,0,0,0,0,0,0,3265,3266,0,0,0,0,0,10171,0,0,0,0,0,0,10171,0,0,0,10177,0,2936,2937,3138,3139,3138,3139,3138,3139,3138,2940,2941,0,0,0,0,0,0,0,0,0,1073751996,0,0,0,0,0,0,0,0,0,0,0,0,0,0,0,0,0,0,0,0,0,0,0,10037,0,10038,0,0,0,0,0,0,0,0,0,0,0,0,0,0,0,1073751996,0,0,0,0,0,0,10171,0,0,0,0,0,3036,3037,3238,3239,3238,3239,3238,3239,3238,3040,3041,0,0,0,0,0,0,0,0,0,0,0,0,0,0,0,0,0,0,0,0,0,0,0,0,0,0,0,10172,0,0,0,0,0,0,0,0,0,10049,0,0,10049,0,0,0,0,0,0,0,0,0,0,0,0,0,0,0,0,0,1073751996,0,0,0,0,0,2740,2741,2932,2933,2934,2935,0,5230,0,2740,2741,0,0,0,10173,10171,10171,10171,10171,10171,2147493821,0,0,0,0,0,0,0,0,0,0,0,0,0,0,0,0,0,10171,0,0,0,0,0,0,0,0,0,0,0,0,0,0,0,0,0,0,0,0,0,0,0,0,0,0,0,0,0,0,0,0,0,0,0,0,2840,2841,3032,3033,3034,3035,0,5330,0,2840,2841,0,0,0,0,0,0,0,0,0,0,0,0,0,0,0,0,0,0,0,0,0,0,0,0,0,0,0,10171,0,0,0,0,0,0,0,0,0,0,0,0,0,0,0,0,10172,10173,10171,10171,10171,10171,10171,2147493821,10173,10171,10171,10171,2147493821,0,0,0,0,0,0,0,2740,2741,3132,3133,3134,3135,0,2957,2958,2740,2741,2932,2933,2934,2935,0,0,10172,0,0,0,0,0,0,0,0,0,0,0,0,0,0,0,0,0,0,0,0,10171,0,0,0,0,0,0,0,0,0,0,0,0,0,0,0,0,10171,0,10246,10244,10244,10244,10247,0,0,10246,10244,10244,10247,0,0,10172,0,0,0,0,2840,2841,3232,3233,3234,3235,0,3057,3058,2840,2841,3032,3033,3034,3035,0,0,10171,0,0,0,0,0,0,0,0,0,0,0,0,0,0,0,0,0,0,0,0,10171,0,0,0,0,0,0,0,0,0,0,0,0,0,0,0,0,10171,0,0,0,0,0,0,0,0,0,0,0,0,0,0,1073751996,0,0,0,0,3136,3137,3138,3139,3138,3139,3138,3139,3138,3140,3141,3132,3133,3134,3135,10173,10171,10171,0,0,0,0,0,0,0,0,0,0,0,0,0,0,0,0,0,0,0,0,10171,0,0,0,0,0,0,0,0,0,0,0,0,0,0,0,0,10171,0,0,0,0,0,0,0,0,0,0,0,0,10173,2147493821,5225,5226,0,0,0,3236,3237,3238,3239,3238,3239,3238,3239,3238,3240,3241,3232,3233,3234,3235,0,0,0,0,0,0,0,0,0,0,0,0,0,0,0,0,0,0,0,0,0,0,0,10171,0,0,0,0,0,0,0,0,0,0,0,0,0,0,0,0,10171,0,0,0,0,0,0,0,0,0,5525,0,0,0,0,5325,5326,0,0,0,0,0,0,0,0,0,0,0,0,0,0,0,0,0,0,0,0,0,0,0,10172,0,0,0,0,0,0,0,0,0,0,0,0,0,0,0,0,0,1073751996,0,0,0,0,0,0,0,0,0,0,0,0,0,0,0,0,10171,0,0,0,0,0,0,0,0,0,5426,5524,0,0,0,0,0,0,0,0,0,0,0,0,0,0,0,3157,3158,2949,2950,0,0,0,0,0,0,0,0,0,10171,10173,10171,10171,10171,2147493821,0,0,0,0,0,0,0,0,0,0,0,0,0,0,0,0,0,0,0,0,0,0,0,0,0,0,0,0,0,10171,0,0,0,0,0,0,0,0,0,0,0,0,0,0,0,0,0,0,0,0,0,0,0,0,0,0,3257,3258,3049,3050,0,0,0,0,0,0,0,0,0,1073751996,5524,10246,10244,10244,10247,0,3163,3164,0,0,0,0,0,0,0,0,0,0,0,10172,0,0,0,0,0,0,0,0,0,0,0,0,0,0,10171,0,0,0,0,0,0,0,0,0,0,0,0,0,0,0,0,0,0,0,0,0,0,0,0,0,0,10172,0,0,0,0,0,0,0,0,0,0,0,0,5524,0,0,5424,0,0,0,3263,3264,0,0,0,10172,0,0,0,0,0,0,0,10171,0,0,0,0,0,0,0,0,0,0,0,0,0,0,10171,0,0,0,0,0,0,0,0,0,0,0,0,0,0,0,0,0,0,0,0,0,0,0,0,0,0,4565,4566,0,0,0,0,0,0,0,0,0,0,0,10172,0,3159,3160,0,0,0,0,0,0,0,0,0,0,0,0,0,0,0,0,10171,0,0,0,0,10173,0,0,0,0,0,0,0,10173,10171,10171,0,0,0,0,0,0,0,0,0,0,0,0,0,0,0,0,0,0,0,0,0,0,0,0,0,0,4665,4666,0,0,0,0,0,0,0,0,0,0,0,1073751996,0,3259,3260,0,0,0,0,0,0,0,0,10172,0,0,0,0,0,0,0,10171,0,0,0,0,2947,2948,0,0,0,0,0,0,0,0,0,0,0,0,0,0,0,0,0,1073752041,10173,2147493821,0,0,0,0,0,0,0,0,0,0,0,0,0,0,0,0,0,4565,4566,0,0,0,0,0,0,0,0,0,0,0,3359,3360,10049,0,0,0,0,0,0,0,0,0,0,0,0,0,0,0,1073751996,0,0,0,0,3047,3048,0,0,0,0,0,0,0,0,0,0,0,0,0,0,0,0,0,1073752042,0,0,0,0,0,0,0,0,0,0,0,0,0,0,0,0,0,10172,0,4665,4666,5229,0,0,0,0,0,0,0,0,5229,0,0,0,0,0,0,0,0,0,0,0,0,0,0,0,0,0,0,0,0,0,0,0,0,0,0,0,0,0,0,0,10045,0,0,0,0,0,0,0,0,0,0,0,10172,0,0,0,0,0,0,0,0,0,0,10173,0,0,0,0,0,10173,10171,0,0,0,10043,10173,10171,10171,10171,10171,10171,10171,2147493821,5329,0,0,0,0,10044,0,0,0,0,0,0,0,0,10047,0,0,0,0,10046,10262,0,0,0,10262,0,0,0,0,0,0,0,10055,0,0,0,0,10047,0,0,0,0,10047,0,0,0,0,0,0,0,0,0,0,0,0,0,0,0,0,0,0,0,0,0,0,0,0,0,0,0,0,0,0,0,0,0,0,0,0,0,0,0,0,0,0,0,0,0,0,0,0,0,0,0,0,0,0,0,0,0,0,0,0,0,0,0,0,0,0,0,0,0,0,0,0,0,0,0,0,0,0,0,0,0,0,0,0,0,0,0,0,0,0,0,0,0,0,0,0,0,0,0,0,0,0,0,0,0,0,0,0,0,0,0,0,0,0,0,0,0,0,0,0,0,0,0,0,0,0,0,0,0,0,0,0,0,0,0,0,0,0,0,0,0,0,0,0,0,0,0,0,0,0,0,0,0,0,0,0,0,0,0,0,0,0,0,0,0,0,0,0,0,0,0,0,0,0,0,0,0,0,0,0,0,0,0,0,0,0,0,0,0,0,0,0,0,0,0,0,0,0,0,0,0,0,0,0,0,0,0,0,0,0,0,0,0,0,0,0,0,0,0,0,0,0,0,0,0,0,0,0,0,0,0,0,0,0,0,0,0,0,0,0,0,0,0,0,0,0,0,0,0,0,0,0,0,0,0,0,0,0,0,0,0,0,0,0,0,0,0,0,0,0,0,0,0,0,0,0,0,10038,0,0,0,10037,0,0,0,0,0,0,0,0,0,0,0,0,0,0,0,0,10153,10154,0,0,0,0,0,0,0,0,0,0,0,0,10232,10231,10292,2147493859,2147493860,2147493871,2147493872,0,2147493871,2147493872,0,10255,0,0,0,0,0,10255,0,0,5423,0,0,10255,0,0,0,0,0,0,0,0,0,0,0,10255,0,0,0,0,10262,0,0,0,0,0,0,10255,0,0,0,0,0,10255,0,0,0,0,0,10255,0,10155,10156,0,0,10255,0,0,0,0,10292,0,0,0,0,10216,10215,0,0,0,2147493859,2147493860,0,10212,10211,0,0,0,0,0,0,0,5424,5424,0,0,0,0,0,0,0,0,0,0,0,0,0,0,0,0,0,0,0,0,0,10172,0,0,0,0,0,0,0,0,0,0,0,0,0,10172,0,0,0,0,0,0,0,0,0,0,0,0,0,10172,0,0,0,0,0,0,0,0,0,0,0,10216,10215,0,10228,10227,0,0,0,0,0,0,0,0,0,0,5426,0,0,0,0,0,0,0,0,0,0,0,0,0,0,0,0,0,0,0,10171,0,0,0,0,0,0,0,0,0,0,0,0,0,10171,0,0,0,0,0,0,0,0,0,0,0,0,0,10171,0,0,0,0,0,0,10216,10215,0,2147493867,2147493868,10228,10227,0,0,10295,0,0,0,0,0,0,0,0,0,0,0,0,0,0,0,0,0,0,0,0,0,0,0,0,0,0,0,0,0,0,10171,0,0,0,0,0,0,0,0,0,0,0,0,0,1073751996,0,0,4825,4826,0,0,0,0,0,0,0,0,0,10171,0,0,0,0,0,0,0,0,0,0,0,0,2936,2937,3138,3139,3138,3139,3138,3139,0,0,0,3139,3138,3139,3138,3139,3138,2940,2941,0,0,0,0,0,0,0,0,0,0,0,0,0,0,0,10171,0,0,0,0,0,0,0,0,0,0,10172,10173,0,0,0,0,4925,4926,0,0,0,0,0,0,0,0,0,10171,0,0,0,0,0,0,0,0,0,0,0,0,3036,3037,3238,3239,3238,3239,3238,3239,0,0,0,3239,3238,3239,3238,3239,3238,3040,3041,0,0,0,0,0,0,0,0,0,0,0,0,0,0,0,10171,0,0,0,0,0,0,0,0,0,0,10230,10175,0,0,0,0,0,0,0,0,0,0,0,0,0,0,0,10171,0,0,10178,0,0,0,0,0,0,0,0,0,2740,2741,0,0,0,0,0,0,0,0,10176,0,0,0,0,0,0,2740,2741,0,0,0,0,0,0,0,0,0,0,0,0,0,0,0,10171,0,0,0,0,0,0,0,0,0,0,10229,0,0,0,0,0,0,0,0,0,0,0,0,0,0,0,0,1073751996,0,0,0,0,0,5019,5020,0,0,0,0,0,2840,2841,0,0,0,0,0,0,0,0,0,0,0,0,0,0,0,2840,2841,0,0,0,0,0,0,0,0,0,0,0,0,0,0,0,1073751996,0,0,0,0,0,0,0,0,0,0,4819,4820,0,0,0,0,0,0,0,0,0,0,0,0,0,0,0,0,0,0,0,0,0,5119,5120,0,0,0,0,0,2740,2741,0,0,0,0,0,0,0,0,0,0,0,0,0,0,0,2740,2741,0,0,0,0,0,0,0,0,0,0,0,0,0,0,0,10040,0,0,0,10039,0,0,0,0,0,0,4919,4920,0,0,0,0,0,0,0,0,0,10173,10171,2147493821,0,0,0,0,0,0,0,0,0,10177,0,0,0,4825,4826,0,2840,2841,0,0,0,0,0,0,0,0,0,0,0,0,0,0,0,2840,2841,0,3138,3139,3138,3139,5423,0,0,0,0,10246,10244,10247,0,10040,0,0,0,0,0,10039,0,10246,10244,10244,10247,0,10175,0,0,0,0,0,0,0,0,0,0,0,0,0,0,0,0,0,0,0,0,0,0,0,0,0,4925,4926,0,2740,2741,0,0,0,0,0,0,0,0,0,0,0,0,0,0,0,2740,2741,0,3238,3239,3238,3239,0,0,0,0,0,0,0,0,0,0,0,0,0,0,0,0,0,0,0,0,0,0,0,0,0,0,0,0,0,0,0,0,0,4819,4820,0,0,0,0,0,0,10172,0,0,0,0,0,0,0,0,0,2840,2841,0,0,0,0,0,0,0,0,0,0,0,0,0,0,0,2840,2841,0,0,0,0,0,0,10172,0,0,0,0,0,0,10172,0,0,0,0,0,0,0,0,0,0,0,0,0,0,0,0,0,0,0,0,0,0,0,0,4919,4920,0,0,0,0,0,0,0,0,0,0,0,0,0,0,0,0,2740,2741,0,0,0,0,0,0,0,0,10166,0,0,0,0,0,0,2740,2741,0,0,0,0,0,0,10171,0,0,0,0,0,0,10171,0,0,0,0,0,0,0,0,0,0,0,10175,0,8536,8537,8538,8539,8540,0,0,0,0,0,0,0,0,0,0,0,0,0,0,10172,0,0,0,0,0,0,0,0,0,2840,2841,0,0,0,0,0,0,0,0,10176,0,0,0,0,0,0,2840,2841,0,0,0,0,0,0,10171,0,0,0,0,0,0,1073751996,0,0,0,0,0,0,0,0,0,0,0,0,0,8636,8637,8638,8639,8640,0,0,0,0,0,0,0,0,0,0,0,0,0,0,0,0,0,0,0,0,0,0,0,0,2740,2741,0,0,0,0,0,0,0,0,0,0,10281,10282,10283,0,0,2740,2741,0,0,0,0,0,0,10171,0,0,0,0,0,0,0,0,0,0,0,0,0,0,4825,4826,0,0,0,0,8736,8737,8738,8739,8740,0,0,0,0,0,0,0,0,0,0,0,0,0,0,10172,0,0,0,0,0,0,0,0,0,2840,2841,0,0,2959,2960,2957,2958,0,0,0,0,10284,10285,10286,0,0,2840,2841,0,0,0,0,0,0,1073751996,0,0,0,0,0,0,10172,10038,0,0,0,0,0,10037,4925,4926,0,10049,0,0,0,0,0,0,0,0,0,0,0,0,0,0,0,0,0,0,0,0,0,0,0,0,8520,8521,8522,8523,8524,0,0,3136,3137,3138,3139,3059,3060,3057,3058,3138,3139,10049,3139,3138,3139,3138,3139,10049,3140,3141,0,0,0,0,0,0,0,0,0,0,0,0,0,10171,10044,0,0,0,0,0,0,0,5025,5026,0,0,0,0,0,0,0,0,0,0,0,0,0,0,0,0,10173,10171,10171,10171,10171,10171,2147493821,0,10177,8620,8621,8622,8623,8624,0,0,3236,3237,3238,3239,3238,3239,3238,3239,3238,3239,3238,3239,3238,3239,3238,3239,3238,3240,3241,0,0,0,0,0,0,0,0,0,0,0,0,0,10171,0,0,0,0,0,0,0,0,5125,5126,0,0,5017,5018,0,0,0,0,0,0,0,0,0,0,0,0,0,0,0,0,0,0,0,0,0,8720,8721,8722,8723,8724,0,0,0,0,0,0,0,0,0,0,0,0,0,0,0,0,0,0,0,0,0,0,0,0,0,0,0,0,0,0,0,0,0,0,1073751996,0,0,0,0,0,0,0,0,0,0,0,0,5117,5118,0,0,0,0,0,0,0,0,0,0,0,0,0,0,0,0,0,0,0,0,0,8820,8821,8822,8823,8824,0,0,0,0,0,0,0,0,0,0,0,0,0,0,0,0,0,0,0,0,0,0,0,0,0,0,0,0,0,0,0,0,0,0,0,0,0,5524,0,0,0,0,0,0,0,0,0,0,0,0,0,0,0,0,0,0,0,0,0,0,0,0,0,0,0,0,0,0,0,0,8920,8921,8922,8923,8924,0,0,0,0,0,0,0,0,0,0,0,0,0,0,0,0,0,0,0,0,0,0,0,0,0,0,0,0,0,0,0,0,0,0,0,0,0,0,0,0,0,0,0,10178,0,0,5424,0,0,0,0,0,0,0,0,0,0,0,0,0,0,0,0,0,0,0,0,0,0,0,0,0,0,0,0,0,0,0,0,0,0,0,0,0,0,0,0,0,0,0,0,0,0,0,0,0,0,0,0,0,0,0,0,0,0,0,0,0,0,0,0,0,0,0,0,0,0,0,0,5524,5423,0,0,0,0,0,0,0,0,0,0,0,0,0,0,0,0,0,0,0,0,0,0,0]},{"id":4,"name":"buildings-base","type":"tilelayer","visible":true,"opacity":1,"x":0,"y":0,"width":75,"height":50,"data":[0,0,0,0,0,0,0,0,0,0,0,0,0,0,0,0,0,0,0,0,0,0,0,0,0,0,0,0,0,0,0,0,0,0,0,0,0,0,0,0,0,0,0,0,0,0,0,0,0,0,0,0,0,0,0,0,0,0,0,0,0,0,0,0,0,0,0,0,0,0,0,0,0,0,0,0,0,0,0,0,0,0,0,0,0,0,0,0,0,0,0,0,0,0,0,0,0,0,0,0,0,0,0,0,0,0,0,0,0,0,0,0,0,0,0,0,0,0,0,0,0,0,0,0,0,0,0,0,0,0,0,0,0,0,0,0,0,0,0,0,0,0,0,0,0,0,0,0,0,0,0,0,0,0,0,0,0,0,0,0,0,0,0,0,0,0,0,0,0,0,0,0,0,0,0,0,0,0,0,0,0,0,0,0,0,0,0,0,0,0,0,0,0,0,0,0,0,0,0,0,0,0,0,0,0,0,0,0,0,0,0,0,0,0,0,0,0,0,0,0,0,0,0,0,0,0,0,0,0,0,0,0,0,0,0,0,0,0,0,0,0,0,0,0,0,0,0,0,0,0,0,0,0,0,0,0,0,0,0,0,0,0,0,0,0,0,0,0,0,0,0,0,0,0,0,0,0,0,0,0,0,0,0,0,0,0,0,0,0,0,0,0,0,0,0,0,0,0,0,0,0,0,0,0,0,0,0,0,0,0,0,0,0,0,0,0,0,0,0,0,0,0,0,0,0,0,0,0,0,0,0,0,0,0,0,0,0,0,0,0,0,0,0,0,0,0,0,0,0,0,0,0,0,0,0,0,0,0,0,0,0,0,0,0,0,0,0,0,0,0,0,0,0,0,0,0,0,0,0,0,0,0,0,0,0,0,0,0,0,0,0,4370,10103,10104,10103,10104,4377,0,0,0,0,0,0,0,0,0,0,0,0,0,0,0,0,0,0,0,0,0,0,0,0,0,0,0,0,0,0,0,0,0,0,0,0,0,0,0,0,0,0,0,0,0,0,0,0,0,0,0,0,0,0,0,0,0,0,0,0,0,0,0,0,0,0,0,0,0,4470,10105,10106,10105,10106,4477,0,0,0,0,0,0,0,0,0,0,0,0,0,0,0,0,0,0,0,0,0,0,0,0,0,0,0,0,0,0,0,0,0,0,0,0,4370,10103,10104,10103,10104,4377,0,4370,10103,10104,10103,10104,4377,0,0,0,0,0,0,0,0,0,0,0,0,0,0,0,0,0,0,0,0,4570,4575,4576,4575,4576,4577,0,0,0,0,0,0,0,0,0,0,0,0,0,0,0,0,0,0,0,0,0,0,0,0,0,0,0,0,0,0,0,0,0,0,0,0,4470,10105,10106,10105,10106,4477,0,4470,10105,10106,10105,10106,4477,0,0,0,0,0,0,0,0,0,0,0,0,0,0,0,0,0,0,0,0,4670,4675,3186,3187,4676,4677,0,0,0,0,0,0,0,0,0,0,0,0,0,0,0,0,0,0,0,0,0,0,0,0,0,0,0,0,0,0,0,0,0,0,0,0,4570,4575,4576,4575,4576,4577,0,4570,4575,4576,4575,4576,4577,0,0,0,0,0,0,0,0,0,0,0,0,0,0,0,0,0,0,0,0,0,0,0,0,0,0,0,0,0,0,0,0,0,0,0,0,0,0,0,0,0,0,0,0,0,0,0,0,0,0,0,0,0,0,0,0,0,0,0,0,0,0,4670,4675,3186,3187,4676,4677,0,4670,4675,3186,3187,4676,4677,0,0,0,0,0,0,0,0,0,0,0,0,0,0,0,0,0,0,0,0,0,0,0,0,0,0,0,0,0,0,0,0,0,0,0,0,0,0,0,0,0,0,0,0,0,0,0,0,0,0,0,0,0,0,0,0,0,0,0,0,0,0,0,0,0,0,0,0,0,0,0,0,0,0,0,0,0,0,0,0,0,0,0,0,0,0,0,0,0,0,0,0,0,0,0,0,0,0,0,0,0,0,3127,3128,3129,3128,3129,3128,3129,3130,3121,3357,3123,3124,3125,3122,3358,3124,3126,0,0,0,0,0,0,0,0,0,0,0,0,0,0,0,0,0,0,0,0,0,0,0,0,0,0,0,0,0,0,0,0,0,0,0,0,0,0,0,0,0,0,0,0,0,0,0,0,0,0,0,0,10273,10274,0,0,0,0,3227,3228,3229,3228,3229,3228,3229,3230,3221,3457,3223,3224,3225,3222,3458,3224,3226,0,0,0,0,0,0,0,0,0,0,0,0,0,0,0,0,0,0,0,0,0,0,0,0,0,0,0,0,0,0,10273,10274,0,0,0,0,0,0,0,0,0,0,0,0,0,0,0,0,0,0,0,0,0,0,0,0,0,0,3327,3328,3329,3328,3329,3328,3329,3330,3321,10051,10052,3324,3325,3322,10051,10052,3326,0,0,0,0,0,0,0,0,0,0,0,0,0,0,0,0,0,0,0,0,0,0,0,0,0,0,0,0,0,0,0,0,0,0,0,0,0,0,0,0,0,0,0,0,0,0,0,0,0,0,0,0,0,0,0,0,0,0,3427,3428,3429,3428,3429,3428,3429,3430,3421,10053,10054,3424,3425,3422,10053,10054,3426,0,0,0,0,0,0,0,3121,3122,3123,3124,3125,3122,3123,3124,3125,3126,0,0,0,0,0,0,0,0,0,0,0,0,0,0,0,0,0,0,0,0,0,0,0,0,0,0,0,0,0,0,0,0,0,0,0,0,0,0,0,0,0,3527,3528,3529,3186,3187,3528,3529,3530,3521,3522,3523,3186,3187,3522,3523,3524,3526,0,0,0,0,0,0,0,3221,3222,3223,3224,3225,3222,3223,3224,3225,3226,0,0,0,0,0,0,0,0,0,0,0,0,0,0,0,0,0,0,0,0,0,0,0,0,0,0,0,0,0,0,0,0,0,0,0,0,0,0,0,0,0,0,0,0,0,0,0,0,0,0,0,0,0,0,0,0,0,0,0,0,0,0,0,0,0,3321,10051,10052,3324,3325,3322,3323,10051,10052,3326,0,0,0,0,0,0,0,0,0,0,0,0,0,0,0,0,0,0,0,0,0,0,0,0,0,0,0,0,0,0,0,0,0,0,0,0,0,0,0,0,0,0,0,0,0,0,0,0,0,0,0,0,0,0,0,0,0,0,0,0,0,0,0,0,0,3421,10053,10054,3424,3425,3422,3423,10053,10054,3426,0,0,0,0,0,0,0,0,0,0,0,0,0,0,0,0,0,0,0,0,0,0,0,0,0,0,0,0,0,0,0,0,0,0,0,0,0,0,0,0,0,0,0,0,0,0,0,0,0,0,0,0,0,0,0,0,0,0,0,0,0,0,0,0,0,3521,3522,3523,3524,3186,3187,3523,3524,3525,3526,0,0,0,0,0,0,0,0,0,10267,10268,4577,0,0,0,0,0,0,0,0,10097,10098,10098,10098,10098,10098,10099,0,0,0,0,0,0,0,0,0,0,0,0,0,0,0,0,0,0,0,0,0,0,0,0,0,0,0,0,0,0,0,0,0,0,0,0,0,0,0,0,0,0,0,0,0,0,0,0,0,0,0,0,0,0,0,0,0,10269,10270,4677,4370,10103,10104,10103,10104,4377,0,0,10100,10100,10100,10100,10100,10100,10100,0,0,0,0,0,4478,4483,4484,4483,4484,4483,4484,4485,0,0,0,0,0,0,4478,4483,4484,4483,4484,4485,0,0,0,4470,4475,4476,4475,4477,0,0,0,0,0,0,0,0,0,0,0,0,0,0,0,0,10117,10123,10118,10118,10118,10118,10123,10119,0,0,0,4470,10105,10106,10105,10106,4477,0,0,10100,10100,10100,10101,10100,10100,10100,0,0,0,0,0,4578,10051,10052,4583,4584,10051,10052,4585,0,0,0,0,0,0,4578,4583,4584,4583,4584,4585,0,0,0,4570,4575,4576,4575,4577,0,0,0,0,0,0,0,0,0,0,0,0,0,0,0,0,10117,10124,10118,10125,10126,10118,10124,10119,0,0,0,4570,4575,4576,4575,4576,4577,0,0,10100,10100,10100,10102,10100,10100,10100,0,0,0,0,0,4678,10053,10054,3186,3187,10053,10054,4685,0,0,0,0,0,0,4678,4683,3186,3187,4684,4685,0,0,0,4670,3186,3187,4675,4677,0,0,0,0,0,0,0,0,0,0,0,0,0,0,0,0,10120,10121,10121,10127,10128,10121,10121,10122,0,0,0,4670,4675,3186,3187,4676,4677,0,0,0,0,0,0,0,0,0,0,0,0,0,0,0,0,0,0,0,0,0,0,0,0,0,0,0,0,0,0,0,0,0,0,0,0,0,0,0,0,0,0,0,0,0,0,0,0,0,0,0,0,0,0,0,0,0,0,0,0,0,0,0,0,0,0,0,0,0,0,0,0,0,0,0,0,0,0,0,0,0,0,0,0,0,0,0,0,0,0,0,0,0,0,0,0,0,0,0,0,0,0,0,0,0,0,0,0,0,0,0,0,0,0,0,0,0,0,0,0,0,0,0,0,0,0,0,0,0,0,0,0,0,0,0,0,0,0,0,0,0,0,0,0,0,0,0,0,0,0,0,0,0,0,0,0,0,0,0,0,0,0,0,0,0,0,0,0,0,0,0,0,0,0,0,0,0,0,0,0,0,0,0,0,0,0,0,0,0,0,0,0,0,0,0,0,0,0,0,0,0,0,0,0,0,0,0,0,0,0,0,0,0,0,0,0,0,0,0,0,0,0,0,0,0,0,0,0,0,0,0,0,0,0,0,0,0,0,0,0,0,0,0,0,0,0,0,0,0,0,0,0,0,0,0,0,0,0,0,0,0,0,0,0,0,0,0,0,0,0,0,0,0,0,0,0,0,0,0,0,0,0,0,0,0,0,0,0,0,0,0,0,0,0,0,0,0,0,0,0,0,0,0,0,0,0,0,0,0,0,0,0,0,0,0,0,0,0,0,0,0,0,0,0,0,0,0,0,0,0,0,0,0,0,0,0,0,0,0,0,0,0,0,0,0,0,0,0,0,0,0,0,0,0,0,0,0,0,0,0,0,0,0,0,0,0,0,0,0,0,0,0,0,0,0,0,0,0,0,0,0,0,0,0,0,0,0,0,0,0,0,0,0,0,0,0,0,0,0,0,0,0,0,0,0,0,0,0,0,0,0,0,0,0,0,0,0,0,0,0,0,0,0,0,0,0,0,0,0,0,0,0,0,0,0,0,0,0,0,0,0,0,0,0,0,0,0,0,0,0,0,0,0,0,0,0,0,0,0,0,0,0,0,0,0,0,0,0,0,0,0,0,0,0,0,0,0,0,0,0,0,0,0,0,0,0,0,0,0,0,0,0,0,0,0,0,0,0,0,0,0,0,0,0,0,0,0,0,0,0,0,0,0,0,0,0,0,0,0,0,0,0,0,0,0,0,0,0,0,0,0,0,0,0,0,0,0,0,0,0,0,0,0,0,0,0,0,0,0,0,0,0,0,0,0,0,0,0,0,0,0,0,0,0,0,0,0,0,0,0,0,0,0,0,0,0,0,0,10267,10268,4577,0,0,0,0,0,0,0,0,0,0,0,0,0,0,0,0,0,0,0,0,0,0,0,0,0,0,0,0,0,0,0,0,0,0,0,0,0,0,0,0,0,0,0,0,0,0,0,0,0,0,0,0,4570,10267,10268,0,0,0,0,0,0,0,0,0,0,0,0,0,0,0,0,0,10269,10270,4677,0,0,0,0,0,0,0,0,0,0,0,0,0,0,0,0,0,0,0,0,0,0,0,0,0,0,0,0,0,0,0,0,0,0,0,0,0,0,0,0,0,0,0,0,0,0,4370,10103,10104,10103,10104,4377,4670,10269,10270,4370,10103,10104,10103,10104,4377,0,0,0,0,0,4370,10103,10104,10103,10104,4377,0,0,0,0,0,0,0,0,0,0,0,4370,10103,10104,10103,10104,4377,0,0,0,0,0,0,0,0,0,0,0,0,0,0,0,0,0,0,0,0,0,0,0,0,0,0,0,0,0,0,0,0,4470,10105,10106,10105,10106,4477,0,0,0,4470,10105,10106,10105,10106,4477,0,0,0,0,0,4470,10105,10106,10105,10106,4477,0,0,0,0,0,0,0,0,0,0,0,4470,10105,10106,10105,10106,4477,0,0,0,0,0,0,0,0,0,0,0,0,0,0,0,0,0,0,0,0,0,0,0,0,0,0,0,0,0,0,0,0,4570,4575,4576,4575,4576,4577,0,0,0,4570,4575,4576,4575,4576,4577,0,0,0,0,0,4570,4575,4576,4575,4576,4577,0,0,0,0,0,0,0,0,0,0,0,4570,4575,4576,4575,4576,4577,0,0,0,0,0,0,0,0,0,0,0,0,0,0,0,0,0,0,0,0,0,0,0,0,0,0,0,0,0,0,0,0,4670,4675,3186,3187,4676,4677,0,0,0,4670,4675,3186,3187,4676,4677,0,0,0,0,0,4670,4675,3186,3187,4676,4677,0,0,0,0,0,0,0,0,0,0,0,4670,4675,3186,3187,4676,4677,0,0,0,0,0,0,0,0,0,0,0,0,0,0,0,0,0,0,0,0,0,0,0,0,0,0,0,0,0,0,0,0,0,0,0,0,0,0,0,0,0,0,0,0,0,0,0,0,0,0,0,0,0,0,0,0,0,0,0,0,0,0,0,0,0,0,0,0,0,0,0,0,0,0,0,0,0,0,0,0,0,0,0,0,0,0,0,0,0,0,0,0,0,0,0,0,0,0,0,0,0,0,0,0,0,0,0,0,0,0,0,0,0,0,0,0,0,0,0,0,0,0,0,0,0,0,0,0,0,0,0,0,0,0,0,0,0,0,0,0,0,0,0,0,0,0,0,0,0,0,0,0,0,0,0,0,0,0,0,0,0,0,0,0,0,0,0,0,0,0,0,0,0,0,0,0,0,0,0,0,0,0,0,0,0,0,0,0,0,0,0,0,0,0,0,0,0,0,0,0,0,0,0,0,0,0,0,0,0,0,0,0,0,0,0,0,0,0,0,0,0,0,0,0,0,0,0,0,0,0,0,0,0,0,0,0,0,0,0,0,0,0,0,0,0,0,0,0,0,0,0,0,0,0,0,0,0,0,0,0,0,0,0,0,0,0,0,0,0,0,0,0,0,0,0,0,0,0,0,0,0,0,0,0,0,0,0,0,0,0,0,0,0,0,0,0,0,0,0,0,0,0,0,0,0,0,0,0,0,0,0,0,0,0,0,0,0,0,0,0,0,0,0,0,0,0,0,0,0,0,0,0,0,0,0,0,0,0,0,0,0,0,0,0,0,0,0,0,0,0,0,0,0,0,0,0,0,0,0,0,0,0,0,0,0,0,0,0,0,0,0,0,4370,10103,10104,10103,10104,4377,0,0,0,0,0,0,0,0,0,0,0,0,0,0,0,0,0,0,0,0,0,0,0,0,0,0,0,0,0,0,0,0,0,0,0,0,0,0,0,0,0,0,0,0,0,0,0,0,0,0,0,0,0,0,0,0,0,0,0,0,0,0,0,0,0,0,0,0,0,4470,10105,10106,10105,10106,4477,0,0,0,0,0,0,0,0,0,0,0,0,0,0,0,0,0,0,0,0,0,0,0,0,0,0,0,0,0,4370,10103,10104,10103,10104,4377,0,4370,10103,10104,10103,10104,4377,0,0,0,0,0,0,0,0,0,0,0,0,0,0,0,0,0,0,0,0,0,0,0,0,0,0,0,4570,4575,4576,4575,4576,4577,0,0,0,0,0,0,0,0,0,0,0,0,0,0,0,0,0,0,0,0,0,0,0,0,0,0,0,0,0,4470,10105,10106,10105,10106,4477,0,4470,10105,10106,10105,10106,4477,0,0,0,0,0,0,0,0,0,0,0,0,0,0,0,0,0,0,0,0,0,0,0,0,0,0,0,4670,4675,3186,3187,4676,4677,0,0,0,0,0,0,0,0,0,0,0,0,0,0,0,0,0,0,0,0,0,0,0,0,0,0,0,0,0,4570,4575,4576,4575,4576,4577,0,4570,4575,4576,4575,4576,4577,0,0,0,0,0,0,0,0,0,0,0,0,0,0,0,0,0,0,0,0,0,0,0,0,0,0,0,0,0,0,0,0,0,0,0,0,0,0,0,0,0,0,0,0,0,0,0,0,0,0,0,0,0,0,0,0,0,0,0,0,0,0,4670,4675,3186,3187,4676,4677,0,4670,4675,3186,3187,4676,4677,0,0,0,0,0,0,0,0,0,0,0,0,0,0,0,0,0,0,0,0,0,0,0,0,0,0,0,0,0,0,0,0,0,0,0,0,0,0,0,0,0,0,0,0,0,0,0,0,0,0,0,0,0,0,0,0,0,0,0,0,0,0,0,0,0,0,0,0,0,0,0,0,0,0,0,0,0,0,0,0,0,0,0,0,0,0,0,0,0,0,0,0,0,0,0,0,0,0,0,0,0,0,0,0,0,0,0,0,0,0,0,0,0,0,0,0,0,0,0,0,0,0,0,0,0,0,0,0,0,0,0,0,0,0,0,0,0,0,0,0,0,0,0,0,0,0,0,0,0,0,0,0,0,0,0,0,0,0,0,0,0,0,0,0,0,0,0,0,0,0,0,0,0,0,0,0,0,0,0,0,0,0,0,0,0,0,0,0,0,0,0,0,0,0,0,0,0,0,0,0,0,0,0,0,0,0,0,0,0,0,0,0,0,0,0,0,0,0,0,0,0,0,0,0,0,0,0,0,0,0,0,0,0,0,0,0,0,0,0,0,0,0,0,0,0,0,0,0,0,0,0,0,0,0,0,0,0,0,0,0,0,0,0,0,0,0,0,0,0,0,0,0,0,0,0,0,0,0,0,0,0,0,0,0,0,0,0,0,0,0,0,0,0,0,0,0,0,0,0,0,0,0,0,0,0,0,0,0,0,0,0,0,0,0,0,0,0,0,0,0,0,0,0,0,0,0,0,0,0,0,0,0,0,0,0]},{"id":5,"name":"buildings-top","type":"tilelayer","visible":true,"opacity":1,"x":0,"y":0,"width":75,"height":50,"data":[0,0,0,0,0,0,0,0,0,0,0,0,0,0,0,0,0,0,0,0,0,0,0,0,0,0,0,0,0,0,0,0,0,0,0,0,0,0,0,0,0,0,0,0,0,0,0,0,0,0,0,0,0,0,0,0,0,0,0,0,0,0,0,0,0,0,0,0,0,0,0,0,0,0,0,0,0,0,0,0,0,0,0,0,0,0,0,0,0,0,0,0,0,0,0,10165,0,0,0,0,0,0,0,0,0,0,0,0,0,0,0,0,0,0,0,0,0,10291,0,0,0,0,0,0,0,0,0,0,0,0,0,0,0,0,0,0,0,0,0,0,0,0,0,0,0,0,0,0,0,0,0,0,0,0,0,0,0,0,0,0,0,0,0,0,0,0,10081,10082,10082,10082,10082,10083,0,0,0,0,0,0,0,0,0,0,0,0,0,0,0,0,0,0,0,0,0,0,0,0,10263,0,0,0,0,0,0,0,0,0,0,0,0,0,0,0,10165,0,0,0,0,0,0,10165,0,0,0,0,0,0,0,0,0,0,0,0,0,0,0,0,0,0,0,0,0,10084,10085,10085,10085,10085,10086,0,0,0,0,0,0,0,0,0,0,0,0,0,0,0,0,0,0,0,0,0,0,0,0,0,0,0,0,0,0,0,0,0,0,0,0,10071,10072,10072,10072,10072,10073,0,10071,10072,10072,10072,10072,10073,0,0,0,0,0,0,0,0,0,0,0,0,0,0,0,0,0,0,0,0,10087,10088,10088,10088,10088,10089,0,0,0,0,0,0,0,0,0,0,0,0,0,0,0,0,0,0,0,0,0,0,0,0,0,0,0,0,0,0,0,0,0,0,0,0,10074,10075,10075,10075,10075,10076,0,10074,10075,10075,10075,10075,10076,0,0,0,0,0,0,0,0,0,0,0,0,0,0,0,0,0,0,0,0,0,0,0,0,0,0,0,0,0,0,0,0,0,0,0,0,0,0,0,0,0,0,0,0,0,0,0,0,0,0,0,0,0,0,0,0,0,0,0,0,0,0,10077,10078,10078,10078,10078,10079,0,10077,10078,10078,10078,10078,10079,0,0,0,0,0,0,0,0,0,0,0,0,0,0,0,0,0,0,0,0,0,0,0,10266,0,0,0,0,0,0,0,0,0,0,0,0,0,0,0,0,0,0,0,0,0,0,0,0,0,0,0,0,0,0,0,0,0,0,0,0,0,0,0,0,0,0,0,0,0,0,0,0,0,0,0,0,0,0,0,0,0,0,0,0,0,0,0,0,0,0,0,0,0,0,0,0,0,3086,3087,10265,0,0,0,0,0,0,0,0,0,0,0,0,0,0,0,0,0,0,0,0,0,0,0,0,0,0,0,0,0,0,0,0,0,0,0,0,0,0,0,0,10266,0,0,0,0,0,0,10266,0,0,0,0,0,0,0,0,0,0,0,0,0,0,0,0,0,0,0,0,0,0,0,0,0,0,0,0,0,194,195,196,197,195,196,197,198,194,195,196,197,195,196,197,195,198,0,0,0,0,0,0,0,0,0,0,0,0,0,0,0,0,0,0,0,0,3086,3087,10265,0,0,0,0,3086,3087,10265,0,0,0,0,0,0,0,0,0,0,0,0,0,0,0,0,0,0,0,0,0,0,0,0,0,0,0,0,294,295,296,297,295,296,297,298,294,295,296,297,295,296,297,295,298,0,0,0,0,0,0,0,0,0,0,0,0,0,0,0,0,0,0,0,0,0,0,0,0,0,0,0,0,0,0,0,0,0,0,0,0,0,0,0,0,0,0,0,0,0,0,0,0,0,0,0,0,0,0,0,0,0,0,3027,3028,3029,3028,3029,3028,3029,3030,3021,3022,3023,3024,3025,3022,3023,3024,3026,0,0,0,0,0,0,0,194,195,196,197,195,196,197,195,196,198,0,0,0,0,0,0,0,0,0,0,0,0,0,0,0,0,0,0,0,0,0,0,0,0,0,0,0,0,0,0,0,0,0,0,0,10271,10272,0,0,0,0,0,0,0,0,0,0,0,0,0,0,0,0,0,0,0,0,0,0,0,0,0,0,0,0,294,295,296,297,295,296,297,295,296,298,0,0,0,0,0,0,0,0,0,0,0,0,0,10271,10272,0,0,0,0,0,0,0,0,0,0,0,0,0,0,0,0,0,0,0,0,0,0,0,0,0,0,0,0,0,0,0,0,0,0,0,0,0,0,0,0,0,0,0,0,0,0,0,0,0,0,394,395,396,397,395,396,397,395,396,398,0,0,0,0,0,0,0,0,0,0,0,0,0,0,0,0,0,0,0,0,0,0,0,0,0,0,0,0,0,0,0,0,0,0,0,0,0,0,0,0,0,0,0,0,0,0,0,0,0,0,0,0,0,0,0,0,0,0,0,0,0,0,0,0,0,3021,3022,3023,3024,3025,3022,3023,3024,3025,3026,0,0,0,0,0,0,0,0,0,0,0,0,0,0,0,0,0,0,0,0,0,0,0,0,0,0,0,0,0,0,0,0,0,0,0,0,0,0,10165,0,0,0,0,0,3086,3087,0,0,0,0,0,0,3086,3087,0,0,0,0,0,0,0,0,0,0,0,0,0,0,0,0,0,0,0,0,0,0,0,0,0,0,0,0,0,0,0,0,0,0,0,0,0,10165,0,0,0,0,0,0,0,0,0,0,0,0,0,0,0,10061,10062,10062,10062,10062,10062,10062,10063,0,0,0,0,0,0,0,0,0,0,0,0,0,0,0,0,0,0,0,0,0,0,0,0,0,0,0,0,0,0,0,0,0,0,0,0,0,0,0,0,0,0,0,0,0,0,0,10071,10072,10072,10072,10072,10073,0,0,0,0,0,0,0,0,0,0,0,0,0,0,10064,10065,10065,10065,10065,10065,10065,10066,0,0,0,0,0,0,0,0,0,0,10165,0,0,0,0,0,0,0,10165,0,0,0,0,0,0,0,0,0,0,0,0,0,0,0,0,0,0,0,0,10111,10112,0,0,0,0,0,0,10074,10075,10075,10075,10075,10076,0,0,10091,10092,10092,10092,10092,10092,10093,0,0,0,0,0,10064,10065,10065,10065,10065,10065,10065,10066,0,0,0,0,0,0,10071,10072,10072,10072,10072,10073,0,0,0,10071,10072,10072,10072,10073,0,0,0,0,0,0,0,0,0,3086,3087,0,0,0,0,0,0,0,0,10115,10116,0,0,0,10077,10078,10079,10074,10075,10075,10075,10075,10076,0,0,10096,10096,10094,10095,10096,10096,10096,0,0,0,0,0,10064,10065,10065,10065,10065,10065,10065,10066,0,0,0,0,0,0,10074,10075,10075,10075,10075,10076,0,0,0,10074,10075,10075,10075,10076,0,0,0,0,0,0,0,0,0,0,0,0,0,0,0,0,10071,10072,10072,10113,10114,10072,10072,10073,0,0,0,10077,10078,10078,10078,10078,10079,0,0,0,0,0,0,0,0,0,0,0,0,0,0,10067,10068,10068,10068,10068,10068,10068,10069,0,0,0,0,0,0,10077,10078,10078,10078,10078,10079,0,0,0,3557,3558,3559,3560,3562,0,0,0,0,0,0,0,0,0,0,0,0,0,0,0,0,10077,10078,10078,10113,10114,10078,10078,10079,0,0,0,0,0,0,0,0,0,0,0,0,0,0,0,0,0,0,0,0,0,0,0,0,0,0,0,0,0,0,0,0,0,0,0,0,0,0,0,0,3147,3148,0,0,0,0,3657,3658,3659,3660,3662,0,0,0,0,0,0,0,0,0,0,0,0,0,0,0,0,0,0,0,0,0,0,0,0,0,0,0,0,0,0,10266,0,0,0,0,0,0,0,0,0,0,0,0,0,0,0,3357,0,0,0,3086,3087,0,0,0,3358,0,0,0,0,0,0,0,3086,3087,0,0,0,0,0,0,3086,3087,0,0,0,0,0,0,0,0,0,0,0,0,0,0,0,0,0,0,0,0,0,0,0,0,0,0,0,0,0,0,0,3086,3087,10265,0,0,0,0,0,0,0,0,0,0,0,0,0,0,3457,0,0,0,0,0,0,0,0,3458,0,0,0,0,0,0,0,0,0,0,0,0,0,0,0,0,0,0,0,10261,0,0,0,10261,0,0,0,0,0,0,0,0,0,0,0,0,0,0,0,0,0,0,0,0,0,0,0,0,0,0,0,0,0,0,0,0,0,0,0,0,0,0,0,0,0,0,0,0,0,0,0,0,0,0,0,0,0,0,0,0,0,0,0,0,0,0,0,0,0,0,0,0,0,0,0,0,0,0,0,0,0,0,0,0,0,0,0,0,0,0,0,0,0,0,0,0,0,0,0,0,0,0,0,0,0,0,0,0,0,0,0,0,0,0,0,0,0,0,0,0,0,0,0,0,0,0,0,0,0,0,0,0,0,0,0,0,0,0,0,0,0,0,0,0,0,0,0,0,0,0,0,0,0,0,0,0,0,0,0,0,0,0,0,0,0,0,0,0,0,0,0,0,0,0,0,0,0,0,0,0,0,0,0,0,0,0,0,0,0,0,0,0,0,0,0,0,0,0,0,0,0,0,0,0,0,0,0,0,0,0,0,0,0,0,0,0,0,0,0,0,0,0,0,0,0,0,0,0,0,0,0,0,0,0,0,0,0,0,0,0,0,0,0,0,0,0,0,0,0,0,0,0,0,0,0,0,0,0,0,0,0,0,0,0,0,0,0,0,0,0,0,0,0,0,0,0,0,0,0,0,0,0,0,0,0,0,0,0,0,0,0,0,0,0,0,0,0,0,0,0,0,0,0,0,0,0,0,0,0,0,0,0,0,0,0,0,0,0,0,0,0,0,0,0,0,0,0,0,0,0,0,0,0,0,0,0,10291,0,0,0,0,0,0,0,0,10254,10256,10256,10256,10256,10256,10254,10256,10256,10256,10256,10256,10254,10256,10256,10256,10256,10256,10256,10256,10256,10256,10256,10256,10254,10256,10256,10256,10256,10261,0,0,0,10256,10256,10256,10254,10256,10256,10256,10256,10256,10254,10256,10256,10256,10256,10256,10254,10256,0,0,10256,10256,10254,0,0,0,0,10291,0,0,0,0,0,0,0,0,0,0,0,0,0,0,0,0,0,0,0,0,0,0,0,0,0,0,0,0,0,0,0,0,0,10165,0,0,0,0,0,0,0,0,10165,0,0,0,0,0,0,0,0,0,0,10165,0,0,0,0,0,0,0,0,0,0,0,0,0,0,0,0,10165,0,0,0,0,0,0,0,0,0,0,0,0,0,0,0,0,0,0,0,0,0,0,0,0,0,0,0,0,0,0,0,0,0,10071,10072,10072,10072,10072,10073,0,0,0,10071,10072,10072,10072,10072,10073,0,0,0,0,0,10071,10072,10072,10072,10072,10073,10077,10078,10079,0,0,0,0,0,0,0,0,10071,10072,10072,10072,10072,10073,0,0,0,0,0,0,0,0,0,0,0,0,0,0,0,0,0,0,0,0,0,0,0,0,0,0,0,0,0,0,0,0,10074,10075,10075,10075,10075,10076,10077,10078,10079,10074,10075,10075,10075,10075,10076,0,0,0,0,0,10074,10075,10075,10075,10075,10076,0,0,0,0,0,0,0,0,0,0,0,10074,10075,10075,10075,10075,10076,0,0,0,0,0,0,0,0,0,0,0,0,0,0,0,0,0,0,0,0,0,0,0,0,0,0,0,0,0,0,0,0,10077,10078,10078,10078,10078,10079,0,0,0,10077,10078,10078,10078,10078,10079,0,0,0,0,0,10077,10078,10078,10078,10078,10079,0,0,0,0,0,0,0,0,0,0,0,10077,10078,10078,10078,10078,10079,0,0,0,0,0,0,0,0,0,0,0,0,0,0,0,0,0,0,0,0,0,0,0,0,0,0,0,0,0,0,0,0,0,0,0,0,0,0,0,0,0,0,0,0,0,0,0,0,0,0,0,0,0,0,0,0,0,0,0,0,0,0,0,0,0,0,0,0,0,0,0,0,0,0,0,0,0,0,0,0,0,0,0,0,0,0,0,0,0,0,0,0,0,0,0,0,0,0,0,0,0,0,0,0,0,0,0,0,0,0,10266,0,0,0,0,0,0,0,0,10266,0,0,0,0,0,0,0,0,0,0,10266,0,0,0,0,0,0,0,0,0,0,0,0,0,0,0,0,10266,0,0,0,0,0,0,0,0,0,0,0,0,0,0,0,0,0,0,0,0,0,0,0,0,0,0,0,0,0,0,0,0,0,0,0,0,3086,3087,10265,0,0,0,0,0,0,3086,3087,10265,0,0,0,0,0,0,0,0,3086,3087,10265,0,0,0,0,0,0,0,0,0,0,0,0,0,0,3086,3087,10265,0,0,0,0,0,0,0,0,0,0,0,0,0,0,0,0,0,0,0,0,0,0,0,0,0,0,0,0,0,0,0,0,0,0,0,0,0,0,0,0,0,0,0,0,0,0,0,0,0,0,0,0,0,0,0,0,0,0,0,0,0,0,0,0,0,0,0,0,0,0,0,0,0,0,0,0,0,0,0,0,0,0,0,0,0,0,0,0,0,0,0,0,0,0,0,0,0,0,0,0,0,0,0,0,0,0,0,0,0,0,0,0,0,0,0,0,0,0,0,0,0,0,0,0,0,0,0,0,0,0,0,0,0,0,0,0,0,0,0,0,0,0,0,0,0,0,0,0,0,0,0,0,10165,0,0,0,0,0,0,0,0,0,0,0,0,0,0,0,0,0,0,0,0,0,0,0,0,0,0,0,0,0,0,0,0,0,0,0,0,0,0,0,0,0,0,0,0,0,0,0,0,0,0,0,0,0,0,0,0,0,0,0,0,0,0,0,0,0,0,0,0,0,0,10071,10072,10072,10072,10072,10073,0,0,0,0,0,0,0,0,0,0,0,0,0,0,0,0,0,0,0,0,0,0,0,0,0,0,0,0,0,0,0,0,0,10165,0,0,0,0,0,0,10165,0,0,0,0,0,0,0,0,0,0,0,0,0,0,0,0,0,0,0,0,0,0,0,0,0,0,0,0,10074,10075,10075,10075,10075,10076,0,0,0,0,0,0,0,0,0,0,0,0,0,0,0,0,0,0,0,0,0,0,0,0,0,0,0,0,0,10071,10072,10072,10072,10072,10073,0,10071,10072,10072,10072,10072,10073,0,0,0,0,0,0,0,0,0,0,0,0,0,0,0,0,0,0,0,0,0,0,0,0,0,0,0,10077,10078,10078,10078,10078,10079,0,0,0,0,0,0,0,0,0,0,0,0,0,0,0,0,0,0,0,0,0,0,0,0,0,0,0,0,0,10074,10075,10075,10075,10075,10076,0,10074,10075,10075,10075,10075,10076,0,0,0,0,0,0,0,0,0,0,0,0,0,0,0,0,0,0,0,0,0,0,0,0,0,0,0,0,0,0,0,0,0,0,0,0,0,0,0,0,0,0,0,0,0,0,0,0,0,0,0,0,0,0,0,0,0,0,0,0,0,0,10077,10078,10078,10078,10078,10079,0,10077,10078,10078,10078,10078,10079,0,0,0,0,0,0,0,0,0,0,0,0,0,0,0,0,0,0,0,0,0,0,0,0,0,0,0,0,0,0,10266,0,0,0,0,0,0,0,0,0,0,0,0,0,0,0,0,0,0,0,0,0,0,0,0,0,0,0,0,0,0,0,0,0,0,0,0,0,0,0,0,0,0,0,0,0,0,0,0,0,0,0,0,0,0,0,0,0,0,0,0,0,0,0,0,0,0,0,0,0,0,0,0,0,3086,3087,10265,0,0,0,0,0,0,0,0,0,0,0,0,0,0,0,0,0,0,0,0,0,0,0,0,0,0,0,0,0,0,0,0,0,10266,0,0,0,0,0,0,10266,0,0,0,0,0,0,0,0,0,0,0,0,0,0,0,0,0,0,0,0,0,0,0,0,0,0,0,0,0,0,0,0,0,0,0,0,0,0,0,0,0,0,0,0,0,0,0,0,0,0,0,0,0,0,0,0,0,0,0,0,0,0,0,0,0,0,3086,3087,10265,0,0,0,0,3086,3087,10265,0,0,0,0,0,0,0,0,0,0,0,0,0,0,0,0,0,0,0,0,0,0,0,0,0,0,0,0,0,0,0,0,0,0,0,0,0,0,0,0,0,0,0,0,0,0,0,0,0,0,0,0,0,0,0,0,0,0,0,0,0,0,0,0,0,0,0,0,0,0,0,0,0,0,0,0,0,0,0,0,0,0,0,0,0,0,0,0,0,0,0,0,0,0,0,0,0,0,0,0,0,0,0,0,0,0,0,0,0,0,0,0,0,0,0,0,0,0,0,0,0,0,0,0,0,0,0,0,0,0,0,0,0,0,0,0,0,0,0,0,0,0,0,0,0,0,0,0,0,0,0,0,0,0,0,0,0,0,0,0,0,0,0,0,0,0,0,0,0,0,0,0,0,0,0,0,0,0,0,0,0,0,0,0,0,0,0,0,0,0,0,0,0,0,0,0,0,0,0,0,0,0,0,0,0,0,0,0,0,0,0,0,0,0,0,0,0,0,0,0,0,0,0,0,0,0,0,0,0,0,0,0,0,0,0,0,0,0,0,0,0,0,0,0,0,0,0,0,0,0,0,0,0,0,0,0,0,0,0,0,0,0,0,0,0,0,0,0,0,0,0,0,0,0,0,0,0,0,0,0,0,0,0,0,0,0,0,0,0,0,0,0,0,0,0,0,0,0,0,0,0,0,0,0,0,0,0,0,0,0,0,0,0,0,0,0,0,0,0,0,0,0,0,0,0,0,0,0,0,0,0,0,0,0,0,0,0,0,0,0,0,0,0,0,0,0,0,0,0,0,0,0,0,0,0,0,0,0,0,0,0,0,0,0,0,0,0,0,0,0,0,0,0,0,0,0,0,0,0,0,0,0,0,0,0,0,0,0,0,0,0,0,0,0,0,0,0,0,0,0,0,0,0,0,0,0,0,0,0,0,0]},{"id":6,"name":"collision","type":"objectgroup","visible":true,"opacity":1,"x":0,"y":0,"draworder":"topdown","objects":[{"id":1,"name":"","type":"","rotation":0,"visible":true,"x":16,"y":16,"width":112,"height":80},{"id":2,"name":"","type":"","rotation":0,"visible":true,"x":32,"y":272,"width":112,"height":96},{"id":3,"name":"","type":"","rotation":0,"visible":true,"x":224,"y":240,"width":128,"height":128},{"id":4,"name":"","type":"","rotation":0,"visible":true,"x":32,"y":448,"width":32,"height":16},{"id":5,"name":"","type":"","rotation":0,"visible":true,"x":32,"y":464,"width":32,"height":16},{"id":6,"name":"","type":"","rotation":0,"visible":true,"x":32,"y":496,"width":32,"height":16},{"id":7,"name":"","type":"","rotation":0,"visible":true,"x":80,"y":448,"width":32,"height":16},{"id":8,"name":"","type":"","rotation":0,"visible":true,"x":80,"y":496,"width":32,"height":16},{"id":9,"name":"","type":"","rotation":0,"visible":true,"x":112,"y":448,"width":32,"height":16},{"id":10,"name":"","type":"","rotation":0,"visible":true,"x":112,"y":464,"width":32,"height":16},{"id":11,"name":"","type":"","rotation":0,"visible":true,"x":112,"y":480,"width":32,"height":16},{"id":12,"name":"","type":"","rotation":0,"visible":true,"x":112,"y":496,"width":32,"height":16},{"id":13,"name":"","type":"","rotation":0,"visible":true,"x":160,"y":448,"width":32,"height":16},{"id":14,"name":"","type":"","rotation":0,"visible":true,"x":160,"y":464,"width":32,"height":16},{"id":15,"name":"","type":"","rotation":0,"visible":true,"x":160,"y":480,"width":32,"height":16},{"id":16,"name":"","type":"","rotation":0,"visible":true,"x":176,"y":496,"width":16,"height":16},{"id":17,"name":"","type":"","rotation":0,"visible":true,"x":448,"y":272,"width":96,"height":96},{"id":18,"name":"","type":"","rotation":0,"visible":true,"x":592,"y":272,"width":80,"height":96},{"id":19,"name":"","type":"","rotation":0,"visible":true,"x":496,"y":128,"width":144,"height":128},{"id":20,"name":"","type":"","rotation":0,"visible":true,"x":368,"y":128,"width":128,"height":128},{"id":21,"name":"","type":"","rotation":0,"visible":true,"x":752,"y":160,"width":160,"height":144},{"id":22,"name":"","type":"","rotation":0,"visible":true,"x":784,"y":48,"width":16,"height":32},{"id":23,"name":"","type":"","rotation":0,"visible":true,"x":816,"y":48,"width":16,"height":32},{"id":24,"name":"","type":"","rotation":0,"visible":true,"x":832,"y":48,"width":16,"height":32},{"id":25,"name":"","type":"","rotation":0,"visible":true,"x":848,"y":48,"width":16,"height":32},{"id":26,"name":"","type":"","rotation":0,"visible":true,"x":896,"y":48,"width":16,"height":32},{"id":27,"name":"","type":"","rotation":0,"visible":true,"x":896,"y":80,"width":16,"height":16},{"id":28,"name":"","type":"","rotation":0,"visible":true,"x":928,"y":256,"width":128,"height":112},{"id":29,"name":"","type":"","rotation":0,"visible":true,"x":1104,"y":240,"width":96,"height":128},{"id":30,"name":"","type":"","rotation":0,"visible":true,"x":1056,"y":272,"width":48,"height":48},{"id":31,"name":"","type":"","rotation":0,"visible":true,"x":1056,"y":320,"width":16,"height":32},{"id":32,"name":"","type":"","rotation":0,"visible":true,"x":432,"y":464,"width":96,"height":112},{"id":33,"name":"","type":"","rotation":0,"visible":true,"x":576,"y":464,"width":96,"height":112},{"id":34,"name":"","type":"","rotation":0,"visible":true,"x":528,"y":480,"width":48,"height":48},{"id":35,"name":"","type":"","rotation":0,"visible":true,"x":752,"y":464,"width":96,"height":112},{"id":36,"name":"","type":"","rotation":0,"visible":true,"x":848,"y":464,"width":48,"height":48},{"id":37,"name":"","type":"","rotation":0,"visible":true,"x":848,"y":528,"width":16,"height":32},{"id":38,"name":"","type":"","rotation":0,"visible":true,"x":432,"y":624,"width":96,"height":112},{"id":39,"name":"","type":"","rotation":0,"visible":true,"x":544,"y":624,"width":96,"height":112},{"id":40,"name":"","type":"","rotation":0,"visible":true,"x":928,"y":48,"width":96,"height":112},{"id":41,"name":"","type":"","rotation":0,"visible":true,"x":1040,"y":48,"width":96,"height":112},{"id":42,"name":"","type":"","rotation":0,"visible":true,"x":1024,"y":464,"width":96,"height":112},{"id":43,"name":"","type":"","rotation":0,"visible":true,"x":1072,"y":592,"width":96,"height":112},{"id":44,"name":"","type":"","rotation":0,"visible":true,"x":256,"y":32,"width":96,"height":112},{"id":45,"name":"","type":"","rotation":0,"visible":true,"x":272,"y":176,"width":32,"height":32},{"id":46,"name":"","type":"","rotation":0,"visible":true,"x":1120,"y":176,"width":32,"height":32},{"id":47,"name":"","type":"","rotation":0,"visible":true,"x":144,"y":304,"width":32,"height":16},{"id":48,"name":"","type":"","rotation":0,"visible":true,"x":176,"y":336,"width":32,"height":16},{"id":49,"name":"","type":"","rotation":0,"visible":true,"x":144,"y":256,"width":32,"height":32},{"id":50,"name":"","type":"","rotation":0,"visible":true,"x":176,"y":272,"width":32,"height":16},{"id":51,"name":"","type":"","rotation":0,"visible":true,"x":384,"y":320,"width":32,"height":32},{"id":52,"name":"","type":"","rotation":0,"visible":true,"x":416,"y":336,"width":16,"height":16},{"id":53,"name":"","type":"","rotation":0,"visible":true,"x":211.2,"y":356.8,"width":9.6,"height":11.2},{"id":54,"name":"","type":"","rotation":0,"visible":true,"x":355.2,"y":356.8,"width":9.6,"height":11.2},{"id":55,"name":"","type":"","rotation":0,"visible":true,"x":32,"y":112,"width":176,"height":16},{"id":56,"name":"","type":"","rotation":0,"visible":true,"x":32,"y":208,"width":176,"height":16},{"id":57,"name":"","type":"","rotation":0,"visible":true,"x":32,"y":128,"width":16,"height":80},{"id":58,"name":"","type":"","rotation":0,"visible":true,"x":192,"y":128,"width":16,"height":80},{"id":59,"name":"","type":"","rotation":0,"visible":true,"x":64,"y":144,"width":64,"height":64},{"id":60,"name":"","type":"","rotation":0,"visible":true,"x":144,"y":176,"width":32,"height":32},{"id":61,"name":"","type":"","rotation":0,"visible":true,"x":208,"y":176,"width":64,"height":64},{"id":62,"name":"","type":"","rotation":0,"visible":true,"x":464,"y":272,"width":32,"height":32},{"id":63,"name":"","type":"","rotation":0,"visible":true,"x":384,"y":272,"width":64,"height":16},{"id":64,"name":"","type":"","rotation":0,"visible":true,"x":800,"y":128,"width":16,"height":16},{"id":65,"name":"","type":"","rotation":0,"visible":true,"x":848,"y":128,"width":16,"height":16},{"id":66,"name":"","type":"","rotation":0,"visible":true,"x":912,"y":80,"width":32,"height":32},{"id":67,"name":"","type":"","rotation":0,"visible":true,"x":772.0,"y":36.0,"width":8.0,"height":12.0},{"id":68,"name":"","type":"","rotation":0,"visible":true,"x":752,"y":336,"width":32,"height":16},{"id":69,"name":"","type":"","rotation":0,"visible":true,"x":868.8,"y":372.8,"width":6.4,"height":11.2},{"id":70,"name":"","type":"","rotation":0,"visible":true,"x":804.0,"y":324.0,"width":8.0,"height":12.0},{"id":71,"name":"","type":"","rotation":0,"visible":true,"x":852.0,"y":324.0,"width":8.0,"height":12.0},{"id":72,"name":"","type":"","rotation":0,"visible":true,"x":944,"y":176,"width":80,"height":16},{"id":73,"name":"","type":"","rotation":0,"visible":true,"x":1056,"y":176,"width":64,"height":16},{"id":74,"name":"","type":"","rotation":0,"visible":true,"x":945.6,"y":372.8,"width":12.8,"height":11.2},{"id":75,"name":"","type":"","rotation":0,"visible":true,"x":1025.6,"y":372.8,"width":12.8,"height":11.2},{"id":76,"name":"","type":"","rotation":0,"visible":true,"x":128,"y":512,"width":128,"height":16},{"id":77,"name":"","type":"","rotation":0,"visible":true,"x":304,"y":512,"width":128,"height":16},{"id":78,"name":"","type":"","rotation":0,"visible":true,"x":128,"y":704,"width":304,"height":16},{"id":79,"name":"","type":"","rotation":0,"visible":true,"x":128,"y":528,"width":16,"height":176},{"id":80,"name":"","type":"","rotation":0,"visible":true,"x":416,"y":528,"width":16,"height":176},{"id":81,"name":"","type":"","rotation":0,"visible":true,"x":320,"y":672,"width":48,"height":32},{"id":82,"name":"","type":"","rotation":0,"visible":true,"x":288,"y":704,"width":16,"height":16},{"id":83,"name":"","type":"","rotation":0,"visible":true,"x":384,"y":704,"width":16,"height":16},{"id":84,"name":"","type":"","rotation":0,"visible":true,"x":192,"y":688,"width":64,"height":32},{"id":85,"name":"","type":"","rotation":0,"visible":true,"x":244.0,"y":484.0,"width":8.0,"height":12.0},{"id":86,"name":"","type":"","rotation":0,"visible":true,"x":448,"y":592,"width":64,"height":16},{"id":87,"name":"","type":"","rotation":0,"visible":true,"x":592,"y":592,"width":48,"height":16},{"id":88,"name":"","type":"","rotation":0,"visible":true,"x":784,"y":592,"width":64,"height":16},{"id":89,"name":"","type":"","rotation":0,"visible":true,"x":644.0,"y":580.0,"width":8.0,"height":12.0},{"id":90,"name":"","type":"","rotation":0,"visible":true,"x":772.0,"y":580.0,"width":8.0,"height":12.0},{"id":91,"name":"","type":"","rotation":0,"visible":true,"x":659.2,"y":707.2,"width":9.6,"height":12.8},{"id":92,"name":"","type":"","rotation":0,"visible":true,"x":864,"y":640,"width":80,"height":16},{"id":93,"name":"","type":"","rotation":0,"visible":true,"x":864,"y":672,"width":80,"height":16},{"id":94,"name":"","type":"","rotation":0,"visible":true,"x":880,"y":512,"width":64,"height":64},{"id":95,"name":"","type":"","rotation":0,"visible":true,"x":896,"y":576,"width":32,"height":64},{"id":96,"name":"","type":"","rotation":0,"visible":true,"x":896,"y":688,"width":32,"height":112},{"id":97,"name":"","type":"","rotation":0,"visible":true,"x":784,"y":704,"width":32,"height":32},{"id":98,"name":"","type":"","rotation":0,"visible":true,"x":848,"y":720,"width":32,"height":32},{"id":99,"name":"","type":"","rotation":0,"visible":true,"x":816,"y":688,"width":16,"height":16},{"id":100,"name":"","type":"","rotation":0,"visible":true,"x":964.0,"y":436.0,"width":8.0,"height":12.0},{"id":101,"name":"","type":"","rotation":0,"visible":true,"x":1009.6,"y":441.6,"width":28.8,"height":19.2},{"id":102,"name":"","type":"","rotation":0,"visible":true,"x":1011.2,"y":436.8,"width":9.6,"height":11.2},{"id":103,"name":"","type":"","rotation":0,"visible":true,"x":848,"y":624,"width":16,"height":16},{"id":104,"name":"","type":"","rotation":0,"visible":true,"x":752,"y":720,"width":16,"height":16},{"id":105,"name":"","type":"","rotation":0,"visible":true,"x":1152,"y":528,"width":16,"height":16},{"id":106,"name":"","type":"","rotation":0,"visible":true,"x":1056,"y":656,"width":16,"height":16},{"id":107,"name":"","type":"","rotation":0,"visible":true,"x":1024,"y":736,"width":16,"height":16},{"id":108,"name":"","type":"","rotation":0,"visible":true,"x":976,"y":752,"width":16,"height":16},{"id":109,"name":"","type":"","rotation":0,"visible":true,"x":368,"y":64,"width":16,"height":16},{"id":110,"name":"","type":"","rotation":0,"visible":true,"x":448,"y":48,"width":16,"height":16},{"id":111,"name":"","type":"","rotation":0,"visible":true,"x":528,"y":48,"width":16,"height":16},{"id":112,"name":"","type":"","rotation":0,"visible":true,"x":592,"y":64,"width":16,"height":16},{"id":113,"name":"","type":"","rotation":0,"visible":true,"x":640,"y":96,"width":16,"height":16},{"id":114,"name":"","type":"","rotation":0,"visible":true,"x":1152,"y":80,"width":16,"height":16},{"id":115,"name":"","type":"","rotation":0,"visible":true,"x":64,"y":544,"width":16,"height":16},{"id":116,"name":"","type":"","rotation":0,"visible":true,"x":32,"y":608,"width":16,"height":16},{"id":117,"name":"","type":"","rotation":0,"visible":true,"x":16,"y":720,"width":80,"height":64},{"id":118,"name":"","type":"","rotation":0,"visible":true,"x":384,"y":192,"width":16,"height":16},{"id":119,"name":"","type":"","rotation":0,"visible":true,"x":20.0,"y":356.0,"width":8.0,"height":12.0},{"id":120,"name":"","type":"","rotation":0,"visible":true,"x":436.0,"y":356.0,"width":8.0,"height":12.0},{"id":121,"name":"","type":"","rotation":0,"visible":true,"x":916.0,"y":356.0,"width":8.0,"height":12.0},{"id":122,"name":"","type":"","rotation":0,"visible":true,"x":1092.0,"y":356.0,"width":8.0,"height":12.0},{"id":123,"name":"","type":"","rotation":0,"visible":true,"x":228.0,"y":420.0,"width":8.0,"height":12.0},{"id":124,"name":"","type":"","rotation":0,"visible":true,"x":500.0,"y":420.0,"width":8.0,"height":12.0},{"id":125,"name":"","type":"","rotation":0,"visible":true,"x":1060.0,"y":420.0,"width":8.0,"height":12.0},{"id":126,"name":"","type":"","rotation":0,"visible":true,"x":211.2,"y":372.8,"width":9.6,"height":11.2},{"id":127,"name":"","type":"","rotation":0,"visible":true,"x":435.2,"y":371.2,"width":9.6,"height":12.8},{"id":128,"name":"","type":"","rotation":0,"visible":true,"x":659.2,"y":372.8,"width":9.6,"height":11.2},{"id":129,"name":"","type":"","rotation":0,"visible":true,"x":577.6,"y":372.8,"width":12.8,"height":11.2},{"id":130,"name":"","type":"","rotation":0,"visible":true,"x":677.6,"y":372.8,"width":4.8,"height":11.2},{"id":131,"name":"","type":"","rotation":0,"visible":true,"x":741.6,"y":372.8,"width":4.8,"height":11.2},{"id":132,"name":"","type":"","rotation":0,"visible":true,"x":677.6,"y":452.8,"width":4.8,"height":11.2},{"id":133,"name":"","type":"","rotation":0,"visible":true,"x":741.6,"y":52.8,"width":4.8,"height":11.2},{"id":134,"name":"","type":"","rotation":0,"visible":true,"x":213.6,"y":452.8,"width":4.8,"height":11.2},{"id":135,"name":"","type":"","rotation":0,"visible":true,"x":309.6,"y":452.8,"width":4.8,"height":11.2},{"id":136,"name":"","type":"","rotation":0,"visible":true,"x":405.6,"y":452.8,"width":4.8,"height":11.2},{"id":137,"name":"","type":"","rotation":0,"visible":true,"x":597.6,"y":452.8,"width":4.8,"height":11.2},{"id":138,"name":"","type":"","rotation":0,"visible":true,"x":789.6,"y":452.8,"width":4.8,"height":11.2},{"id":139,"name":"","type":"","rotation":0,"visible":true,"x":885.6,"y":452.8,"width":4.8,"height":11.2},{"id":140,"name":"","type":"","rotation":0,"visible":true,"x":981.6,"y":452.8,"width":4.8,"height":11.2},{"id":141,"name":"","type":"","rotation":0,"visible":true,"x":1077.6,"y":452.8,"width":4.8,"height":11.2},{"id":142,"name":"","type":"","rotation":0,"visible":true,"x":0,"y":-16,"width":1200,"height":16},{"id":143,"name":"","type":"","rotation":0,"visible":true,"x":0,"y":800,"width":1200,"height":16},{"id":144,"name":"","type":"","rotation":0,"visible":true,"x":-16,"y":0,"width":16,"height":800},{"id":145,"name":"","type":"","rotation":0,"visible":true,"x":1200,"y":0,"width":16,"height":800},{"id":146,"name":"","type":"","rotation":0,"visible":true,"x":240,"y":16,"width":16,"height":16},{"id":147,"name":"","type":"","rotation":0,"visible":true,"x":368,"y":16,"width":16,"height":16},{"id":148,"name":"","type":"","rotation":0,"visible":true,"x":400,"y":16,"width":16,"height":16},{"id":149,"name":"","type":"","rotation":0,"visible":true,"x":432,"y":16,"width":16,"height":16},{"id":150,"name":"","type":"","rotation":0,"visible":true,"x":464,"y":16,"width":16,"height":16},{"id":151,"name":"","type":"","rotation":0,"visible":true,"x":496,"y":16,"width":16,"height":16},{"id":152,"name":"","type":"","rotation":0,"visible":true,"x":528,"y":16,"width":16,"height":16},{"id":153,"name":"","type":"","rotation":0,"visible":true,"x":560,"y":16,"width":16,"height":16},{"id":154,"name":"","type":"","rotation":0,"visible":true,"x":592,"y":16,"width":16,"height":16},{"id":155,"name":"","type":"","rotation":0,"visible":true,"x":624,"y":16,"width":16,"height":16},{"id":156,"name":"","type":"","rotation":0,"visible":true,"x":656,"y":16,"width":16,"height":16},{"id":157,"name":"","type":"","rotation":0,"visible":true,"x":752,"y":16,"width":16,"height":16},{"id":158,"name":"","type":"","rotation":0,"visible":true,"x":784,"y":16,"width":16,"height":16},{"id":159,"name":"","type":"","rotation":0,"visible":true,"x":816,"y":16,"width":16,"height":16},{"id":160,"name":"","type":"","rotation":0,"visible":true,"x":848,"y":16,"width":16,"height":16},{"id":161,"name":"","type":"","rotation":0,"visible":true,"x":880,"y":16,"width":16,"height":16},{"id":162,"name":"","type":"","rotation":0,"visible":true,"x":912,"y":16,"width":16,"height":16},{"id":163,"name":"","type":"","rotation":0,"visible":true,"x":944,"y":16,"width":16,"height":16},{"id":164,"name":"","type":"","rotation":0,"visible":true,"x":976,"y":16,"width":16,"height":16},{"id":165,"name":"","type":"","rotation":0,"visible":true,"x":1008,"y":16,"width":16,"height":16},{"id":166,"name":"","type":"","rotation":0,"visible":true,"x":1040,"y":16,"width":16,"height":16},{"id":167,"name":"","type":"","rotation":0,"visible":true,"x":1072,"y":16,"width":16,"height":16},{"id":168,"name":"","type":"","rotation":0,"visible":true,"x":1104,"y":16,"width":16,"height":16},{"id":169,"name":"","type":"","rotation":0,"visible":true,"x":1136,"y":16,"width":16,"height":16},{"id":170,"name":"","type":"","rotation":0,"visible":true,"x":1168,"y":16,"width":16,"height":16},{"id":171,"name":"","type":"","rotation":0,"visible":true,"x":448,"y":80,"width":16,"height":16},{"id":172,"name":"","type":"","rotation":0,"visible":true,"x":16,"y":784,"width":16,"height":16},{"id":173,"name":"","type":"","rotation":0,"visible":true,"x":48,"y":784,"width":16,"height":16},{"id":174,"name":"","type":"","rotation":0,"visible":true,"x":80,"y":784,"width":16,"height":16},{"id":175,"name":"","type":"","rotation":0,"visible":true,"x":112,"y":784,"width":16,"height":16},{"id":176,"name":"","type":"","rotation":0,"visible":true,"x":144,"y":784,"width":16,"height":16},{"id":177,"name":"","type":"","rotation":0,"visible":true,"x":176,"y":784,"width":16,"height":16},{"id":178,"name":"","type":"","rotation":0,"visible":true,"x":208,"y":784,"width":16,"height":16},{"id":179,"name":"","type":"","rotation":0,"visible":true,"x":240,"y":784,"width":16,"height":16},{"id":180,"name":"","type":"","rotation":0,"visible":true,"x":272,"y":784,"width":16,"height":16},{"id":181,"name":"","type":"","rotation":0,"visible":true,"x":304,"y":784,"width":16,"height":16},{"id":182,"name":"","type":"","rotation":0,"visible":true,"x":336,"y":784,"width":16,"height":16},{"id":183,"name":"","type":"","rotation":0,"visible":true,"x":368,"y":784,"width":16,"height":16},{"id":184,"name":"","type":"","rotation":0,"visible":true,"x":400,"y":784,"width":16,"height":16},{"id":185,"name":"","type":"","rotation":0,"visible":true,"x":432,"y":784,"width":16,"height":16},{"id":186,"name":"","type":"","rotation":0,"visible":true,"x":464,"y":784,"width":16,"height":16},{"id":187,"name":"","type":"","rotation":0,"visible":true,"x":496,"y":784,"width":16,"height":16},{"id":188,"name":"","type":"","rotation":0,"visible":true,"x":528,"y":784,"width":16,"height":16},{"id":189,"name":"","type":"","rotation":0,"visible":true,"x":560,"y":784,"width":16,"height":16},{"id":190,"name":"","type":"","rotation":0,"visible":true,"x":592,"y":784,"width":16,"height":16},{"id":191,"name":"","type":"","rotation":0,"visible":true,"x":624,"y":784,"width":16,"height":16},{"id":192,"name":"","type":"","rotation":0,"visible":true,"x":656,"y":784,"width":16,"height":16},{"id":193,"name":"","type":"","rotation":0,"visible":true,"x":688,"y":784,"width":16,"height":16},{"id":194,"name":"","type":"","rotation":0,"visible":true,"x":720,"y":784,"width":16,"height":16},{"id":195,"name":"","type":"","rotation":0,"visible":true,"x":752,"y":784,"width":16,"height":16},{"id":196,"name":"","type":"","rotation":0,"visible":true,"x":784,"y":784,"width":16,"height":16},{"id":197,"name":"","type":"","rotation":0,"visible":true,"x":848,"y":784,"width":16,"height":16},{"id":198,"name":"","type":"","rotation":0,"visible":true,"x":880,"y":784,"width":16,"height":16},{"id":199,"name":"","type":"","rotation":0,"visible":true,"x":944,"y":784,"width":16,"height":16},{"id":200,"name":"","type":"","rotation":0,"visible":true,"x":976,"y":784,"width":16,"height":16},{"id":201,"name":"","type":"","rotation":0,"visible":true,"x":1008,"y":784,"width":16,"height":16},{"id":202,"name":"","type":"","rotation":0,"visible":true,"x":1040,"y":784,"width":16,"height":16},{"id":203,"name":"","type":"","rotation":0,"visible":true,"x":1072,"y":784,"width":16,"height":16},{"id":204,"name":"","type":"","rotation":0,"visible":true,"x":1104,"y":784,"width":16,"height":16},{"id":205,"name":"","type":"","rotation":0,"visible":true,"x":1136,"y":784,"width":16,"height":16},{"id":206,"name":"","type":"","rotation":0,"visible":true,"x":1168,"y":784,"width":16,"height":16},{"id":207,"name":"","type":"","rotation":0,"visible":true,"x":1168,"y":48,"width":16,"height":16},{"id":208,"name":"","type":"","rotation":0,"visible":true,"x":16,"y":112,"width":16,"height":16},{"id":209,"name":"","type":"","rotation":0,"visible":true,"x":1168,"y":112,"width":16,"height":16},{"id":210,"name":"","type":"","rotation":0,"visible":true,"x":16,"y":144,"width":16,"height":16},{"id":211,"name":"","type":"","rotation":0,"visible":true,"x":1168,"y":144,"width":16,"height":16},{"id":212,"name":"","type":"","rotation":0,"visible":true,"x":16,"y":176,"width":16,"height":16},{"id":213,"name":"","type":"","rotation":0,"visible":true,"x":1168,"y":176,"width":16,"height":16},{"id":214,"name":"","type":"","rotation":0,"visible":true,"x":16,"y":208,"width":16,"height":16},{"id":215,"name":"","type":"","rotation":0,"visible":true,"x":16,"y":240,"width":16,"height":16},{"id":216,"name":"","type":"","rotation":0,"visible":true,"x":16,"y":272,"width":16,"height":16},{"id":217,"name":"","type":"","rotation":0,"visible":true,"x":16,"y":304,"width":16,"height":16},{"id":218,"name":"","type":"","rotation":0,"visible":true,"x":16,"y":336,"width":16,"height":16},{"id":219,"name":"","type":"","rotation":0,"visible":true,"x":16,"y":464,"width":16,"height":16},{"id":220,"name":"","type":"","rotation":0,"visible":true,"x":1168,"y":464,"width":16,"height":16},{"id":221,"name":"","type":"","rotation":0,"visible":true,"x":16,"y":496,"width":16,"height":16},{"id":222,"name":"","type":"","rotation":0,"visible":true,"x":1168,"y":496,"width":16,"height":16},{"id":223,"name":"","type":"","rotation":0,"visible":true,"x":16,"y":528,"width":16,"height":16},{"id":224,"name":"","type":"","rotation":0,"visible":true,"x":1168,"y":560,"width":16,"height":16},{"id":225,"name":"","type":"","rotation":0,"visible":true,"x":1168,"y":592,"width":16,"height":16},{"id":226,"name":"","type":"","rotation":0,"visible":true,"x":1168,"y":624,"width":16,"height":16},{"id":227,"name":"","type":"","rotation":0,"visible":true,"x":16,"y":656,"width":16,"height":16},{"id":228,"name":"","type":"","rotation":0,"visible":true,"x":1168,"y":656,"width":16,"height":16},{"id":229,"name":"","type":"","rotation":0,"visible":true,"x":16,"y":688,"width":16,"height":16},{"id":230,"name":"","type":"","rotation":0,"visible":true,"x":1168,"y":688,"width":16,"height":16},{"id":231,"name":"","type":"","rotation":0,"visible":true,"x":1168,"y":720,"width":16,"height":16},{"id":232,"name":"","type":"","rotation":0,"visible":true,"x":1168,"y":752,"width":16,"height":16},{"id":233,"name":"","type":"","rotation":0,"visible":true,"x":69.6,"y":452.8,"width":4.8,"height":11.2},{"id":234,"name":"","type":"","rotation":0,"visible":true,"x":1157.6,"y":452.8,"width":4.8,"height":11.2},{"id":235,"name":"","type":"","rotation":0,"visible":true,"x":677.6,"y":36.8,"width":4.8,"height":11.2},{"id":236,"name":"","type":"","rotation":0,"visible":true,"x":1092.8,"y":359.2,"width":6.4,"height":8.0},{"id":237,"name":"","type":"","rotation":0,"visible":true,"x":1092.8,"y":343.2,"width":6.4,"height":8.0},{"id":238,"name":"","type":"","rotation":0,"visible":true,"x":532.8,"y":567.2,"width":6.4,"height":8.0},{"id":239,"name":"","type":"","rotation":0,"visible":true,"x":532.8,"y":551.2,"width":6.4,"height":8.0},{"id":240,"name":"","type":"","rotation":0,"visible":true,"x":564.8,"y":567.2,"width":6.4,"height":8.0},{"id":241,"name":"","type":"","rotation":0,"visible":true,"x":564.8,"y":551.2,"width":6.4,"height":8.0},{"id":242,"name":"","type":"","rotation":0,"visible":true,"x":532.8,"y":727.2,"width":6.4,"height":8.0},{"id":243,"name":"","type":"","rotation":0,"visible":true,"x":532.8,"y":711.2,"width":6.4,"height":8.0},{"id":244,"name":"","type":"","rotation":0,"visible":true,"x":532.8,"y":727.2,"width":6.4,"height":8.0},{"id":245,"name":"","type":"","rotation":0,"visible":true,"x":532.8,"y":711.2,"width":6.4,"height":8.0},{"id":246,"name":"","type":"","rotation":0,"visible":true,"x":1028.8,"y":151.2,"width":6.4,"height":8.0},{"id":247,"name":"","type":"","rotation":0,"visible":true,"x":1028.8,"y":135.2,"width":6.4,"height":8.0},{"id":248,"name":"","type":"","rotation":0,"visible":true,"x":1028.8,"y":151.2,"width":6.4,"height":8.0},{"id":249,"name":"","type":"","rotation":0,"visible":true,"x":1140.8,"y":151.2,"width":6.4,"height":8.0},{"id":250,"name":"","type":"","rotation":0,"visible":true,"x":1124.8,"y":567.2,"width":6.4,"height":8.0},{"id":251,"name":"","type":"","rotation":0,"visible":true,"x":1012.8,"y":551.2,"width":6.4,"height":8.0},{"id":252,"name":"","type":"","rotation":0,"visible":true,"x":1060.8,"y":695.2,"width":6.4,"height":8.0},{"id":253,"name":"","type":"","rotation":0,"visible":true,"x":1060.8,"y":679.2,"width":6.4,"height":8.0},{"id":254,"name":"","type":"","rotation":0,"visible":true,"x":244.8,"y":135.2,"width":6.4,"height":8.0},{"id":255,"name":"","type":"","rotation":0,"visible":true,"x":356.8,"y":135.2,"width":6.4,"height":8.0},{"id":256,"name":"","type":"","rotation":0,"visible":true,"x":292.0,"y":646.4,"width":8.0,"height":8.0}]},{"id":7,"name":"anchors","type":"objectgroup","visible":true,"opacity":1,"x":0,"y":0,"draworder":"topdown","objects":[{"id":257,"name":"","type":"","rotation":0,"point":true,"visible":true,"x":920.0,"y":560.0,"width":0,"height":0,"properties":[{"name":"kind","type":"string","value":"water-foam"}]},{"id":258,"name":"","type":"","rotation":0,"point":true,"visible":true,"x":912.0,"y":752.0,"width":0,"height":0,"properties":[{"name":"kind","type":"string","value":"water-foam"}]},{"id":259,"name":"","type":"","rotation":0,"point":true,"visible":true,"x":328.0,"y":234.4,"width":0,"height":0,"properties":[{"name":"kind","type":"string","value":"smoke"},{"name":"mode","type":"string","value":"hearth"}]},{"id":260,"name":"","type":"","rotation":0,"point":true,"visible":true,"x":520.0,"y":266.4,"width":0,"height":0,"properties":[{"name":"kind","type":"string","value":"smoke"},{"name":"mode","type":"string","value":"hearth"}]},{"id":261,"name":"","type":"","rotation":0,"point":true,"visible":true,"x":648.0,"y":266.4,"width":0,"height":0,"properties":[{"name":"kind","type":"string","value":"smoke"},{"name":"mode","type":"string","value":"hearth"}]},{"id":262,"name":"","type":"","rotation":0,"point":true,"visible":true,"x":1176.0,"y":234.4,"width":0,"height":0,"properties":[{"name":"kind","type":"string","value":"smoke"},{"name":"mode","type":"string","value":"hearth"}]},{"id":263,"name":"","type":"","rotation":0,"point":true,"visible":true,"x":504.0,"y":458.4,"width":0,"height":0,"properties":[{"name":"kind","type":"string","value":"smoke"},{"name":"mode","type":"string","value":"hearth"}]},{"id":264,"name":"","type":"","rotation":0,"point":true,"visible":true,"x":648.0,"y":458.4,"width":0,"height":0,"properties":[{"name":"kind","type":"string","value":"smoke"},{"name":"mode","type":"string","value":"hearth"}]},{"id":265,"name":"","type":"","rotation":0,"point":true,"visible":true,"x":824.0,"y":458.4,"width":0,"height":0,"properties":[{"name":"kind","type":"string","value":"smoke"},{"name":"mode","type":"string","value":"hearth"}]},{"id":266,"name":"","type":"","rotation":0,"point":true,"visible":true,"x":504.0,"y":618.4,"width":0,"height":0,"properties":[{"name":"kind","type":"string","value":"smoke"},{"name":"mode","type":"string","value":"hearth"}]},{"id":267,"name":"","type":"","rotation":0,"point":true,"visible":true,"x":616.0,"y":618.4,"width":0,"height":0,"properties":[{"name":"kind","type":"string","value":"smoke"},{"name":"mode","type":"string","value":"hearth"}]},{"id":268,"name":"","type":"","rotation":0,"point":true,"visible":true,"x":1000.0,"y":42.4,"width":0,"height":0,"properties":[{"name":"kind","type":"string","value":"smoke"},{"name":"mode","type":"string","value":"hearth"}]},{"id":269,"name":"","type":"","rotation":0,"point":true,"visible":true,"x":1112.0,"y":42.4,"width":0,"height":0,"properties":[{"name":"kind","type":"string","value":"smoke"},{"name":"mode","type":"string","value":"hearth"}]},{"id":270,"name":"","type":"","rotation":0,"point":true,"visible":true,"x":1096.0,"y":458.4,"width":0,"height":0,"properties":[{"name":"kind","type":"string","value":"smoke"},{"name":"mode","type":"string","value":"hearth"}]},{"id":271,"name":"","type":"","rotation":0,"point":true,"visible":true,"x":1144.0,"y":586.4,"width":0,"height":0,"properties":[{"name":"kind","type":"string","value":"smoke"},{"name":"mode","type":"string","value":"hearth"}]},{"id":272,"name":"","type":"","rotation":0,"point":true,"visible":true,"x":328.0,"y":26.4,"width":0,"height":0,"properties":[{"name":"kind","type":"string","value":"smoke"},{"name":"mode","type":"string","value":"hearth"}]},{"id":273,"name":"","type":"","rotation":0,"point":true,"visible":true,"x":56.0,"y":304.0,"width":0,"height":0,"properties":[{"name":"kind","type":"string","value":"smoke"}]},{"id":274,"name":"","type":"","rotation":0,"point":true,"visible":true,"x":440.0,"y":304.0,"width":0,"height":0,"properties":[{"name":"kind","type":"string","value":"flower"}]},{"id":275,"name":"","type":"","rotation":0,"point":true,"visible":true,"x":232.0,"y":128.0,"width":0,"height":0,"properties":[{"name":"kind","type":"string","value":"windmill"}]},{"id":276,"name":"","type":"","rotation":0,"point":true,"visible":true,"x":776.0,"y":48.0,"width":0,"height":0,"properties":[{"name":"kind","type":"string","value":"lamp"}]},{"id":277,"name":"","type":"","rotation":0,"point":true,"visible":true,"x":808.0,"y":336.0,"width":0,"height":0,"properties":[{"name":"kind","type":"string","value":"lamp"}]},{"id":278,"name":"","type":"","rotation":0,"point":true,"visible":true,"x":856.0,"y":336.0,"width":0,"height":0,"properties":[{"name":"kind","type":"string","value":"lamp"}]},{"id":279,"name":"","type":"","rotation":0,"point":true,"visible":true,"x":248.0,"y":496.0,"width":0,"height":0,"properties":[{"name":"kind","type":"string","value":"lamp"}]},{"id":280,"name":"","type":"","rotation":0,"point":true,"visible":true,"x":648.0,"y":592.0,"width":0,"height":0,"properties":[{"name":"kind","type":"string","value":"lamp"}]},{"id":281,"name":"","type":"","rotation":0,"point":true,"visible":true,"x":776.0,"y":592.0,"width":0,"height":0,"properties":[{"name":"kind","type":"string","value":"lamp"}]},{"id":282,"name":"","type":"","rotation":0,"point":true,"visible":true,"x":664.0,"y":752.0,"width":0,"height":0,"properties":[{"name":"kind","type":"string","value":"flower"}]},{"id":283,"name":"","type":"","rotation":0,"point":true,"visible":true,"x":808.0,"y":768.0,"width":0,"height":0,"properties":[{"name":"kind","type":"string","value":"flower"}]},{"id":284,"name":"","type":"","rotation":0,"point":true,"visible":true,"x":968.0,"y":448.0,"width":0,"height":0,"properties":[{"name":"kind","type":"string","value":"lamp"}]},{"id":285,"name":"Hedden Park","type":"","rotation":0,"point":true,"visible":true,"x":1024.0,"y":464.0,"width":0,"height":0,"properties":[{"name":"kind","type":"string","value":"noticeboard"}]},{"id":286,"name":"","type":"","rotation":0,"point":true,"visible":true,"x":856.0,"y":640.0,"width":0,"height":0,"properties":[{"name":"kind","type":"string","value":"tree"},{"name":"stamp","type":"string","value":"tree_round_small"}]},{"id":287,"name":"","type":"","rotation":0,"point":true,"visible":true,"x":760.0,"y":736.0,"width":0,"height":0,"properties":[{"name":"kind","type":"string","value":"tree"},{"name":"stamp","type":"string","value":"tree_round_small"}]},{"id":288,"name":"","type":"","rotation":0,"point":true,"visible":true,"x":1160.0,"y":544.0,"width":0,"height":0,"properties":[{"name":"kind","type":"string","value":"tree"},{"name":"stamp","type":"string","value":"tree_dark"}]},{"id":289,"name":"","type":"","rotation":0,"point":true,"visible":true,"x":1064.0,"y":672.0,"width":0,"height":0,"properties":[{"name":"kind","type":"string","value":"tree"},{"name":"stamp","type":"string","value":"tree_light"}]},{"id":290,"name":"","type":"","rotation":0,"point":true,"visible":true,"x":1032.0,"y":752.0,"width":0,"height":0,"properties":[{"name":"kind","type":"string","value":"tree"},{"name":"stamp","type":"string","value":"tree_light"}]},{"id":291,"name":"","type":"","rotation":0,"point":true,"visible":true,"x":984.0,"y":768.0,"width":0,"height":0,"properties":[{"name":"kind","type":"string","value":"tree"},{"name":"stamp","type":"string","value":"tree_round_small"}]},{"id":292,"name":"","type":"","rotation":0,"point":true,"visible":true,"x":376.0,"y":80.0,"width":0,"height":0,"properties":[{"name":"kind","type":"string","value":"tree"},{"name":"stamp","type":"string","value":"tree_light"}]},{"id":293,"name":"","type":"","rotation":0,"point":true,"visible":true,"x":456.0,"y":64.0,"width":0,"height":0,"properties":[{"name":"kind","type":"string","value":"tree"},{"name":"stamp","type":"string","value":"tree_round_small"}]},{"id":294,"name":"","type":"","rotation":0,"point":true,"visible":true,"x":536.0,"y":64.0,"width":0,"height":0,"properties":[{"name":"kind","type":"string","value":"tree"},{"name":"stamp","type":"string","value":"tree_light"}]},{"id":295,"name":"","type":"","rotation":0,"point":true,"visible":true,"x":600.0,"y":80.0,"width":0,"height":0,"properties":[{"name":"kind","type":"string","value":"tree"},{"name":"stamp","type":"string","value":"tree_dark"}]},{"id":296,"name":"","type":"","rotation":0,"point":true,"visible":true,"x":648.0,"y":112.0,"width":0,"height":0,"properties":[{"name":"kind","type":"string","value":"tree"},{"name":"stamp","type":"string","value":"tree_light"}]},{"id":297,"name":"","type":"","rotation":0,"point":true,"visible":true,"x":1160.0,"y":96.0,"width":0,"height":0,"properties":[{"name":"kind","type":"string","value":"tree"},{"name":"stamp","type":"string","value":"tree_light"}]},{"id":298,"name":"","type":"","rotation":0,"point":true,"visible":true,"x":72.0,"y":560.0,"width":0,"height":0,"properties":[{"name":"kind","type":"string","value":"tree"},{"name":"stamp","type":"string","value":"tree_dark"}]},{"id":299,"name":"","type":"","rotation":0,"point":true,"visible":true,"x":40.0,"y":624.0,"width":0,"height":0,"properties":[{"name":"kind","type":"string","value":"tree"},{"name":"stamp","type":"string","value":"tree_light"}]},{"id":300,"name":"","type":"","rotation":0,"point":true,"visible":true,"x":392.0,"y":208.0,"width":0,"height":0,"properties":[{"name":"kind","type":"string","value":"tree"},{"name":"stamp","type":"string","value":"tree_round_small"}]},{"id":301,"name":"","type":"","rotation":0,"point":true,"visible":true,"x":24.0,"y":368.0,"width":0,"height":0,"properties":[{"name":"kind","type":"string","value":"lamp"}]},{"id":302,"name":"","type":"","rotation":0,"point":true,"visible":true,"x":440.0,"y":368.0,"width":0,"height":0,"properties":[{"name":"kind","type":"string","value":"lamp"}]},{"id":303,"name":"","type":"","rotation":0,"point":true,"visible":true,"x":920.0,"y":368.0,"width":0,"height":0,"properties":[{"name":"kind","type":"string","value":"lamp"}]},{"id":304,"name":"","type":"","rotation":0,"point":true,"visible":true,"x":1096.0,"y":368.0,"width":0,"height":0,"properties":[{"name":"kind","type":"string","value":"lamp"}]},{"id":305,"name":"","type":"","rotation":0,"point":true,"visible":true,"x":232.0,"y":432.0,"width":0,"height":0,"properties":[{"name":"kind","type":"string","value":"lamp"}]},{"id":306,"name":"","type":"","rotation":0,"point":true,"visible":true,"x":504.0,"y":432.0,"width":0,"height":0,"properties":[{"name":"kind","type":"string","value":"lamp"}]},{"id":307,"name":"","type":"","rotation":0,"point":true,"visible":true,"x":1064.0,"y":432.0,"width":0,"height":0,"properties":[{"name":"kind","type":"string","value":"lamp"}]},{"id":308,"name":"","type":"","rotation":0,"point":true,"visible":true,"x":248.0,"y":32.0,"width":0,"height":0,"properties":[{"name":"kind","type":"string","value":"tree"},{"name":"stamp","type":"string","value":"tree_round_small"}]},{"id":309,"name":"","type":"","rotation":0,"point":true,"visible":true,"x":376.0,"y":32.0,"width":0,"height":0,"properties":[{"name":"kind","type":"string","value":"tree"},{"name":"stamp","type":"string","value":"tree_round_small"}]},{"id":310,"name":"","type":"","rotation":0,"point":true,"visible":true,"x":408.0,"y":32.0,"width":0,"height":0,"properties":[{"name":"kind","type":"string","value":"tree"},{"name":"stamp","type":"string","value":"tree_round_small"}]},{"id":311,"name":"","type":"","rotation":0,"point":true,"visible":true,"x":440.0,"y":32.0,"width":0,"height":0,"properties":[{"name":"kind","type":"string","value":"tree"},{"name":"stamp","type":"string","value":"tree_round_small"}]},{"id":312,"name":"","type":"","rotation":0,"point":true,"visible":true,"x":472.0,"y":32.0,"width":0,"height":0,"properties":[{"name":"kind","type":"string","value":"tree"},{"name":"stamp","type":"string","value":"tree_round_small"}]},{"id":313,"name":"","type":"","rotation":0,"point":true,"visible":true,"x":504.0,"y":32.0,"width":0,"height":0,"properties":[{"name":"kind","type":"string","value":"tree"},{"name":"stamp","type":"string","value":"tree_round_small"}]},{"id":314,"name":"","type":"","rotation":0,"point":true,"visible":true,"x":536.0,"y":32.0,"width":0,"height":0,"properties":[{"name":"kind","type":"string","value":"tree"},{"name":"stamp","type":"string","value":"tree_round_small"}]},{"id":315,"name":"","type":"","rotation":0,"point":true,"visible":true,"x":568.0,"y":32.0,"width":0,"height":0,"properties":[{"name":"kind","type":"string","value":"tree"},{"name":"stamp","type":"string","value":"tree_round_small"}]},{"id":316,"name":"","type":"","rotation":0,"point":true,"visible":true,"x":600.0,"y":32.0,"width":0,"height":0,"properties":[{"name":"kind","type":"string","value":"tree"},{"name":"stamp","type":"string","value":"tree_round_small"}]},{"id":317,"name":"","type":"","rotation":0,"point":true,"visible":true,"x":632.0,"y":32.0,"width":0,"height":0,"properties":[{"name":"kind","type":"string","value":"tree"},{"name":"stamp","type":"string","value":"tree_round_small"}]},{"id":318,"name":"","type":"","rotation":0,"point":true,"visible":true,"x":664.0,"y":32.0,"width":0,"height":0,"properties":[{"name":"kind","type":"string","value":"tree"},{"name":"stamp","type":"string","value":"tree_round_small"}]},{"id":319,"name":"","type":"","rotation":0,"point":true,"visible":true,"x":760.0,"y":32.0,"width":0,"height":0,"properties":[{"name":"kind","type":"string","value":"tree"},{"name":"stamp","type":"string","value":"tree_round_small"}]},{"id":320,"name":"","type":"","rotation":0,"point":true,"visible":true,"x":792.0,"y":32.0,"width":0,"height":0,"properties":[{"name":"kind","type":"string","value":"tree"},{"name":"stamp","type":"string","value":"tree_round_small"}]},{"id":321,"name":"","type":"","rotation":0,"point":true,"visible":true,"x":824.0,"y":32.0,"width":0,"height":0,"properties":[{"name":"kind","type":"string","value":"tree"},{"name":"stamp","type":"string","value":"tree_round_small"}]},{"id":322,"name":"","type":"","rotation":0,"point":true,"visible":true,"x":856.0,"y":32.0,"width":0,"height":0,"properties":[{"name":"kind","type":"string","value":"tree"},{"name":"stamp","type":"string","value":"tree_round_small"}]},{"id":323,"name":"","type":"","rotation":0,"point":true,"visible":true,"x":888.0,"y":32.0,"width":0,"height":0,"properties":[{"name":"kind","type":"string","value":"tree"},{"name":"stamp","type":"string","value":"tree_round_small"}]},{"id":324,"name":"","type":"","rotation":0,"point":true,"visible":true,"x":920.0,"y":32.0,"width":0,"height":0,"properties":[{"name":"kind","type":"string","value":"tree"},{"name":"stamp","type":"string","value":"tree_round_small"}]},{"id":325,"name":"","type":"","rotation":0,"point":true,"visible":true,"x":952.0,"y":32.0,"width":0,"height":0,"properties":[{"name":"kind","type":"string","value":"tree"},{"name":"stamp","type":"string","value":"tree_round_small"}]},{"id":326,"name":"","type":"","rotation":0,"point":true,"visible":true,"x":984.0,"y":32.0,"width":0,"height":0,"properties":[{"name":"kind","type":"string","value":"tree"},{"name":"stamp","type":"string","value":"tree_round_small"}]},{"id":327,"name":"","type":"","rotation":0,"point":true,"visible":true,"x":1016.0,"y":32.0,"width":0,"height":0,"properties":[{"name":"kind","type":"string","value":"tree"},{"name":"stamp","type":"string","value":"tree_round_small"}]},{"id":328,"name":"","type":"","rotation":0,"point":true,"visible":true,"x":1048.0,"y":32.0,"width":0,"height":0,"properties":[{"name":"kind","type":"string","value":"tree"},{"name":"stamp","type":"string","value":"tree_round_small"}]},{"id":329,"name":"","type":"","rotation":0,"point":true,"visible":true,"x":1080.0,"y":32.0,"width":0,"height":0,"properties":[{"name":"kind","type":"string","value":"tree"},{"name":"stamp","type":"string","value":"tree_round_small"}]},{"id":330,"name":"","type":"","rotation":0,"point":true,"visible":true,"x":1112.0,"y":32.0,"width":0,"height":0,"properties":[{"name":"kind","type":"string","value":"tree"},{"name":"stamp","type":"string","value":"tree_round_small"}]},{"id":331,"name":"","type":"","rotation":0,"point":true,"visible":true,"x":1144.0,"y":32.0,"width":0,"height":0,"properties":[{"name":"kind","type":"string","value":"tree"},{"name":"stamp","type":"string","value":"tree_round_small"}]},{"id":332,"name":"","type":"","rotation":0,"point":true,"visible":true,"x":1176.0,"y":32.0,"width":0,"height":0,"properties":[{"name":"kind","type":"string","value":"tree"},{"name":"stamp","type":"string","value":"tree_round_small"}]},{"id":333,"name":"","type":"","rotation":0,"point":true,"visible":true,"x":456.0,"y":96.0,"width":0,"height":0,"properties":[{"name":"kind","type":"string","value":"tree"},{"name":"stamp","type":"string","value":"tree_dark"}]},{"id":334,"name":"","type":"","rotation":0,"point":true,"visible":true,"x":24.0,"y":800.0,"width":0,"height":0,"properties":[{"name":"kind","type":"string","value":"tree"},{"name":"stamp","type":"string","value":"tree_round_small"}]},{"id":335,"name":"","type":"","rotation":0,"point":true,"visible":true,"x":56.0,"y":800.0,"width":0,"height":0,"properties":[{"name":"kind","type":"string","value":"tree"},{"name":"stamp","type":"string","value":"tree_round_small"}]},{"id":336,"name":"","type":"","rotation":0,"point":true,"visible":true,"x":88.0,"y":800.0,"width":0,"height":0,"properties":[{"name":"kind","type":"string","value":"tree"},{"name":"stamp","type":"string","value":"tree_round_small"}]},{"id":337,"name":"","type":"","rotation":0,"point":true,"visible":true,"x":120.0,"y":800.0,"width":0,"height":0,"properties":[{"name":"kind","type":"string","value":"tree"},{"name":"stamp","type":"string","value":"tree_round_small"}]},{"id":338,"name":"","type":"","rotation":0,"point":true,"visible":true,"x":152.0,"y":800.0,"width":0,"height":0,"properties":[{"name":"kind","type":"string","value":"tree"},{"name":"stamp","type":"string","value":"tree_round_small"}]},{"id":339,"name":"","type":"","rotation":0,"point":true,"visible":true,"x":184.0,"y":800.0,"width":0,"height":0,"properties":[{"name":"kind","type":"string","value":"tree"},{"name":"stamp","type":"string","value":"tree_round_small"}]},{"id":340,"name":"","type":"","rotation":0,"point":true,"visible":true,"x":216.0,"y":800.0,"width":0,"height":0,"properties":[{"name":"kind","type":"string","value":"tree"},{"name":"stamp","type":"string","value":"tree_round_small"}]},{"id":341,"name":"","type":"","rotation":0,"point":true,"visible":true,"x":248.0,"y":800.0,"width":0,"height":0,"properties":[{"name":"kind","type":"string","value":"tree"},{"name":"stamp","type":"string","value":"tree_round_small"}]},{"id":342,"name":"","type":"","rotation":0,"point":true,"visible":true,"x":280.0,"y":800.0,"width":0,"height":0,"properties":[{"name":"kind","type":"string","value":"tree"},{"name":"stamp","type":"string","value":"tree_round_small"}]},{"id":343,"name":"","type":"","rotation":0,"point":true,"visible":true,"x":312.0,"y":800.0,"width":0,"height":0,"properties":[{"name":"kind","type":"string","value":"tree"},{"name":"stamp","type":"string","value":"tree_round_small"}]},{"id":344,"name":"","type":"","rotation":0,"point":true,"visible":true,"x":344.0,"y":800.0,"width":0,"height":0,"properties":[{"name":"kind","type":"string","value":"tree"},{"name":"stamp","type":"string","value":"tree_round_small"}]},{"id":345,"name":"","type":"","rotation":0,"point":true,"visible":true,"x":376.0,"y":800.0,"width":0,"height":0,"properties":[{"name":"kind","type":"string","value":"tree"},{"name":"stamp","type":"string","value":"tree_round_small"}]},{"id":346,"name":"","type":"","rotation":0,"point":true,"visible":true,"x":408.0,"y":800.0,"width":0,"height":0,"properties":[{"name":"kind","type":"string","value":"tree"},{"name":"stamp","type":"string","value":"tree_round_small"}]},{"id":347,"name":"","type":"","rotation":0,"point":true,"visible":true,"x":440.0,"y":800.0,"width":0,"height":0,"properties":[{"name":"kind","type":"string","value":"tree"},{"name":"stamp","type":"string","value":"tree_round_small"}]},{"id":348,"name":"","type":"","rotation":0,"point":true,"visible":true,"x":472.0,"y":800.0,"width":0,"height":0,"properties":[{"name":"kind","type":"string","value":"tree"},{"name":"stamp","type":"string","value":"tree_round_small"}]},{"id":349,"name":"","type":"","rotation":0,"point":true,"visible":true,"x":504.0,"y":800.0,"width":0,"height":0,"properties":[{"name":"kind","type":"string","value":"tree"},{"name":"stamp","type":"string","value":"tree_round_small"}]},{"id":350,"name":"","type":"","rotation":0,"point":true,"visible":true,"x":536.0,"y":800.0,"width":0,"height":0,"properties":[{"name":"kind","type":"string","value":"tree"},{"name":"stamp","type":"string","value":"tree_round_small"}]},{"id":351,"name":"","type":"","rotation":0,"point":true,"visible":true,"x":568.0,"y":800.0,"width":0,"height":0,"properties":[{"name":"kind","type":"string","value":"tree"},{"name":"stamp","type":"string","value":"tree_round_small"}]},{"id":352,"name":"","type":"","rotation":0,"point":true,"visible":true,"x":600.0,"y":800.0,"width":0,"height":0,"properties":[{"name":"kind","type":"string","value":"tree"},{"name":"stamp","type":"string","value":"tree_round_small"}]},{"id":353,"name":"","type":"","rotation":0,"point":true,"visible":true,"x":632.0,"y":800.0,"width":0,"height":0,"properties":[{"name":"kind","type":"string","value":"tree"},{"name":"stamp","type":"string","value":"tree_round_small"}]},{"id":354,"name":"","type":"","rotation":0,"point":true,"visible":true,"x":664.0,"y":800.0,"width":0,"height":0,"properties":[{"name":"kind","type":"string","value":"tree"},{"name":"stamp","type":"string","value":"tree_round_small"}]},{"id":355,"name":"","type":"","rotation":0,"point":true,"visible":true,"x":696.0,"y":800.0,"width":0,"height":0,"properties":[{"name":"kind","type":"string","value":"tree"},{"name":"stamp","type":"string","value":"tree_round_small"}]},{"id":356,"name":"","type":"","rotation":0,"point":true,"visible":true,"x":728.0,"y":800.0,"width":0,"height":0,"properties":[{"name":"kind","type":"string","value":"tree"},{"name":"stamp","type":"string","value":"tree_round_small"}]},{"id":357,"name":"","type":"","rotation":0,"point":true,"visible":true,"x":760.0,"y":800.0,"width":0,"height":0,"properties":[{"name":"kind","type":"string","value":"tree"},{"name":"stamp","type":"string","value":"tree_round_small"}]},{"id":358,"name":"","type":"","rotation":0,"point":true,"visible":true,"x":792.0,"y":800.0,"width":0,"height":0,"properties":[{"name":"kind","type":"string","value":"tree"},{"name":"stamp","type":"string","value":"tree_round_small"}]},{"id":359,"name":"","type":"","rotation":0,"point":true,"visible":true,"x":856.0,"y":800.0,"width":0,"height":0,"properties":[{"name":"kind","type":"string","value":"tree"},{"name":"stamp","type":"string","value":"tree_round_small"}]},{"id":360,"name":"","type":"","rotation":0,"point":true,"visible":true,"x":888.0,"y":800.0,"width":0,"height":0,"properties":[{"name":"kind","type":"string","value":"tree"},{"name":"stamp","type":"string","value":"tree_round_small"}]},{"id":361,"name":"","type":"","rotation":0,"point":true,"visible":true,"x":952.0,"y":800.0,"width":0,"height":0,"properties":[{"name":"kind","type":"string","value":"tree"},{"name":"stamp","type":"string","value":"tree_round_small"}]},{"id":362,"name":"","type":"","rotation":0,"point":true,"visible":true,"x":984.0,"y":800.0,"width":0,"height":0,"properties":[{"name":"kind","type":"string","value":"tree"},{"name":"stamp","type":"string","value":"tree_dark"}]},{"id":363,"name":"","type":"","rotation":0,"point":true,"visible":true,"x":1016.0,"y":800.0,"width":0,"height":0,"properties":[{"name":"kind","type":"string","value":"tree"},{"name":"stamp","type":"string","value":"tree_round_small"}]},{"id":364,"name":"","type":"","rotation":0,"point":true,"visible":true,"x":1048.0,"y":800.0,"width":0,"height":0,"properties":[{"name":"kind","type":"string","value":"tree"},{"name":"stamp","type":"string","value":"tree_round_small"}]},{"id":365,"name":"","type":"","rotation":0,"point":true,"visible":true,"x":1080.0,"y":800.0,"width":0,"height":0,"properties":[{"name":"kind","type":"string","value":"tree"},{"name":"stamp","type":"string","value":"tree_round_small"}]},{"id":366,"name":"","type":"","rotation":0,"point":true,"visible":true,"x":1112.0,"y":800.0,"width":0,"height":0,"properties":[{"name":"kind","type":"string","value":"tree"},{"name":"stamp","type":"string","value":"tree_round_small"}]},{"id":367,"name":"","type":"","rotation":0,"point":true,"visible":true,"x":1144.0,"y":800.0,"width":0,"height":0,"properties":[{"name":"kind","type":"string","value":"tree"},{"name":"stamp","type":"string","value":"tree_round_small"}]},{"id":368,"name":"","type":"","rotation":0,"point":true,"visible":true,"x":1176.0,"y":800.0,"width":0,"height":0,"properties":[{"name":"kind","type":"string","value":"tree"},{"name":"stamp","type":"string","value":"tree_round_small"}]},{"id":369,"name":"","type":"","rotation":0,"point":true,"visible":true,"x":1176.0,"y":64.0,"width":0,"height":0,"properties":[{"name":"kind","type":"string","value":"tree"},{"name":"stamp","type":"string","value":"tree_round_small"}]},{"id":370,"name":"","type":"","rotation":0,"point":true,"visible":true,"x":24.0,"y":128.0,"width":0,"height":0,"properties":[{"name":"kind","type":"string","value":"tree"},{"name":"stamp","type":"string","value":"tree_round_small"}]},{"id":371,"name":"","type":"","rotation":0,"point":true,"visible":true,"x":1176.0,"y":128.0,"width":0,"height":0,"properties":[{"name":"kind","type":"string","value":"tree"},{"name":"stamp","type":"string","value":"tree_round_small"}]},{"id":372,"name":"","type":"","rotation":0,"point":true,"visible":true,"x":24.0,"y":160.0,"width":0,"height":0,"properties":[{"name":"kind","type":"string","value":"tree"},{"name":"stamp","type":"string","value":"tree_round_small"}]},{"id":373,"name":"","type":"","rotation":0,"point":true,"visible":true,"x":1176.0,"y":160.0,"width":0,"height":0,"properties":[{"name":"kind","type":"string","value":"tree"},{"name":"stamp","type":"string","value":"tree_round_small"}]},{"id":374,"name":"","type":"","rotation":0,"point":true,"visible":true,"x":24.0,"y":192.0,"width":0,"height":0,"properties":[{"name":"kind","type":"string","value":"tree"},{"name":"stamp","type":"string","value":"tree_round_small"}]},{"id":375,"name":"","type":"","rotation":0,"point":true,"visible":true,"x":1176.0,"y":192.0,"width":0,"height":0,"properties":[{"name":"kind","type":"string","value":"tree"},{"name":"stamp","type":"string","value":"tree_round_small"}]},{"id":376,"name":"","type":"","rotation":0,"point":true,"visible":true,"x":24.0,"y":224.0,"width":0,"height":0,"properties":[{"name":"kind","type":"string","value":"tree"},{"name":"stamp","type":"string","value":"tree_round_small"}]},{"id":377,"name":"","type":"","rotation":0,"point":true,"visible":true,"x":24.0,"y":256.0,"width":0,"height":0,"properties":[{"name":"kind","type":"string","value":"tree"},{"name":"stamp","type":"string","value":"tree_round_small"}]},{"id":378,"name":"","type":"","rotation":0,"point":true,"visible":true,"x":24.0,"y":288.0,"width":0,"height":0,"properties":[{"name":"kind","type":"string","value":"tree"},{"name":"stamp","type":"string","value":"tree_round_small"}]},{"id":379,"name":"","type":"","rotation":0,"point":true,"visible":true,"x":24.0,"y":320.0,"width":0,"height":0,"properties":[{"name":"kind","type":"string","value":"tree"},{"name":"stamp","type":"string","value":"tree_round_small"}]},{"id":380,"name":"","type":"","rotation":0,"point":true,"visible":true,"x":24.0,"y":352.0,"width":0,"height":0,"properties":[{"name":"kind","type":"string","value":"tree"},{"name":"stamp","type":"string","value":"tree_round_small"}]},{"id":381,"name":"","type":"","rotation":0,"point":true,"visible":true,"x":24.0,"y":480.0,"width":0,"height":0,"properties":[{"name":"kind","type":"string","value":"tree"},{"name":"stamp","type":"string","value":"tree_round_small"}]},{"id":382,"name":"","type":"","rotation":0,"point":true,"visible":true,"x":1176.0,"y":480.0,"width":0,"height":0,"properties":[{"name":"kind","type":"string","value":"tree"},{"name":"stamp","type":"string","value":"tree_round_small"}]},{"id":383,"name":"","type":"","rotation":0,"point":true,"visible":true,"x":24.0,"y":512.0,"width":0,"height":0,"properties":[{"name":"kind","type":"string","value":"tree"},{"name":"stamp","type":"string","value":"tree_round_small"}]},{"id":384,"name":"","type":"","rotation":0,"point":true,"visible":true,"x":1176.0,"y":512.0,"width":0,"height":0,"properties":[{"name":"kind","type":"string","value":"tree"},{"name":"stamp","type":"string","value":"tree_round_small"}]},{"id":385,"name":"","type":"","rotation":0,"point":true,"visible":true,"x":24.0,"y":544.0,"width":0,"height":0,"properties":[{"name":"kind","type":"string","value":"tree"},{"name":"stamp","type":"string","value":"tree_round_small"}]},{"id":386,"name":"","type":"","rotation":0,"point":true,"visible":true,"x":1176.0,"y":576.0,"width":0,"height":0,"properties":[{"name":"kind","type":"string","value":"tree"},{"name":"stamp","type":"string","value":"tree_round_small"}]},{"id":387,"name":"","type":"","rotation":0,"point":true,"visible":true,"x":1176.0,"y":608.0,"width":0,"height":0,"properties":[{"name":"kind","type":"string","value":"tree"},{"name":"stamp","type":"string","value":"tree_round_small"}]},{"id":388,"name":"","type":"","rotation":0,"point":true,"visible":true,"x":1176.0,"y":640.0,"width":0,"height":0,"properties":[{"name":"kind","type":"string","value":"tree"},{"name":"stamp","type":"string","value":"tree_round_small"}]},{"id":389,"name":"","type":"","rotation":0,"point":true,"visible":true,"x":24.0,"y":672.0,"width":0,"height":0,"properties":[{"name":"kind","type":"string","value":"tree"},{"name":"stamp","type":"string","value":"tree_round_small"}]},{"id":390,"name":"","type":"","rotation":0,"point":true,"visible":true,"x":1176.0,"y":672.0,"width":0,"height":0,"properties":[{"name":"kind","type":"string","value":"tree"},{"name":"stamp","type":"string","value":"tree_round_small"}]},{"id":391,"name":"","type":"","rotation":0,"point":true,"visible":true,"x":24.0,"y":704.0,"width":0,"height":0,"properties":[{"name":"kind","type":"string","value":"tree"},{"name":"stamp","type":"string","value":"tree_dark"}]},{"id":392,"name":"","type":"","rotation":0,"point":true,"visible":true,"x":1176.0,"y":704.0,"width":0,"height":0,"properties":[{"name":"kind","type":"string","value":"tree"},{"name":"stamp","type":"string","value":"tree_round_small"}]},{"id":393,"name":"","type":"","rotation":0,"point":true,"visible":true,"x":1176.0,"y":736.0,"width":0,"height":0,"properties":[{"name":"kind","type":"string","value":"tree"},{"name":"stamp","type":"string","value":"tree_round_small"}]},{"id":394,"name":"","type":"","rotation":0,"point":true,"visible":true,"x":1176.0,"y":768.0,"width":0,"height":0,"properties":[{"name":"kind","type":"string","value":"tree"},{"name":"stamp","type":"string","value":"tree_round_small"}]},{"id":395,"name":"TO CHESTER","type":"","rotation":0,"point":true,"visible":true,"x":72.0,"y":464.0,"width":0,"height":0,"properties":[{"name":"kind","type":"string","value":"roadsign"},{"name":"text","type":"string","value":"TO CHESTER"}]},{"id":396,"name":"TO DOVER","type":"","rotation":0,"point":true,"visible":true,"x":1160.0,"y":464.0,"width":0,"height":0,"properties":[{"name":"kind","type":"string","value":"roadsign"},{"name":"text","type":"string","value":"TO DOVER"}]},{"id":397,"name":"TO RT 10","type":"","rotation":0,"point":true,"visible":true,"x":680.0,"y":48.0,"width":0,"height":0,"properties":[{"name":"kind","type":"string","value":"roadsign"},{"name":"text","type":"string","value":"TO RT 10"}]},{"id":398,"name":"Main Road","type":"","rotation":0,"point":true,"visible":true,"x":592.0,"y":416.0,"width":0,"height":0,"properties":[{"name":"kind","type":"string","value":"label"},{"name":"text","type":"string","value":"Main Road"}]},{"id":399,"name":"Town Hall","type":"","rotation":0,"point":true,"visible":true,"x":568.0,"y":248.0,"width":0,"height":0,"properties":[{"name":"kind","type":"string","value":"label"},{"name":"text","type":"string","value":"Town Hall"}]},{"id":400,"name":"High School","type":"","rotation":0,"point":true,"visible":true,"x":888.0,"y":240.0,"width":0,"height":0,"properties":[{"name":"kind","type":"string","value":"label"},{"name":"text","type":"string","value":"High School"}]},{"id":401,"name":"Commercial Strip","type":"","rotation":0,"point":true,"visible":true,"x":400.0,"y":320.0,"width":0,"height":0,"properties":[{"name":"kind","type":"string","value":"label"},{"name":"text","type":"string","value":"Commercial Strip"}]},{"id":402,"name":"Sports Fields","type":"","rotation":0,"point":true,"visible":true,"x":288.0,"y":616.0,"width":0,"height":0,"properties":[{"name":"kind","type":"string","value":"label"},{"name":"text","type":"string","value":"Sports Fields"}]},{"id":403,"name":"Hedden Park","type":"","rotation":0,"point":true,"visible":true,"x":840.0,"y":608.0,"width":0,"height":0,"properties":[{"name":"kind","type":"string","value":"label"},{"name":"text","type":"string","value":"Hedden Park"}]},{"id":404,"name":"Church","type":"","rotation":0,"point":true,"visible":true,"x":992.0,"y":352.0,"width":0,"height":0,"properties":[{"name":"kind","type":"string","value":"label"},{"name":"text","type":"string","value":"Church"}]},{"id":405,"name":"Randolph Diner","type":"","rotation":0,"point":true,"visible":true,"x":192.0,"y":336.0,"width":0,"height":0,"properties":[{"name":"kind","type":"string","value":"label"},{"name":"text","type":"string","value":"Randolph Diner"}]},{"id":406,"name":"Residential Cul-de-sacs","type":"","rotation":0,"point":true,"visible":true,"x":680.0,"y":592.0,"width":0,"height":0,"properties":[{"name":"kind","type":"string","value":"label"},{"name":"text","type":"string","value":"Residential Cul-de-sacs"}]},{"id":407,"name":"","type":"","rotation":0,"point":true,"visible":true,"x":1096.0,"y":368.0,"width":0,"height":0,"properties":[{"name":"home","type":"string","value":"Residential Cul-de-sacs"},{"name":"kind","type":"string","value":"yardsign"},{"name":"seat","type":"string","value":"0"}]},{"id":408,"name":"","type":"","rotation":0,"point":true,"visible":true,"x":1096.0,"y":352.0,"width":0,"height":0,"properties":[{"name":"home","type":"string","value":"Residential Cul-de-sacs"},{"name":"kind","type":"string","value":"yardsign"},{"name":"seat","type":"string","value":"1"}]},{"id":409,"name":"","type":"","rotation":0,"point":true,"visible":true,"x":536.0,"y":576.0,"width":0,"height":0,"properties":[{"name":"home","type":"string","value":"Residential Cul-de-sacs"},{"name":"kind","type":"string","value":"yardsign"},{"name":"seat","type":"string","value":"2"}]},{"id":410,"name":"","type":"","rotation":0,"point":true,"visible":true,"x":536.0,"y":560.0,"width":0,"height":0,"properties":[{"name":"home","type":"string","value":"Residential Cul-de-sacs"},{"name":"kind","type":"string","value":"yardsign"},{"name":"seat","type":"string","value":"3"}]},{"id":411,"name":"","type":"","rotation":0,"point":true,"visible":true,"x":568.0,"y":576.0,"width":0,"height":0,"properties":[{"name":"home","type":"string","value":"Residential Cul-de-sacs"},{"name":"kind","type":"string","value":"yardsign"},{"name":"seat","type":"string","value":"4"}]},{"id":412,"name":"","type":"","rotation":0,"point":true,"visible":true,"x":568.0,"y":560.0,"width":0,"height":0,"properties":[{"name":"home","type":"string","value":"Residential Cul-de-sacs"},{"name":"kind","type":"string","value":"yardsign"},{"name":"seat","type":"string","value":"5"}]},{"id":413,"name":"","type":"","rotation":0,"point":true,"visible":true,"x":536.0,"y":736.0,"width":0,"height":0,"properties":[{"name":"home","type":"string","value":"Residential Cul-de-sacs"},{"name":"kind","type":"string","value":"yardsign"},{"name":"seat","type":"string","value":"6"}]},{"id":414,"name":"","type":"","rotation":0,"point":true,"visible":true,"x":536.0,"y":720.0,"width":0,"height":0,"properties":[{"name":"home","type":"string","value":"Residential Cul-de-sacs"},{"name":"kind","type":"string","value":"yardsign"},{"name":"seat","type":"string","value":"7"}]},{"id":415,"name":"","type":"","rotation":0,"point":true,"visible":true,"x":536.0,"y":736.0,"width":0,"height":0,"properties":[{"name":"home","type":"string","value":"Residential Cul-de-sacs"},{"name":"kind","type":"string","value":"yardsign"},{"name":"seat","type":"string","value":"8"}]},{"id":416,"name":"","type":"","rotation":0,"point":true,"visible":true,"x":536.0,"y":720.0,"width":0,"height":0,"properties":[{"name":"home","type":"string","value":"Residential Cul-de-sacs"},{"name":"kind","type":"string","value":"yardsign"},{"name":"seat","type":"string","value":"9"}]},{"id":417,"name":"","type":"","rotation":0,"point":true,"visible":true,"x":1032.0,"y":160.0,"width":0,"height":0,"properties":[{"name":"home","type":"string","value":""},{"name":"kind","type":"string","value":"yardsign"},{"name":"seat","type":"string","value":"10"}]},{"id":418,"name":"","type":"","rotation":0,"point":true,"visible":true,"x":1032.0,"y":144.0,"width":0,"height":0,"properties":[{"name":"home","type":"string","value":""},{"name":"kind","type":"string","value":"yardsign"},{"name":"seat","type":"string","value":"11"}]},{"id":419,"name":"","type":"","rotation":0,"point":true,"visible":true,"x":1032.0,"y":160.0,"width":0,"height":0,"properties":[{"name":"home","type":"string","value":""},{"name":"kind","type":"string","value":"yardsign"},{"name":"seat","type":"string","value":"12"}]},{"id":420,"name":"","type":"","rotation":0,"point":true,"visible":true,"x":1144.0,"y":160.0,"width":0,"height":0,"properties":[{"name":"home","type":"string","value":""},{"name":"kind","type":"string","value":"yardsign"},{"name":"seat","type":"string","value":"13"}]},{"id":421,"name":"","type":"","rotation":0,"point":true,"visible":true,"x":1128.0,"y":576.0,"width":0,"height":0,"properties":[{"name":"home","type":"string","value":""},{"name":"kind","type":"string","value":"yardsign"},{"name":"seat","type":"string","value":"14"}]},{"id":422,"name":"","type":"","rotation":0,"point":true,"visible":true,"x":1016.0,"y":560.0,"width":0,"height":0,"properties":[{"name":"home","type":"string","value":""},{"name":"kind","type":"string","value":"yardsign"},{"name":"seat","type":"string","value":"15"}]},{"id":423,"name":"","type":"","rotation":0,"point":true,"visible":true,"x":1064.0,"y":704.0,"width":0,"height":0,"properties":[{"name":"home","type":"string","value":""},{"name":"kind","type":"string","value":"yardsign"},{"name":"seat","type":"string","value":"16"}]},{"id":424,"name":"","type":"","rotation":0,"point":true,"visible":true,"x":1064.0,"y":688.0,"width":0,"height":0,"properties":[{"name":"home","type":"string","value":""},{"name":"kind","type":"string","value":"yardsign"},{"name":"seat","type":"string","value":"17"}]},{"id":425,"name":"","type":"","rotation":0,"point":true,"visible":true,"x":248.0,"y":144.0,"width":0,"height":0,"properties":[{"name":"home","type":"string","value":""},{"name":"kind","type":"string","value":"yardsign"},{"name":"seat","type":"string","value":"18"}]},{"id":426,"name":"","type":"","rotation":0,"point":true,"visible":true,"x":360.0,"y":144.0,"width":0,"height":0,"properties":[{"name":"home","type":"string","value":""},{"name":"kind","type":"string","value":"yardsign"},{"name":"seat","type":"string","value":"19"}]},{"id":427,"name":"Town Hall","type":"","rotation":0,"point":true,"visible":true,"x":560.0,"y":272.0,"width":0,"height":0,"properties":[{"name":"kind","type":"string","value":"pollplace"}]},{"id":428,"name":"Town Hall","type":"","rotation":0,"point":true,"visible":true,"x":536.0,"y":208.0,"width":0,"height":0,"properties":[{"name":"kind","type":"string","value":"banner"},{"name":"mount","type":"string","value":"facade"}]},{"id":429,"name":"Town Hall","type":"","rotation":0,"point":true,"visible":true,"x":584.0,"y":208.0,"width":0,"height":0,"properties":[{"name":"kind","type":"string","value":"banner"},{"name":"mount","type":"string","value":"facade"}]},{"id":430,"name":"Town Hall","type":"","rotation":0,"point":true,"visible":true,"x":568.0,"y":192.0,"width":0,"height":0,"properties":[{"name":"kind","type":"string","value":"bunting"},{"name":"span","type":"string","value":"9"}]},{"id":431,"name":"Sports Fields","type":"","rotation":0,"point":true,"visible":true,"x":296.0,"y":656.0,"width":0,"height":0,"properties":[{"name":"kind","type":"string","value":"brazier"}]},{"id":432,"name":"Randolph Diner","type":"","rotation":0,"point":true,"visible":true,"x":168.0,"y":509.6,"width":0,"height":0,"properties":[{"name":"cap","type":"string","value":"1"},{"name":"facing","type":"string","value":"up"},{"name":"kind","type":"string","value":"spot"},{"name":"order","type":"string","value":"0"},{"name":"role","type":"string","value":"bench"}]},{"id":433,"name":"Randolph Diner","type":"","rotation":0,"point":true,"visible":true,"x":152.0,"y":349.6,"width":0,"height":0,"properties":[{"name":"cap","type":"string","value":"1"},{"name":"facing","type":"string","value":"up"},{"name":"kind","type":"string","value":"spot"},{"name":"order","type":"string","value":"1"},{"name":"role","type":"string","value":"table"}]},{"id":434,"name":"Randolph Diner","type":"","rotation":0,"point":true,"visible":true,"x":184.0,"y":381.6,"width":0,"height":0,"properties":[{"name":"cap","type":"string","value":"1"},{"name":"facing","type":"string","value":"up"},{"name":"kind","type":"string","value":"spot"},{"name":"order","type":"string","value":"2"},{"name":"role","type":"string","value":"table"}]},{"id":435,"name":"Commercial Strip","type":"","rotation":0,"point":true,"visible":true,"x":440.0,"y":349.6,"width":0,"height":0,"properties":[{"name":"cap","type":"string","value":"1"},{"name":"facing","type":"string","value":"down"},{"name":"kind","type":"string","value":"spot"},{"name":"order","type":"string","value":"0"},{"name":"role","type":"string","value":"bench"}]},{"id":436,"name":"High School","type":"","rotation":0,"point":true,"visible":true,"x":792.0,"y":141.6,"width":0,"height":0,"properties":[{"name":"cap","type":"string","value":"1"},{"name":"facing","type":"string","value":"down"},{"name":"kind","type":"string","value":"spot"},{"name":"order","type":"string","value":"0"},{"name":"role","type":"string","value":"bench"}]},{"id":437,"name":"High School","type":"","rotation":0,"point":true,"visible":true,"x":824.0,"y":141.6,"width":0,"height":0,"properties":[{"name":"cap","type":"string","value":"1"},{"name":"facing","type":"string","value":"down"},{"name":"kind","type":"string","value":"spot"},{"name":"order","type":"string","value":"1"},{"name":"role","type":"string","value":"bench"}]},{"id":438,"name":"High School","type":"","rotation":0,"point":true,"visible":true,"x":840.0,"y":141.6,"width":0,"height":0,"properties":[{"name":"cap","type":"string","value":"1"},{"name":"facing","type":"string","value":"down"},{"name":"kind","type":"string","value":"spot"},{"name":"order","type":"string","value":"2"},{"name":"role","type":"string","value":"bench"}]},{"id":439,"name":"High School","type":"","rotation":0,"point":true,"visible":true,"x":872.0,"y":141.6,"width":0,"height":0,"properties":[{"name":"cap","type":"string","value":"1"},{"name":"facing","type":"string","value":"down"},{"name":"kind","type":"string","value":"spot"},{"name":"order","type":"string","value":"3"},{"name":"role","type":"string","value":"bench"}]},{"id":440,"name":"Hedden Park","type":"","rotation":0,"point":true,"visible":true,"x":808.0,"y":701.6,"width":0,"height":0,"properties":[{"name":"cap","type":"string","value":"1"},{"name":"facing","type":"string","value":"down"},{"name":"kind","type":"string","value":"spot"},{"name":"order","type":"string","value":"0"},{"name":"role","type":"string","value":"bench"}]},{"id":441,"name":"Hedden Park","type":"","rotation":0,"point":true,"visible":true,"x":840.0,"y":701.6,"width":0,"height":0,"properties":[{"name":"cap","type":"string","value":"1"},{"name":"facing","type":"string","value":"down"},{"name":"kind","type":"string","value":"spot"},{"name":"order","type":"string","value":"1"},{"name":"role","type":"string","value":"bench"}]},{"id":442,"name":"Randolph Diner","type":"","rotation":0,"point":true,"visible":true,"x":88.0,"y":381.6,"width":0,"height":0,"properties":[{"name":"cap","type":"string","value":"1"},{"name":"facing","type":"string","value":"up"},{"name":"kind","type":"string","value":"spot"},{"name":"order","type":"string","value":"3"},{"name":"role","type":"string","value":"door"}]},{"id":443,"name":"Commercial Strip","type":"","rotation":0,"point":true,"visible":true,"x":496.0,"y":381.6,"width":0,"height":0,"properties":[{"name":"cap","type":"string","value":"1"},{"name":"facing","type":"string","value":"up"},{"name":"kind","type":"string","value":"spot"},{"name":"order","type":"string","value":"1"},{"name":"role","type":"string","value":"door"}]},{"id":444,"name":"Commercial Strip","type":"","rotation":0,"point":true,"visible":true,"x":624.0,"y":381.6,"width":0,"height":0,"properties":[{"name":"cap","type":"string","value":"1"},{"name":"facing","type":"string","value":"up"},{"name":"kind","type":"string","value":"spot"},{"name":"order","type":"string","value":"2"},{"name":"role","type":"string","value":"door"}]},{"id":445,"name":"Town Hall","type":"","rotation":0,"point":true,"visible":true,"x":560.0,"y":269.6,"width":0,"height":0,"properties":[{"name":"cap","type":"string","value":"1"},{"name":"facing","type":"string","value":"up"},{"name":"kind","type":"string","value":"spot"},{"name":"order","type":"string","value":"4"},{"name":"role","type":"string","value":"door"}]},{"id":446,"name":"High School","type":"","rotation":0,"point":true,"visible":true,"x":832.0,"y":317.6,"width":0,"height":0,"properties":[{"name":"cap","type":"string","value":"1"},{"name":"facing","type":"string","value":"up"},{"name":"kind","type":"string","value":"spot"},{"name":"order","type":"string","value":"4"},{"name":"role","type":"string","value":"door"}]},{"id":447,"name":"Church","type":"","rotation":0,"point":true,"visible":true,"x":992.0,"y":381.6,"width":0,"height":0,"properties":[{"name":"cap","type":"string","value":"1"},{"name":"facing","type":"string","value":"up"},{"name":"kind","type":"string","value":"spot"},{"name":"order","type":"string","value":"0"},{"name":"role","type":"string","value":"door"}]},{"id":448,"name":"Residential Cul-de-sacs","type":"","rotation":0,"point":true,"visible":true,"x":1136.0,"y":381.6,"width":0,"height":0,"properties":[{"name":"cap","type":"string","value":"1"},{"name":"facing","type":"string","value":"up"},{"name":"kind","type":"string","value":"spot"},{"name":"order","type":"string","value":"0"},{"name":"role","type":"string","value":"door"}]},{"id":449,"name":"Residential Cul-de-sacs","type":"","rotation":0,"point":true,"visible":true,"x":480.0,"y":589.6,"width":0,"height":0,"properties":[{"name":"cap","type":"string","value":"1"},{"name":"facing","type":"string","value":"up"},{"name":"kind","type":"string","value":"spot"},{"name":"order","type":"string","value":"1"},{"name":"role","type":"string","value":"door"}]},{"id":450,"name":"Residential Cul-de-sacs","type":"","rotation":0,"point":true,"visible":true,"x":624.0,"y":589.6,"width":0,"height":0,"properties":[{"name":"cap","type":"string","value":"1"},{"name":"facing","type":"string","value":"up"},{"name":"kind","type":"string","value":"spot"},{"name":"order","type":"string","value":"2"},{"name":"role","type":"string","value":"door"}]},{"id":451,"name":"Residential Cul-de-sacs","type":"","rotation":0,"point":true,"visible":true,"x":800.0,"y":589.6,"width":0,"height":0,"properties":[{"name":"cap","type":"string","value":"1"},{"name":"facing","type":"string","value":"up"},{"name":"kind","type":"string","value":"spot"},{"name":"order","type":"string","value":"3"},{"name":"role","type":"string","value":"door"}]},{"id":452,"name":"Residential Cul-de-sacs","type":"","rotation":0,"point":true,"visible":true,"x":480.0,"y":749.6,"width":0,"height":0,"properties":[{"name":"cap","type":"string","value":"1"},{"name":"facing","type":"string","value":"up"},{"name":"kind","type":"string","value":"spot"},{"name":"order","type":"string","value":"4"},{"name":"role","type":"string","value":"door"}]},{"id":453,"name":"Residential Cul-de-sacs","type":"","rotation":0,"point":true,"visible":true,"x":592.0,"y":749.6,"width":0,"height":0,"properties":[{"name":"cap","type":"string","value":"1"},{"name":"facing","type":"string","value":"up"},{"name":"kind","type":"string","value":"spot"},{"name":"order","type":"string","value":"5"},{"name":"role","type":"string","value":"door"}]},{"id":454,"name":"Randolph Diner","type":"","rotation":0,"point":true,"visible":true,"x":64.0,"y":381.6,"width":0,"height":0,"properties":[{"name":"cap","type":"string","value":"1"},{"name":"facing","type":"string","value":"down"},{"name":"kind","type":"string","value":"spot"},{"name":"order","type":"string","value":"4"},{"name":"role","type":"string","value":"porch"}]},{"id":455,"name":"Randolph Diner","type":"","rotation":0,"point":true,"visible":true,"x":112.0,"y":381.6,"width":0,"height":0,"properties":[{"name":"cap","type":"string","value":"1"},{"name":"facing","type":"string","value":"down"},{"name":"kind","type":"string","value":"spot"},{"name":"order","type":"string","value":"5"},{"name":"role","type":"string","value":"porch"}]},{"id":456,"name":"Commercial Strip","type":"","rotation":0,"point":true,"visible":true,"x":464.0,"y":381.6,"width":0,"height":0,"properties":[{"name":"cap","type":"string","value":"1"},{"name":"facing","type":"string","value":"down"},{"name":"kind","type":"string","value":"spot"},{"name":"order","type":"string","value":"3"},{"name":"role","type":"string","value":"porch"}]},{"id":457,"name":"Commercial Strip","type":"","rotation":0,"point":true,"visible":true,"x":528.0,"y":381.6,"width":0,"height":0,"properties":[{"name":"cap","type":"string","value":"1"},{"name":"facing","type":"string","value":"down"},{"name":"kind","type":"string","value":"spot"},{"name":"order","type":"string","value":"4"},{"name":"role","type":"string","value":"porch"}]},{"id":458,"name":"Commercial Strip","type":"","rotation":0,"point":true,"visible":true,"x":560.0,"y":381.6,"width":0,"height":0,"properties":[{"name":"cap","type":"string","value":"1"},{"name":"facing","type":"string","value":"down"},{"name":"kind","type":"string","value":"spot"},{"name":"order","type":"string","value":"5"},{"name":"role","type":"string","value":"porch"}]},{"id":459,"name":"High School","type":"","rotation":0,"point":true,"visible":true,"x":800.0,"y":317.6,"width":0,"height":0,"properties":[{"name":"cap","type":"string","value":"1"},{"name":"facing","type":"string","value":"down"},{"name":"kind","type":"string","value":"spot"},{"name":"order","type":"string","value":"5"},{"name":"role","type":"string","value":"porch"}]},{"id":460,"name":"High School","type":"","rotation":0,"point":true,"visible":true,"x":864.0,"y":317.6,"width":0,"height":0,"properties":[{"name":"cap","type":"string","value":"1"},{"name":"facing","type":"string","value":"down"},{"name":"kind","type":"string","value":"spot"},{"name":"order","type":"string","value":"6"},{"name":"role","type":"string","value":"porch"}]},{"id":461,"name":"Church","type":"","rotation":0,"point":true,"visible":true,"x":928.0,"y":381.6,"width":0,"height":0,"properties":[{"name":"cap","type":"string","value":"1"},{"name":"facing","type":"string","value":"down"},{"name":"kind","type":"string","value":"spot"},{"name":"order","type":"string","value":"1"},{"name":"role","type":"string","value":"porch"}]},{"id":462,"name":"Church","type":"","rotation":0,"point":true,"visible":true,"x":1056.0,"y":381.6,"width":0,"height":0,"properties":[{"name":"cap","type":"string","value":"1"},{"name":"facing","type":"string","value":"down"},{"name":"kind","type":"string","value":"spot"},{"name":"order","type":"string","value":"2"},{"name":"role","type":"string","value":"porch"}]},{"id":463,"name":"Residential Cul-de-sacs","type":"","rotation":0,"point":true,"visible":true,"x":1104.0,"y":381.6,"width":0,"height":0,"properties":[{"name":"cap","type":"string","value":"1"},{"name":"facing","type":"string","value":"down"},{"name":"kind","type":"string","value":"spot"},{"name":"order","type":"string","value":"6"},{"name":"role","type":"string","value":"porch"}]},{"id":464,"name":"Residential Cul-de-sacs","type":"","rotation":0,"point":true,"visible":true,"x":448.0,"y":589.6,"width":0,"height":0,"properties":[{"name":"cap","type":"string","value":"1"},{"name":"facing","type":"string","value":"down"},{"name":"kind","type":"string","value":"spot"},{"name":"order","type":"string","value":"7"},{"name":"role","type":"string","value":"porch"}]},{"id":465,"name":"Residential Cul-de-sacs","type":"","rotation":0,"point":true,"visible":true,"x":512.0,"y":589.6,"width":0,"height":0,"properties":[{"name":"cap","type":"string","value":"1"},{"name":"facing","type":"string","value":"down"},{"name":"kind","type":"string","value":"spot"},{"name":"order","type":"string","value":"8"},{"name":"role","type":"string","value":"porch"}]},{"id":466,"name":"Residential Cul-de-sacs","type":"","rotation":0,"point":true,"visible":true,"x":592.0,"y":589.6,"width":0,"height":0,"properties":[{"name":"cap","type":"string","value":"1"},{"name":"facing","type":"string","value":"down"},{"name":"kind","type":"string","value":"spot"},{"name":"order","type":"string","value":"9"},{"name":"role","type":"string","value":"porch"}]},{"id":467,"name":"Residential Cul-de-sacs","type":"","rotation":0,"point":true,"visible":true,"x":832.0,"y":589.6,"width":0,"height":0,"properties":[{"name":"cap","type":"string","value":"1"},{"name":"facing","type":"string","value":"down"},{"name":"kind","type":"string","value":"spot"},{"name":"order","type":"string","value":"10"},{"name":"role","type":"string","value":"porch"}]},{"id":468,"name":"Residential Cul-de-sacs","type":"","rotation":0,"point":true,"visible":true,"x":448.0,"y":749.6,"width":0,"height":0,"properties":[{"name":"cap","type":"string","value":"1"},{"name":"facing","type":"string","value":"down"},{"name":"kind","type":"string","value":"spot"},{"name":"order","type":"string","value":"11"},{"name":"role","type":"string","value":"porch"}]},{"id":469,"name":"Residential Cul-de-sacs","type":"","rotation":0,"point":true,"visible":true,"x":512.0,"y":749.6,"width":0,"height":0,"properties":[{"name":"cap","type":"string","value":"1"},{"name":"facing","type":"string","value":"down"},{"name":"kind","type":"string","value":"spot"},{"name":"order","type":"string","value":"12"},{"name":"role","type":"string","value":"porch"}]},{"id":470,"name":"Residential Cul-de-sacs","type":"","rotation":0,"point":true,"visible":true,"x":560.0,"y":749.6,"width":0,"height":0,"properties":[{"name":"cap","type":"string","value":"1"},{"name":"facing","type":"string","value":"down"},{"name":"kind","type":"string","value":"spot"},{"name":"order","type":"string","value":"13"},{"name":"role","type":"string","value":"porch"}]},{"id":471,"name":"Residential Cul-de-sacs","type":"","rotation":0,"point":true,"visible":true,"x":624.0,"y":749.6,"width":0,"height":0,"properties":[{"name":"cap","type":"string","value":"1"},{"name":"facing","type":"string","value":"down"},{"name":"kind","type":"string","value":"spot"},{"name":"order","type":"string","value":"14"},{"name":"role","type":"string","value":"porch"}]},{"id":472,"name":"High School","type":"","rotation":0,"point":true,"visible":true,"x":776.0,"y":317.6,"width":0,"height":0,"properties":[{"name":"cap","type":"string","value":"1"},{"name":"facing","type":"string","value":"up"},{"name":"kind","type":"string","value":"spot"},{"name":"order","type":"string","value":"7"},{"name":"role","type":"string","value":"window"}]},{"id":473,"name":"Randolph Diner","type":"","rotation":0,"point":true,"visible":true,"x":88.0,"y":445.6,"width":0,"height":0,"properties":[{"name":"cap","type":"string","value":"1"},{"name":"facing","type":"string","value":"face"},{"name":"kind","type":"string","value":"spot"},{"name":"order","type":"string","value":"6"},{"name":"pair","type":"string","value":"Randolph Diner#0"},{"name":"role","type":"string","value":"chat"},{"name":"side","type":"string","value":"a"}]},{"id":474,"name":"Randolph Diner","type":"","rotation":0,"point":true,"visible":true,"x":120.0,"y":445.6,"width":0,"height":0,"properties":[{"name":"cap","type":"string","value":"1"},{"name":"facing","type":"string","value":"face"},{"name":"kind","type":"string","value":"spot"},{"name":"order","type":"string","value":"7"},{"name":"pair","type":"string","value":"Randolph Diner#0"},{"name":"role","type":"string","value":"chat"},{"name":"side","type":"string","value":"b"}]},{"id":475,"name":"Commercial Strip","type":"","rotation":0,"point":true,"visible":true,"x":536.0,"y":461.6,"width":0,"height":0,"properties":[{"name":"cap","type":"string","value":"1"},{"name":"facing","type":"string","value":"face"},{"name":"kind","type":"string","value":"spot"},{"name":"order","type":"string","value":"6"},{"name":"pair","type":"string","value":"Commercial Strip#0"},{"name":"role","type":"string","value":"chat"},{"name":"side","type":"string","value":"a"}]},{"id":476,"name":"Commercial Strip","type":"","rotation":0,"point":true,"visible":true,"x":568.0,"y":461.6,"width":0,"height":0,"properties":[{"name":"cap","type":"string","value":"1"},{"name":"facing","type":"string","value":"face"},{"name":"kind","type":"string","value":"spot"},{"name":"order","type":"string","value":"7"},{"name":"pair","type":"string","value":"Commercial Strip#0"},{"name":"role","type":"string","value":"chat"},{"name":"side","type":"string","value":"b"}]},{"id":477,"name":"Commercial Strip","type":"","rotation":0,"point":true,"visible":true,"x":552.0,"y":349.6,"width":0,"height":0,"properties":[{"name":"cap","type":"string","value":"1"},{"name":"facing","type":"string","value":"face"},{"name":"kind","type":"string","value":"spot"},{"name":"order","type":"string","value":"8"},{"name":"pair","type":"string","value":"Commercial Strip#1"},{"name":"role","type":"string","value":"chat"},{"name":"side","type":"string","value":"a"}]},{"id":478,"name":"Commercial Strip","type":"","rotation":0,"point":true,"visible":true,"x":584.0,"y":349.6,"width":0,"height":0,"properties":[{"name":"cap","type":"string","value":"1"},{"name":"facing","type":"string","value":"face"},{"name":"kind","type":"string","value":"spot"},{"name":"order","type":"string","value":"9"},{"name":"pair","type":"string","value":"Commercial Strip#1"},{"name":"role","type":"string","value":"chat"},{"name":"side","type":"string","value":"b"}]},{"id":479,"name":"Town Hall","type":"","rotation":0,"point":true,"visible":true,"x":552.0,"y":285.6,"width":0,"height":0,"properties":[{"name":"cap","type":"string","value":"1"},{"name":"facing","type":"string","value":"face"},{"name":"kind","type":"string","value":"spot"},{"name":"order","type":"string","value":"5"},{"name":"pair","type":"string","value":"Town Hall#0"},{"name":"role","type":"string","value":"chat"},{"name":"side","type":"string","value":"a"}]},{"id":480,"name":"Town Hall","type":"","rotation":0,"point":true,"visible":true,"x":584.0,"y":285.6,"width":0,"height":0,"properties":[{"name":"cap","type":"string","value":"1"},{"name":"facing","type":"string","value":"face"},{"name":"kind","type":"string","value":"spot"},{"name":"order","type":"string","value":"6"},{"name":"pair","type":"string","value":"Town Hall#0"},{"name":"role","type":"string","value":"chat"},{"name":"side","type":"string","value":"b"}]},{"id":481,"name":"High School","type":"","rotation":0,"point":true,"visible":true,"x":792.0,"y":349.6,"width":0,"height":0,"properties":[{"name":"cap","type":"string","value":"1"},{"name":"facing","type":"string","value":"face"},{"name":"kind","type":"string","value":"spot"},{"name":"order","type":"string","value":"8"},{"name":"pair","type":"string","value":"High School#0"},{"name":"role","type":"string","value":"chat"},{"name":"side","type":"string","value":"a"}]},{"id":482,"name":"High School","type":"","rotation":0,"point":true,"visible":true,"x":824.0,"y":349.6,"width":0,"height":0,"properties":[{"name":"cap","type":"string","value":"1"},{"name":"facing","type":"string","value":"face"},{"name":"kind","type":"string","value":"spot"},{"name":"order","type":"string","value":"9"},{"name":"pair","type":"string","value":"High School#0"},{"name":"role","type":"string","value":"chat"},{"name":"side","type":"string","value":"b"}]},{"id":483,"name":"Church","type":"","rotation":0,"point":true,"visible":true,"x":904.0,"y":461.6,"width":0,"height":0,"properties":[{"name":"cap","type":"string","value":"1"},{"name":"facing","type":"string","value":"face"},{"name":"kind","type":"string","value":"spot"},{"name":"order","type":"string","value":"3"},{"name":"pair","type":"string","value":"Church#0"},{"name":"role","type":"string","value":"chat"},{"name":"side","type":"string","value":"a"}]},{"id":484,"name":"Church","type":"","rotation":0,"point":true,"visible":true,"x":936.0,"y":461.6,"width":0,"height":0,"properties":[{"name":"cap","type":"string","value":"1"},{"name":"facing","type":"string","value":"face"},{"name":"kind","type":"string","value":"spot"},{"name":"order","type":"string","value":"4"},{"name":"pair","type":"string","value":"Church#0"},{"name":"role","type":"string","value":"chat"},{"name":"side","type":"string","value":"b"}]},{"id":485,"name":"Residential Cul-de-sacs","type":"","rotation":0,"point":true,"visible":true,"x":1096.0,"y":445.6,"width":0,"height":0,"properties":[{"name":"cap","type":"string","value":"1"},{"name":"facing","type":"string","value":"face"},{"name":"kind","type":"string","value":"spot"},{"name":"order","type":"string","value":"15"},{"name":"pair","type":"string","value":"Residential Cul-de-sacs#0"},{"name":"role","type":"string","value":"chat"},{"name":"side","type":"string","value":"a"}]},{"id":486,"name":"Residential Cul-de-sacs","type":"","rotation":0,"point":true,"visible":true,"x":1128.0,"y":445.6,"width":0,"height":0,"properties":[{"name":"cap","type":"string","value":"1"},{"name":"facing","type":"string","value":"face"},{"name":"kind","type":"string","value":"spot"},{"name":"order","type":"string","value":"16"},{"name":"pair","type":"string","value":"Residential Cul-de-sacs#0"},{"name":"role","type":"string","value":"chat"},{"name":"side","type":"string","value":"b"}]},{"id":487,"name":"Residential Cul-de-sacs","type":"","rotation":0,"point":true,"visible":true,"x":536.0,"y":541.6,"width":0,"height":0,"properties":[{"name":"cap","type":"string","value":"1"},{"name":"facing","type":"string","value":"face"},{"name":"kind","type":"string","value":"spot"},{"name":"order","type":"string","value":"17"},{"name":"pair","type":"string","value":"Residential Cul-de-sacs#1"},{"name":"role","type":"string","value":"chat"},{"name":"side","type":"string","value":"a"}]},{"id":488,"name":"Residential Cul-de-sacs","type":"","rotation":0,"point":true,"visible":true,"x":568.0,"y":541.6,"width":0,"height":0,"properties":[{"name":"cap","type":"string","value":"1"},{"name":"facing","type":"string","value":"face"},{"name":"kind","type":"string","value":"spot"},{"name":"order","type":"string","value":"18"},{"name":"pair","type":"string","value":"Residential Cul-de-sacs#1"},{"name":"role","type":"string","value":"chat"},{"name":"side","type":"string","value":"b"}]},{"id":489,"name":"Residential Cul-de-sacs","type":"","rotation":0,"point":true,"visible":true,"x":552.0,"y":605.6,"width":0,"height":0,"properties":[{"name":"cap","type":"string","value":"1"},{"name":"facing","type":"string","value":"face"},{"name":"kind","type":"string","value":"spot"},{"name":"order","type":"string","value":"19"},{"name":"pair","type":"string","value":"Residential Cul-de-sacs#2"},{"name":"role","type":"string","value":"chat"},{"name":"side","type":"string","value":"a"}]},{"id":490,"name":"Residential Cul-de-sacs","type":"","rotation":0,"point":true,"visible":true,"x":584.0,"y":605.6,"width":0,"height":0,"properties":[{"name":"cap","type":"string","value":"1"},{"name":"facing","type":"string","value":"face"},{"name":"kind","type":"string","value":"spot"},{"name":"order","type":"string","value":"20"},{"name":"pair","type":"string","value":"Residential Cul-de-sacs#2"},{"name":"role","type":"string","value":"chat"},{"name":"side","type":"string","value":"b"}]},{"id":491,"name":"Residential Cul-de-sacs","type":"","rotation":0,"point":true,"visible":true,"x":760.0,"y":621.6,"width":0,"height":0,"properties":[{"name":"cap","type":"string","value":"1"},{"name":"facing","type":"string","value":"face"},{"name":"kind","type":"string","value":"spot"},{"name":"order","type":"string","value":"21"},{"name":"pair","type":"string","value":"Residential Cul-de-sacs#3"},{"name":"role","type":"string","value":"chat"},{"name":"side","type":"string","value":"a"}]},{"id":492,"name":"Residential Cul-de-sacs","type":"","rotation":0,"point":true,"visible":true,"x":792.0,"y":621.6,"width":0,"height":0,"properties":[{"name":"cap","type":"string","value":"1"},{"name":"facing","type":"string","value":"face"},{"name":"kind","type":"string","value":"spot"},{"name":"order","type":"string","value":"22"},{"name":"pair","type":"string","value":"Residential Cul-de-sacs#3"},{"name":"role","type":"string","value":"chat"},{"name":"side","type":"string","value":"b"}]},{"id":493,"name":"Residential Cul-de-sacs","type":"","rotation":0,"point":true,"visible":true,"x":392.0,"y":749.6,"width":0,"height":0,"properties":[{"name":"cap","type":"string","value":"1"},{"name":"facing","type":"string","value":"face"},{"name":"kind","type":"string","value":"spot"},{"name":"order","type":"string","value":"23"},{"name":"pair","type":"string","value":"Residential Cul-de-sacs#4"},{"name":"role","type":"string","value":"chat"},{"name":"side","type":"string","value":"a"}]},{"id":494,"name":"Residential Cul-de-sacs","type":"","rotation":0,"point":true,"visible":true,"x":424.0,"y":749.6,"width":0,"height":0,"properties":[{"name":"cap","type":"string","value":"1"},{"name":"facing","type":"string","value":"face"},{"name":"kind","type":"string","value":"spot"},{"name":"order","type":"string","value":"24"},{"name":"pair","type":"string","value":"Residential Cul-de-sacs#4"},{"name":"role","type":"string","value":"chat"},{"name":"side","type":"string","value":"b"}]},{"id":495,"name":"Residential Cul-de-sacs","type":"","rotation":0,"point":true,"visible":true,"x":648.0,"y":685.6,"width":0,"height":0,"properties":[{"name":"cap","type":"string","value":"1"},{"name":"facing","type":"string","value":"face"},{"name":"kind","type":"string","value":"spot"},{"name":"order","type":"string","value":"25"},{"name":"pair","type":"string","value":"Residential Cul-de-sacs#5"},{"name":"role","type":"string","value":"chat"},{"name":"side","type":"string","value":"a"}]},{"id":496,"name":"Residential Cul-de-sacs","type":"","rotation":0,"point":true,"visible":true,"x":680.0,"y":685.6,"width":0,"height":0,"properties":[{"name":"cap","type":"string","value":"1"},{"name":"facing","type":"string","value":"face"},{"name":"kind","type":"string","value":"spot"},{"name":"order","type":"string","value":"26"},{"name":"pair","type":"string","value":"Residential Cul-de-sacs#5"},{"name":"role","type":"string","value":"chat"},{"name":"side","type":"string","value":"b"}]},{"id":497,"name":"Main Road","type":"","rotation":0,"point":true,"visible":true,"x":344.0,"y":477.6,"width":0,"height":0,"properties":[{"name":"cap","type":"string","value":"1"},{"name":"facing","type":"string","value":"face"},{"name":"kind","type":"string","value":"spot"},{"name":"order","type":"string","value":"0"},{"name":"pair","type":"string","value":"Main Road#0"},{"name":"role","type":"string","value":"chat"},{"name":"side","type":"string","value":"a"}]},{"id":498,"name":"Main Road","type":"","rotation":0,"point":true,"visible":true,"x":376.0,"y":477.6,"width":0,"height":0,"properties":[{"name":"cap","type":"string","value":"1"},{"name":"facing","type":"string","value":"face"},{"name":"kind","type":"string","value":"spot"},{"name":"order","type":"string","value":"1"},{"name":"pair","type":"string","value":"Main Road#0"},{"name":"role","type":"string","value":"chat"},{"name":"side","type":"string","value":"b"}]},{"id":499,"name":"Main Road","type":"","rotation":0,"point":true,"visible":true,"x":552.0,"y":365.6,"width":0,"height":0,"properties":[{"name":"cap","type":"string","value":"1"},{"name":"facing","type":"string","value":"face"},{"name":"kind","type":"string","value":"spot"},{"name":"order","type":"string","value":"2"},{"name":"pair","type":"string","value":"Main Road#1"},{"name":"role","type":"string","value":"chat"},{"name":"side","type":"string","value":"a"}]},{"id":500,"name":"Main Road","type":"","rotation":0,"point":true,"visible":true,"x":584.0,"y":365.6,"width":0,"height":0,"properties":[{"name":"cap","type":"string","value":"1"},{"name":"facing","type":"string","value":"face"},{"name":"kind","type":"string","value":"spot"},{"name":"order","type":"string","value":"3"},{"name":"pair","type":"string","value":"Main Road#1"},{"name":"role","type":"string","value":"chat"},{"name":"side","type":"string","value":"b"}]},{"id":501,"name":"Main Road","type":"","rotation":0,"point":true,"visible":true,"x":760.0,"y":381.6,"width":0,"height":0,"properties":[{"name":"cap","type":"string","value":"1"},{"name":"facing","type":"string","value":"face"},{"name":"kind","type":"string","value":"spot"},{"name":"order","type":"string","value":"4"},{"name":"pair","type":"string","value":"Main Road#2"},{"name":"role","type":"string","value":"chat"},{"name":"side","type":"string","value":"a"}]},{"id":502,"name":"Main Road","type":"","rotation":0,"point":true,"visible":true,"x":792.0,"y":381.6,"width":0,"height":0,"properties":[{"name":"cap","type":"string","value":"1"},{"name":"facing","type":"string","value":"face"},{"name":"kind","type":"string","value":"spot"},{"name":"order","type":"string","value":"5"},{"name":"pair","type":"string","value":"Main Road#2"},{"name":"role","type":"string","value":"chat"},{"name":"side","type":"string","value":"b"}]},{"id":503,"name":"Sports Fields","type":"","rotation":0,"point":true,"visible":true,"x":280.0,"y":637.6,"width":0,"height":0,"properties":[{"name":"cap","type":"string","value":"1"},{"name":"facing","type":"string","value":"face"},{"name":"kind","type":"string","value":"spot"},{"name":"order","type":"string","value":"0"},{"name":"pair","type":"string","value":"Sports Fields#0"},{"name":"role","type":"string","value":"chat"},{"name":"side","type":"string","value":"a"}]},{"id":504,"name":"Sports Fields","type":"","rotation":0,"point":true,"visible":true,"x":312.0,"y":637.6,"width":0,"height":0,"properties":[{"name":"cap","type":"string","value":"1"},{"name":"facing","type":"string","value":"face"},{"name":"kind","type":"string","value":"spot"},{"name":"order","type":"string","value":"1"},{"name":"pair","type":"string","value":"Sports Fields#0"},{"name":"role","type":"string","value":"chat"},{"name":"side","type":"string","value":"b"}]},{"id":505,"name":"Hedden Park","type":"","rotation":0,"point":true,"visible":true,"x":808.0,"y":621.6,"width":0,"height":0,"properties":[{"name":"cap","type":"string","value":"1"},{"name":"facing","type":"string","value":"face"},{"name":"kind","type":"string","value":"spot"},{"name":"order","type":"string","value":"2"},{"name":"pair","type":"string","value":"Hedden Park#0"},{"name":"role","type":"string","value":"chat"},{"name":"side","type":"string","value":"a"}]},{"id":506,"name":"Hedden Park","type":"","rotation":0,"point":true,"visible":true,"x":840.0,"y":621.6,"width":0,"height":0,"properties":[{"name":"cap","type":"string","value":"1"},{"name":"facing","type":"string","value":"face"},{"name":"kind","type":"string","value":"spot"},{"name":"order","type":"string","value":"3"},{"name":"pair","type":"string","value":"Hedden Park#0"},{"name":"role","type":"string","value":"chat"},{"name":"side","type":"string","value":"b"}]},{"id":507,"name":"Sports Fields","type":"","rotation":0,"point":true,"visible":true,"x":200.0,"y":589.6,"width":0,"height":0,"properties":[{"name":"cap","type":"string","value":"1"},{"name":"facing","type":"string","value":"down"},{"name":"kind","type":"string","value":"spot"},{"name":"order","type":"string","value":"2"},{"name":"role","type":"string","value":"lawn"}]},{"id":508,"name":"Sports Fields","type":"","rotation":0,"point":true,"visible":true,"x":312.0,"y":573.6,"width":0,"height":0,"properties":[{"name":"cap","type":"string","value":"1"},{"name":"facing","type":"string","value":"down"},{"name":"kind","type":"string","value":"spot"},{"name":"order","type":"string","value":"3"},{"name":"role","type":"string","value":"lawn"}]},{"id":509,"name":"Sports Fields","type":"","rotation":0,"point":true,"visible":true,"x":264.0,"y":669.6,"width":0,"height":0,"properties":[{"name":"cap","type":"string","value":"1"},{"name":"facing","type":"string","value":"down"},{"name":"kind","type":"string","value":"spot"},{"name":"order","type":"string","value":"4"},{"name":"role","type":"string","value":"lawn"}]},{"id":510,"name":"Sports Fields","type":"","rotation":0,"point":true,"visible":true,"x":376.0,"y":557.6,"width":0,"height":0,"properties":[{"name":"cap","type":"string","value":"1"},{"name":"facing","type":"string","value":"down"},{"name":"kind","type":"string","value":"spot"},{"name":"order","type":"string","value":"5"},{"name":"role","type":"string","value":"lawn"}]},{"id":511,"name":"Sports Fields","type":"","rotation":0,"point":true,"visible":true,"x":376.0,"y":653.6,"width":0,"height":0,"properties":[{"name":"cap","type":"string","value":"1"},{"name":"facing","type":"string","value":"down"},{"name":"kind","type":"string","value":"spot"},{"name":"order","type":"string","value":"6"},{"name":"role","type":"string","value":"lawn"}]},{"id":512,"name":"Sports Fields","type":"","rotation":0,"point":true,"visible":true,"x":328.0,"y":669.6,"width":0,"height":0,"properties":[{"name":"cap","type":"string","value":"1"},{"name":"facing","type":"string","value":"down"},{"name":"kind","type":"string","value":"spot"},{"name":"order","type":"string","value":"7"},{"name":"role","type":"string","value":"lawn"}]},{"id":513,"name":"Sports Fields","type":"","rotation":0,"point":true,"visible":true,"x":232.0,"y":589.6,"width":0,"height":0,"properties":[{"name":"cap","type":"string","value":"1"},{"name":"facing","type":"string","value":"down"},{"name":"kind","type":"string","value":"spot"},{"name":"order","type":"string","value":"8"},{"name":"role","type":"string","value":"lawn"}]},{"id":514,"name":"Sports Fields","type":"","rotation":0,"point":true,"visible":true,"x":232.0,"y":637.6,"width":0,"height":0,"properties":[{"name":"cap","type":"string","value":"1"},{"name":"facing","type":"string","value":"down"},{"name":"kind","type":"string","value":"spot"},{"name":"order","type":"string","value":"9"},{"name":"role","type":"string","value":"lawn"}]},{"id":515,"name":"Hedden Park","type":"","rotation":0,"point":true,"visible":true,"x":840.0,"y":637.6,"width":0,"height":0,"properties":[{"name":"cap","type":"string","value":"1"},{"name":"facing","type":"string","value":"down"},{"name":"kind","type":"string","value":"spot"},{"name":"order","type":"string","value":"4"},{"name":"role","type":"string","value":"lawn"}]},{"id":516,"name":"Hedden Park","type":"","rotation":0,"point":true,"visible":true,"x":888.0,"y":605.6,"width":0,"height":0,"properties":[{"name":"cap","type":"string","value":"1"},{"name":"facing","type":"string","value":"down"},{"name":"kind","type":"string","value":"spot"},{"name":"order","type":"string","value":"5"},{"name":"role","type":"string","value":"lawn"}]},{"id":517,"name":"Hedden Park","type":"","rotation":0,"point":true,"visible":true,"x":872.0,"y":557.6,"width":0,"height":0,"properties":[{"name":"cap","type":"string","value":"1"},{"name":"facing","type":"string","value":"down"},{"name":"kind","type":"string","value":"spot"},{"name":"order","type":"string","value":"6"},{"name":"role","type":"string","value":"lawn"}]},{"id":518,"name":"Hedden Park","type":"","rotation":0,"point":true,"visible":true,"x":856.0,"y":605.6,"width":0,"height":0,"properties":[{"name":"cap","type":"string","value":"1"},{"name":"facing","type":"string","value":"down"},{"name":"kind","type":"string","value":"spot"},{"name":"order","type":"string","value":"7"},{"name":"role","type":"string","value":"lawn"}]},{"id":519,"name":"Hedden Park","type":"","rotation":0,"point":true,"visible":true,"x":872.0,"y":637.6,"width":0,"height":0,"properties":[{"name":"cap","type":"string","value":"1"},{"name":"facing","type":"string","value":"down"},{"name":"kind","type":"string","value":"spot"},{"name":"order","type":"string","value":"8"},{"name":"role","type":"string","value":"lawn"}]},{"id":520,"name":"Hedden Park","type":"","rotation":0,"point":true,"visible":true,"x":792.0,"y":653.6,"width":0,"height":0,"properties":[{"name":"cap","type":"string","value":"1"},{"name":"facing","type":"string","value":"down"},{"name":"kind","type":"string","value":"spot"},{"name":"order","type":"string","value":"9"},{"name":"role","type":"string","value":"lawn"}]},{"id":521,"name":"Town Hall","type":"","rotation":0,"point":true,"visible":true,"x":552.0,"y":285.6,"width":0,"height":0,"properties":[{"name":"cap","type":"string","value":"1"},{"name":"facing","type":"string","value":"up"},{"name":"kind","type":"string","value":"spot"},{"name":"order","type":"string","value":"0"},{"name":"role","type":"string","value":"queue"}]},{"id":522,"name":"Town Hall","type":"","rotation":0,"point":true,"visible":true,"x":552.0,"y":317.6,"width":0,"height":0,"properties":[{"name":"cap","type":"string","value":"1"},{"name":"facing","type":"string","value":"up"},{"name":"kind","type":"string","value":"spot"},{"name":"order","type":"string","value":"1"},{"name":"role","type":"string","value":"queue"}]},{"id":523,"name":"Town Hall","type":"","rotation":0,"point":true,"visible":true,"x":552.0,"y":349.6,"width":0,"height":0,"properties":[{"name":"cap","type":"string","value":"1"},{"name":"facing","type":"string","value":"up"},{"name":"kind","type":"string","value":"spot"},{"name":"order","type":"string","value":"2"},{"name":"role","type":"string","value":"queue"}]},{"id":524,"name":"Town Hall","type":"","rotation":0,"point":true,"visible":true,"x":552.0,"y":381.6,"width":0,"height":0,"properties":[{"name":"cap","type":"string","value":"1"},{"name":"facing","type":"string","value":"up"},{"name":"kind","type":"string","value":"spot"},{"name":"order","type":"string","value":"3"},{"name":"role","type":"string","value":"queue"}]}]},{"id":8,"name":"traffic","type":"objectgroup","visible":false,"opacity":1,"x":0,"y":0,"draworder":"topdown","objects":[{"id":525,"name":"h24","type":"","rotation":0,"visible":true,"x":0,"y":424.0,"width":0,"height":0,"polyline":[{"x":0,"y":0},{"x":1200,"y":0.0}],"properties":[{"name":"kind","type":"string","value":"lane"},{"name":"dir","type":"string","value":"e"},{"name":"road","type":"string","value":"h24"},{"name":"through","type":"string","value":"1"}]},{"id":526,"name":"","type":"","rotation":0,"point":true,"visible":true,"x":670,"y":424.0,"width":0,"height":0,"properties":[{"name":"kind","type":"string","value":"stopline"},{"name":"axis","type":"string","value":"h"},{"name":"dir","type":"string","value":"e"},{"name":"signal","type":"string","value":"0"}]},{"id":527,"name":"","type":"","rotation":0,"point":true,"visible":true,"x":142,"y":424.0,"width":0,"height":0,"properties":[{"name":"kind","type":"string","value":"stopline"},{"name":"axis","type":"string","value":"h"},{"name":"dir","type":"string","value":"e"},{"name":"signal","type":"string","value":"0"}]},{"id":528,"name":"","type":"","rotation":0,"point":true,"visible":true,"x":558,"y":424.0,"width":0,"height":0,"properties":[{"name":"kind","type":"string","value":"stopline"},{"name":"axis","type":"string","value":"h"},{"name":"dir","type":"string","value":"e"},{"name":"signal","type":"string","value":"0"}]},{"id":529,"name":"h24","type":"","rotation":0,"visible":true,"x":1200,"y":392.0,"width":0,"height":0,"polyline":[{"x":0,"y":0},{"x":-1200,"y":0.0}],"properties":[{"name":"kind","type":"string","value":"lane"},{"name":"dir","type":"string","value":"w"},{"name":"road","type":"string","value":"h24"},{"name":"through","type":"string","value":"1"}]},{"id":530,"name":"","type":"","rotation":0,"point":true,"visible":true,"x":754,"y":392.0,"width":0,"height":0,"properties":[{"name":"kind","type":"string","value":"stopline"},{"name":"axis","type":"string","value":"h"},{"name":"dir","type":"string","value":"w"},{"name":"signal","type":"string","value":"0"}]},{"id":531,"name":"","type":"","rotation":0,"point":true,"visible":true,"x":162,"y":392.0,"width":0,"height":0,"properties":[{"name":"kind","type":"string","value":"stopline"},{"name":"axis","type":"string","value":"h"},{"name":"dir","type":"string","value":"w"},{"name":"signal","type":"string","value":"0"}]},{"id":532,"name":"","type":"","rotation":0,"point":true,"visible":true,"x":578,"y":392.0,"width":0,"height":0,"properties":[{"name":"kind","type":"string","value":"stopline"},{"name":"axis","type":"string","value":"h"},{"name":"dir","type":"string","value":"w"},{"name":"signal","type":"string","value":"0"}]},{"id":533,"name":"v43","type":"","rotation":0,"visible":true,"x":696.0,"y":0,"width":0,"height":0,"polyline":[{"x":0,"y":0},{"x":0.0,"y":624}],"properties":[{"name":"kind","type":"string","value":"lane"},{"name":"dir","type":"string","value":"s"},{"name":"road","type":"string","value":"v43"},{"name":"through","type":"string","value":"0"}]},{"id":534,"name":"","type":"","rotation":0,"point":true,"visible":true,"x":696.0,"y":366,"width":0,"height":0,"properties":[{"name":"kind","type":"string","value":"stopline"},{"name":"axis","type":"string","value":"v"},{"name":"dir","type":"string","value":"s"},{"name":"signal","type":"string","value":"0"}]},{"id":535,"name":"v43","type":"","rotation":0,"visible":true,"x":728.0,"y":624,"width":0,"height":0,"polyline":[{"x":0,"y":0},{"x":0.0,"y":-624}],"properties":[{"name":"kind","type":"string","value":"lane"},{"name":"dir","type":"string","value":"n"},{"name":"road","type":"string","value":"v43"},{"name":"through","type":"string","value":"0"}]},{"id":536,"name":"","type":"","rotation":0,"point":true,"visible":true,"x":728.0,"y":450,"width":0,"height":0,"properties":[{"name":"kind","type":"string","value":"stopline"},{"name":"axis","type":"string","value":"v"},{"name":"dir","type":"string","value":"n"},{"name":"signal","type":"string","value":"0"}]}]}]}