{"type":"map","version":"1.10","tiledversion":"1.10.2","orientation":"orthogonal","renderorder":"right-down","compressionlevel":-1,"infinite":false,"width":75,"height":50,"tilewidth":16,"tileheight":16,"nextlayerid":9,"nextobjectid":524,"tilesets":[{"firstgid":1,"name":"rpg-tileset","image":"../../tilesets/rpg-tileset.png","imagewidth":1600,"imageheight":1600,"tilewidth":16,"tileheight":16,"columns":100,"tilecount":10000,"margin":0,"spacing":0},{"firstgid":10001,"name":"township-modern","image":"../../tilesets/township-modern.png","imagewidth":160,"imageheight":480,"tilewidth":16,"tileheight":16,"columns":10,"tilecount":300,"margin":0,"spacing":0}],"layers":[{"id":1,"name":"ground","type":"tilelayer","visible":true,"opacity":1,"x":0,"y":0,"width":75,"height":50,"data":[205,305,205,203,302,204,203,303,304,203,303,203,304,204,203,203,203,303,202,203,302,302,303,303,204,304,205,302,305,202,205,302,203,304,203,10018,304,10017,205,305,204,302,203,205,205,303,205,204,205,305,202,305,205,204,304,203,304,205,304,202,203,303,304,203,204,304,202,204,302,304,203,304,203,205,304,204,203,302,304,203,205,205,305,304,302,204,205,303,202,204,203,205,203,205,303,302,302,303,305,302,203,203,203,303,305,302,304,203,203,205,303,202,303,202,303,203,303,302,203,303,202,205,304,302,202,304,204,304,302,302,304,302,302,303,205,304,205,304,303,202,202,303,205,305,202,202,305,202,202,204,204,305,203,305,203,203,305,205,303,304,305,202,304,303,303,205,305,305,303,304,304,302,205,303,203,204,205,303,203,305,302,305,305,302,302,303,204,203,305,303,205,305,305,203,305,204,202,305,203,204,303,303,304,203,203,305,303,304,304,303,303,305,205,203,302,305,205,304,302,202,302,205,305,202,204,204,303,305,204,204,205,302,204,204,305,203,203,203,305,303,302,203,203,202,304,302,204,202,302,303,302,303,305,203,205,305,304,305,305,303,303,205,202,205,303,202,303,305,205,304,205,203,302,204,305,203,202,302,305,203,205,304,302,204,304,302,302,203,305,303,305,302,303,203,205,204,203,202,304,303,204,302,203,204,304,204,303,302,303,302,205,202,203,302,304,302,202,304,203,302,204,302,304,305,203,203,304,202,202,302,305,304,202,304,202,204,202,302,202,303,305,204,302,302,305,203,302,205,305,202,205,202,303,304,203,202,204,305,302,304,203,202,305,305,205,303,304,302,305,304,305,202,304,204,302,202,302,202,202,302,203,303,302,303,203,305,305,204,302,202,304,202,304,303,305,304,304,203,205,203,203,304,204,304,202,202,202,303,202,205,202,204,202,204,305,303,305,303,305,304,203,204,303,305,204,303,304,205,205,204,305,203,303,204,204,204,305,205,303,205,205,203,302,304,302,205,202,303,203,305,204,203,204,202,304,202,302,202,204,202,202,202,305,205,302,303,303,203,204,303,302,203,204,302,202,204,305,203,205,202,303,305,305,204,205,305,204,304,204,205,204,205,303,203,305,302,203,203,202,305,304,204,303,202,204,302,205,303,304,302,202,203,304,203,203,204,204,303,303,303,204,304,304,203,304,303,202,303,305,203,204,304,202,204,204,205,302,203,304,202,302,302,204,304,205,303,205,205,302,204,202,202,303,303,205,305,303,203,303,305,304,202,205,302,202,305,305,303,302,204,302,204,202,204,205,203,205,304,204,205,303,304,203,203,303,302,203,205,205,205,305,304,304,302,303,303,203,205,302,304,203,304,304,303,203,205,304,202,304,202,303,302,304,303,303,204,203,304,303,203,205,202,202,304,202,304,204,205,202,205,204,303,304,202,304,203,304,305,304,204,202,205,203,203,305,303,205,304,302,205,302,204,304,202,203,203,303,205,203,303,302,205,304,203,305,302,205,202,203,203,204,204,304,203,305,302,202,205,202,202,303,202,203,305,202,203,202,205,204,304,303,302,305,303,203,203,303,303,302,202,304,303,304,204,303,202,305,204,303,304,202,304,203,302,303,204,305,305,203,202,203,302,304,203,302,205,303,205,204,205,303,303,305,203,302,204,304,303,205,204,304,205,202,202,205,205,202,203,305,204,303,302,303,303,204,202,305,305,203,204,303,205,304,305,202,203,205,304,304,204,302,203,202,305,305,202,203,202,204,304,203,304,204,303,305,204,203,302,303,304,203,202,204,304,303,202,305,205,304,303,303,302,302,205,303,303,305,305,305,203,303,302,202,305,205,302,303,203,304,205,202,204,303,304,304,204,205,202,204,303,205,205,203,204,302,303,204,303,202,203,205,304,203,203,204,302,204,304,303,303,202,202,303,202,204,202,304,304,205,305,303,302,304,304,202,305,202,202,303,204,205,302,203,203,203,302,302,303,304,303,305,202,204,304,203,205,204,205,304,203,203,203,303,304,304,202,304,304,303,303,205,204,204,302,303,302,303,205,302,203,302,202,304,303,302,304,305,204,202,303,303,303,204,204,203,302,202,302,304,303,203,305,203,304,302,302,302,204,303,203,304,202,302,304,202,204,205,205,305,205,305,203,303,202,204,202,304,203,202,205,303,204,202,205,203,303,305,205,205,303,304,205,305,303,304,305,304,202,205,302,204,303,202,204,204,304,303,305,304,204,302,204,204,304,204,203,205,303,302,203,302,202,303,202,304,203,203,303,302,302,202,305,203,202,202,302,202,305,203,205,203,302,202,303,203,305,302,204,303,302,305,305,203,203,302,304,305,205,302,205,202,304,305,302,303,204,302,204,205,302,302,304,202,305,203,303,203,302,302,202,202,305,303,305,305,202,204,205,303,205,302,303,203,202,202,303,302,305,203,202,303,303,305,304,305,302,302,302,202,205,203,205,203,204,302,302,205,305,202,302,305,205,304,204,302,205,303,203,204,205,304,203,204,303,202,205,302,305,203,204,305,305,304,303,302,304,305,203,303,203,305,302,305,203,204,202,205,204,305,204,205,304,303,304,303,203,205,202,203,205,305,302,202,305,202,304,305,304,304,203,302,303,305,203,205,202,302,203,202,302,302,304,203,303,205,303,302,205,203,204,205,203,204,305,204,303,202,202,205,203,202,202,302,204,205,305,203,305,202,203,303,303,204,204,304,204,304,202,303,303,205,205,302,204,202,202,305,303,202,202,203,202,302,305,203,205,303,303,204,305,202,205,302,202,303,203,303,205,303,202,202,205,305,202,204,303,204,305,203,304,202,204,204,203,305,302,203,303,305,204,203,303,205,205,203,205,303,204,305,202,203,205,302,204,205,304,202,203,204,204,304,302,204,202,305,202,303,202,203,304,202,203,305,305,204,205,205,205,203,203,204,202,204,205,305,303,202,205,303,305,202,205,205,304,305,205,305,303,304,305,205,202,204,305,302,202,302,202,305,302,304,202,302,203,202,203,202,303,203,204,205,202,302,202,205,204,202,302,302,205,204,204,205,304,302,203,304,203,204,204,204,204,303,203,305,205,202,303,302,302,202,305,204,203,304,204,203,305,204,202,205,203,305,305,305,204,304,302,302,202,203,302,204,204,302,204,302,305,303,303,305,205,203,205,302,305,202,203,202,303,302,203,204,204,202,202,302,302,202,303,205,302,302,305,203,204,202,302,303,304,202,303,203,202,204,202,303,204,205,205,204,302,203,302,205,305,302,303,205,203,303,304,202,303,202,304,302,204,302,305,302,205,202,204,303,204,305,205,203,304,205,304,302,304,304,202,304,202,303,205,202,304,205,302,302,204,302,205,203,205,202,304,305,303,203,305,304,303,203,305,304,204,202,305,204,304,302,205,205,10019,202,205,302,303,305,204,204,203,302,305,303,203,304,304,304,202,305,10019,302,202,304,304,305,304,305,204,305,202,204,203,305,303,205,304,304,203,304,305,303,204,303,203,205,205,205,304,302,204,204,303,203,304,203,205,302,304,302,204,204,205,305,204,304,305,202,305,304,305,304,304,205,304,202,202,205,202,204,302,302,205,303,205,303,305,303,204,305,203,305,305,203,303,204,205,304,305,304,205,303,303,205,303,304,305,303,304,205,204,304,302,205,303,303,303,203,204,202,203,305,305,303,202,303,205,304,304,204,203,305,202,202,205,203,305,303,205,203,304,203,304,304,304,202,202,303,304,203,203,303,10019,302,205,202,202,205,205,203,204,205,203,302,304,204,205,302,304,202,10020,205,302,204,303,202,304,205,204,303,305,305,302,305,305,204,304,304,203,304,302,205,302,204,203,202,202,202,302,202,302,202,204,305,305,205,303,305,202,205,203,303,302,305,203,205,203,204,303,302,304,205,304,304,205,304,303,203,304,202,304,305,205,302,10003,203,204,204,10001,303,204,204,305,203,203,202,204,304,304,304,202,205,10004,302,203,305,10003,202,305,303,205,303,203,302,205,204,203,205,304,303,304,305,202,302,304,204,204,204,204,202,304,305,303,304,204,303,205,203,202,304,303,304,202,10018,205,304,304,302,205,304,205,204,303,305,304,305,203,205,303,305,205,305,203,302,203,303,202,305,203,202,202,203,302,304,204,202,204,305,302,205,302,303,305,303,204,203,203,303,305,205,304,204,203,203,302,304,303,202,204,304,302,202,202,305,302,304,203,202,203,302,202,202,10020,302,305,305,304,202,304,204,202,304,204,303,304,204,303,304,203,303,303,303,303,202,303,305,303,203,305,203,203,203,202,304,304,304,204,304,205,303,302,304,305,303,203,203,305,202,204,303,305,303,305,203,304,203,202,202,302,202,303,204,305,305,204,305,205,205,203,202,204,302,304,204,204,304,305,202,204,205,204,202,302,10017,202,305,202,202,302,203,305,303,304,305,202,204,202,204,304,304,303,304,202,203,202,302,204,304,304,202,304,203,303,203,304,203,305,305,203,305,204,204,204,302,205,205,303,303,303,202,304,304,303,302,302,303,203,204,204,303,204,202,303,305,302,305,304,205,305,205,305,205,10019,304,202,204,304,202,303,303,302,302,202,10002,302,204,10001,305,305,205,203,303,204,305,303,304,305,204,202,204,10001,203,205,10004,202,204,202,302,203,202,303,302,10004,304,303,304,10004,302,302,303,302,302,205,304,10001,304,202,305,205,205,305,204,10002,303,204,202,305,205,205,302,205,302,202,202,202,303,303,205,202,302,305,302,302,202,302,304,304,303,203,204,302,203,202,303,304,304,303,304,303,303,202,205,302,203,204,204,303,202,305,303,205,302,305,303,202,205,203,205,304,205,204,204,202,202,304,202,303,302,305,302,204,202,305,302,304,202,305,304,302,202,202,303,302,305,202,303,304,202,304,204,202,204,204,203,203,302,202,305,204,303,303,305,302,305,303,205,203,205,203,302,305,202,304,205,203,203,304,202,203,304,302,304,204,202,305,305,205,303,304,305,202,305,302,202,305,304,304,303,302,305,305,302,204,205,204,303,204,305,205,203,202,203,304,303,304,202,302,204,304,203,202,205,303,204,203,204,203,305,205,202,302,305,202,304,203,303,303,305,203,203,305,202,304,303,305,305,202,203,203,203,203,305,304,205,203,303,303,203,205,304,202,202,304,204,305,303,204,205,304,304,303,303,203,205,303,203,202,204,304,204,204,205,305,202,305,305,302,303,305,204,205,205,304,203,303,302,304,204,203,302,302,302,205,304,302,303,204,203,205,305,305,303,204,302,303,305,205,305,304,305,302,205,305,304,305,305,303,205,303,304,304,203,202,204,304,202,203,204,302,202,203,204,205,203,302,205,204,303,205,304,303,304,204,202,205,203,202,305,303,202,204,205,204,302,302,205,305,303,304,202,203,302,305,305,205,205,204,304,204,203,304,305,304,204,303,202,302,305,304,305,203,303,202,205,204,202,305,205,305,303,203,202,205,304,302,205,205,305,302,304,305,202,204,204,205,305,202,202,304,304,304,302,205,302,204,203,303,203,203,304,202,202,202,303,304,202,305,302,304,304,205,304,204,204,204,202,304,302,202,302,205,305,304,303,204,302,204,205,203,304,302,205,305,304,305,205,303,204,304,303,302,303,304,304,305,302,202,202,303,204,302,203,302,205,204,202,205,302,304,304,203,202,205,304,305,205,302,202,303,305,305,203,303,203,303,205,302,202,304,204,202,204,302,204,303,205,204,205,202,204,303,302,303,305,205,302,204,204,302,305,203,304,203,303,302,203,302,204,302,205,203,304,302,204,204,202,303,204,203,205,202,204,203,305,305,203,205,305,302,305,303,204,204,305,205,304,204,205,205,203,302,203,305,203,203,303,202,304,303,303,204,302,205,302,205,204,303,303,204,202,303,203,304,204,205,205,305,202,205,302,203,304,204,205,305,203,203,202,204,302,203,304,304,204,303,205,205,202,202,302,303,204,203,303,305,202,205,203,204,203,202,204,303,305,204,204,205,305,303,205,202,203,304,305,303,302,304,304,205,303,304,204,203,303,302,303,203,203,302,202,205,203,304,304,204,203,302,205,202,202,203,204,302,303,204,203,305,205,302,205,303,202,203,202,205,302,204,204,203,202,304,205,204,203,203,202,305,303,204,204,304,202,204,304,303,303,205,202,205,203,303,305,202,304,204,202,204,305,303,305,205,304,305,203,203,303,302,203,303,203,204,204,303,202,303,203,303,204,304,302,203,304,205,205,305,304,305,204,305,305,305,302,204,203,203,204,303,303,203,304,204,202,205,302,203,203,305,205,203,205,202,204,304,203,202,305,203,305,203,203,205,303,202,204,205,303,305,205,202,302,304,302,202,305,202,203,202,303,202,303,305,203,302,305,305,205,203,305,305,305,204,305,204,305,302,303,205,303,303,302,304,305,204,203,205,203,203,304,304,204,205,205,205,205,202,305,205,204,203,302,304,202,304,305,304,302,304,302,204,203,205,305,305,304,202,305,205,304,202,202,204,204,302,302,203,302,204,302,302,304,304,302,305,305,205,203,304,203,305,302,303,202,205,305,304,205,203,205,202,303,205,302,205,304,303,304,203,202,305,205,305,202,305,204,204,202,204,302,204,304,203,305,204,303,205,203,303,202,305,205,305,303,304,203,305,202,304,205,205,305,305,305,302,203,203,302,305,203,302,302,202,202,304,203,202,303,305,303,205,202,302,203,205,303,303,203,302,203,202,302,302,302,205,203,303,304,205,303,304,205,205,302,302,205,203,203,302,205,304,203,303,305,304,303,305,305,202,302,203,303,204,203,302,304,205,205,204,304,202,204,202,304,302,303,205,304,305,305,303,305,204,203,304,305,202,302,305,303,205,204,205,204,204,202,203,203,202,202,305,304,304,204,202,203,203,202,202,205,205,304,204,303,304,305,205,205,205,202,303,202,303,203,204,304,305,304,305,303,205,202,305,303,202,10002,303,202,10001,304,302,203,303,304,303,304,202,205,302,304,202,203,10001,204,302,304,205,302,204,202,203,205,305,302,203,205,202,203,302,304,202,202,303,305,205,304,303,204,302,203,303,305,304,304,303,204,205,205,304,205,202,203,305,205,303,204,304,204,205,305,205,302,302,305,303,10018,204,205,302,304,303,205,305,305,304,202,205,204,205,205,302,202,205,202,302,203,302,304,205,205,303,202,204,304,304,204,202,305,204,204,302,305,203,202,202,304,305,303,303,204,305,203,304,304,304,205,305,302,202,305,205,302,305,305,203,203,304,204,202,204,202,202,202,202,203,202,205,204,203,204,10020,303,305,302,303,304,304,304,305,202,303,304,305,203,202,303,303,203,302,302,303,205,202,303,10017,303,204,203,202,304,304,303,203,302,202,205,205,205,304,205,305,302,303,203,302,203,204,203,305,302,205,203,303,204,304,302,302,202,303,204,205,205,202,204,204,304,202,203,203,305,202,303,202,303,305,303,205,203,304,205,304,305,204,303,203,303,302,203,304,302,304,203,305,304,304,304,302,305,202,205,302,202,304,305,303,202,303,204,302,204,202,305,205,202,302,204,302,205,305,204,302,203,202,202,202,302,202,205,302,302,304,205,303,302,302,305,305,205,305,203,204,205,204,205,304,203,302,303,204,303,305,204,202,204,305,202,202,204,204,203,202,205,203,204,204,204,204,305,304,302,303,202,305,205,304,304,202,203,204,302,204,304,304,204,202,303,202,304,202,202,204,204,305,304,204,202,202,302,202,203,304,302,302,204,302,303,205,304,205,302,303,205,302,302,304,203,303,302,303,305,202,304,205,305,305,305,305,303,203,302,304,205,202,304,203,302,204,304,304,204,302,302,202,302,202,305,304,302,303,305,202,304,203,302,203,305,305,304,203,305,304,205,204,302,302,305,204,305,204,305,202,202,204,202,304,205,303,203,202,302,304,203,304,203,203,302,302,203,203,304,204,205,202,305,302,302,202,304,304,203,202,202,302,202,303,304,305,203,305,305,205,204,303,303,203,202,303,205,202,305,204,205,204,204,305,303,202,304,205,205,303,202,305,202,302,304,202,303,205,204,202,305,305,205,205,204,304,303,204,205,205,302,305,304,304,304,203,303,303,205,203,204,305,205,305,303,302,204,305,304,203,305,303,205,305,202,304,305,203,303,202,304,305,302,303,304,304,305,202,303,202,203,203,302,305,303,303,302,303,305,204,303,305,202,304,305,202,203,305,305,204,303,304,303,302,305,303,304,302,304,205,202,304,205,304,202,204,203,303,202,303,303,305,202,204,302,204,304,304,202,204,203,303,304,202,203,204,303,304,204,305,205,202,205,202,302,204,204,204,203,203,303,304,203,302,302,304,205,204,204,203,302,304,305,205,204,204,302,303,205,303,205,202,302,302,10019,303,10020,304,303,302,204,304,303,303,203,305,204,302,205,205,304,205,304,305,305,303,302,304,204,205,205,202,204,202,305,304,305,304,303,205,304,304,205,203]},{"id":2,"name":"ground-detail","type":"tilelayer","visible":true,"opacity":1,"x":0,"y":0,"width":75,"height":50,"data":[10181,10181,10183,10184,10182,10183,10184,10184,10182,10181,10184,10183,10181,10182,10184,10183,10184,10181,10182,10184,10182,10182,10182,10182,10181,10182,10183,10184,10184,10184,10184,10182,10182,10189,10021,10005,10006,10007,10021,10188,10182,10183,10181,10181,10183,10184,10181,10183,10181,10184,10184,10181,10181,10182,10181,10183,10181,10182,10184,10181,10182,10183,10181,10182,10184,10182,10181,10182,10182,10183,10189,112,114,114,115,10184,10182,10184,10182,10183,10184,10184,10184,10183,10181,10183,10182,10181,10183,10182,10181,10184,10181,10182,10181,10184,10181,10183,10182,10183,10182,10183,10182,10182,10183,10184,10181,10183,10189,10024,10008,10036,10009,10024,10190,10182,10184,10182,10183,10181,10184,10184,10184,10182,10181,10181,10184,10183,10184,10183,10182,10183,10184,10183,10181,10182,10183,10181,10184,10181,10182,10183,10184,10181,10191,10192,312,214,214,215,10183,10184,10181,10191,10191,10191,10191,10191,10191,10191,10191,10191,10191,10191,10191,10191,10191,10191,10191,10191,10191,10191,10191,10191,10191,10191,10191,10191,10191,10191,10191,10191,10191,10192,10024,10008,10001,10009,10024,10194,10190,10191,10191,10191,10191,10191,10191,10191,10191,10191,10191,10191,10191,10191,10191,10191,10184,10184,10184,10191,10191,10191,10191,10191,10191,10191,10191,10191,10192,10193,0,212,313,313,315,10183,10181,10189,10193,0,0,0,0,0,0,0,0,0,0,0,0,0,0,0,0,0,0,0,0,0,0,0,0,0,0,0,0,0,0,10024,10008,10003,10009,10024,0,0,0,0,0,0,0,0,0,0,0,0,0,0,0,0,10194,10188,10182,10189,10193,0,0,0,0,0,0,0,0,0,0,0,312,214,214,315,10183,10182,10189,0,0,0,0,0,0,0,0,0,0,0,0,0,0,0,0,0,0,0,0,0,0,0,0,0,0,0,0,0,0,0,10024,10008,10036,10009,10024,0,0,0,0,0,0,0,0,0,0,0,0,0,0,0,0,0,10188,10183,10189,0,0,0,0,0,0,0,0,0,0,0,219,212,314,214,215,10184,10181,10189,0,0,0,0,0,0,0,0,0,0,0,0,10179,0,0,0,0,0,0,0,0,0,0,0,0,0,0,0,0,0,0,10024,10008,10004,10009,10024,0,0,0,0,0,0,0,0,0,0,0,0,0,0,0,0,0,10190,10191,10192,0,0,0,0,0,0,0,0,0,0,0,112,214,214,314,215,10182,10183,10189,0,0,0,0,0,0,0,0,0,0,0,0,10179,0,0,0,0,0,0,0,0,0,0,0,0,0,0,0,0,0,0,10024,10008,10004,10009,10024,0,0,0,0,0,0,0,0,0,0,0,0,0,0,0,0,0,0,0,0,0,0,0,0,0,0,0,0,0,0,0,212,213,214,313,315,10181,10184,10189,0,0,0,0,0,0,0,0,0,0,0,0,10179,0,0,0,0,0,0,0,0,0,0,0,0,0,0,0,0,0,0,10024,10008,10036,10009,10024,0,0,0,0,0,0,0,0,0,0,0,0,0,0,0,0,0,0,0,0,0,0,0,0,0,0,0,0,0,0,0,312,213,314,314,215,10181,10182,10189,0,0,0,0,0,0,0,0,0,0,0,0,10179,0,0,0,0,0,0,0,0,0,0,0,0,0,0,0,0,0,0,10024,10008,10003,10009,10024,0,0,10185,10186,10186,10186,10186,10186,10186,10186,10186,10186,10187,0,1902,1903,1904,1905,0,1902,0,0,0,0,0,0,0,0,0,0,0,312,214,214,314,315,10181,10184,10189,0,0,0,0,0,0,0,0,0,0,0,0,10179,0,0,0,0,0,0,0,0,0,0,0,0,0,0,0,0,0,0,10024,10008,10003,10009,10024,0,0,0,0,0,0,0,0,0,0,0,0,0,0,0,2102,1912,1914,1915,2205,0,0,0,0,0,0,0,0,0,0,0,212,214,213,214,215,10181,10182,10192,0,0,0,0,0,0,0,0,0,0,0,0,10179,0,0,0,0,0,0,0,0,0,0,0,0,0,0,0,0,0,0,10024,10008,10036,10009,10024,0,0,0,0,0,0,0,0,0,0,0,0,0,0,1902,2104,2212,2213,2215,0,0,10021,10022,10022,10023,0,0,0,0,0,0,312,213,313,313,215,10181,10189,10021,783,884,882,882,10022,10022,10022,884,783,882,884,10022,10022,10022,884,884,884,782,10022,10022,784,782,884,785,10022,10022,784,782,783,885,10022,10025,10008,10002,10009,10024,0,0,0,0,0,0,0,0,0,0,0,0,0,0,0,2202,2103,2004,2105,0,0,0,0,0,10024,0,0,0,0,0,0,312,214,313,213,315,10183,10183,10187,0,10264,10264,0,0,10024,10185,10187,10264,10264,10185,0,0,0,0,10264,10264,0,0,10185,10187,10264,10264,10185,0,0,0,10264,10264,0,0,10024,10008,10002,10009,10024,0,0,0,0,0,0,0,0,0,0,0,0,0,0,1902,0,2202,2203,2204,1905,0,0,0,0,10024,0,0,0,0,0,0,312,214,313,213,215,10183,10181,10189,0,0,0,0,0,10024,0,0,0,0,0,0,0,0,0,0,0,0,0,0,0,0,0,0,0,0,0,0,0,0,0,10026,10008,10036,10009,10024,0,0,0,0,0,0,0,0,0,0,0,0,0,0,0,0,0,0,0,0,0,0,0,0,10024,0,0,0,0,0,0,312,314,213,214,315,10183,10182,10189,0,0,0,0,0,10024,0,0,0,0,0,0,0,0,0,0,0,0,0,0,0,0,0,0,0,0,10185,10186,10186,10186,10186,10187,10008,10001,10009,10024,0,0,0,0,0,0,0,0,0,0,0,0,0,0,0,1912,1915,10185,10186,10186,10186,10186,10186,10187,10024,2019,1912,1915,2018,0,0,312,213,314,314,215,10182,10183,10189,0,0,0,0,0,10024,0,0,0,0,0,0,0,0,0,0,0,0,0,0,0,0,0,0,0,0,0,0,0,0,0,0,10008,10004,10009,10024,0,0,0,0,0,0,0,0,0,0,0,0,0,0,0,2112,2015,0,0,0,0,0,0,0,10024,1912,2113,2013,1915,0,0,312,314,313,213,215,10183,10183,10189,0,0,0,0,0,10024,0,0,0,0,0,0,0,0,0,0,0,0,0,0,0,0,0,0,0,0,0,0,0,0,0,0,10008,10036,10009,10024,0,0,0,0,0,0,0,0,0,0,0,0,0,0,0,2212,2215,0,0,0,0,0,0,0,10024,2212,2113,2114,2215,0,0,212,314,313,313,215,10182,10182,10192,0,0,0,0,0,10024,0,0,0,0,0,0,0,0,0,0,0,0,0,0,0,0,0,0,0,0,0,0,0,0,0,0,10008,10003,10009,10024,10022,10022,10022,10022,10022,10022,10022,10022,10022,10022,10022,10022,10022,10022,10022,10022,10023,0,0,0,0,0,0,0,10024,1919,2212,2215,1918,0,0,212,314,313,313,215,10182,10189,10021,10022,10022,10022,10022,10022,10025,0,0,0,0,0,0,0,0,0,0,0,0,0,0,0,0,0,0,0,0,0,0,0,0,0,0,10008,10002,10009,10024,10027,10027,10027,10027,10027,10027,10027,10027,10027,10027,10027,10027,10027,10027,10027,10027,10028,0,0,0,0,0,0,0,10024,0,1912,1915,0,0,0,212,213,213,213,215,10184,10184,10187,0,0,0,0,0,10024,10022,10022,10022,10022,10022,10022,10022,10022,10022,10022,10022,10022,10022,10022,10022,10022,10022,10022,10022,10023,0,0,0,0,0,0,10008,10036,10009,10024,0,0,1902,2003,2103,2103,1904,1904,2104,2003,2103,2103,1905,0,0,0,0,0,0,0,0,0,0,0,10024,0,2012,2115,0,0,0,212,214,314,313,215,10182,10184,10192,0,0,0,0,0,10024,10041,10041,10041,10041,10041,10041,10041,10041,10041,10041,10041,10041,10041,10041,10041,10041,10041,10041,10041,10024,0,0,0,0,0,0,10008,10004,10009,10024,0,0,0,2102,2103,2104,2004,2104,2104,2104,2004,2003,2005,0,0,0,0,0,0,0,0,0,0,0,10024,0,2012,2015,0,0,0,212,313,313,314,315,10181,10189,10193,0,0,0,0,0,10024,10008,10002,10001,10004,10001,10001,10004,10003,10004,10002,10001,10003,10002,10003,10004,10003,10003,10003,10009,10024,0,0,10021,10023,0,10021,10008,10002,10009,10024,0,0,0,2202,2003,2203,2004,2204,2104,2103,2104,2004,2105,0,0,10180,10179,0,0,0,0,0,0,0,10024,0,2012,2015,0,0,0,212,314,313,214,315,10191,10192,0,0,0,0,0,0,10024,10010,10011,10011,10011,10011,10011,10011,10011,10002,10042,10004,10011,10011,10011,10011,10011,10011,10011,10012,10024,0,0,10024,10025,0,10024,10008,10036,10009,10024,0,0,0,0,2202,0,2202,0,2202,2203,2204,2203,2203,1905,0,10179,10179,0,0,0,0,0,0,0,10024,0,2212,2215,0,0,0,312,213,213,314,215,10021,10022,10022,10022,10022,10022,10022,10022,10027,10022,10022,10022,10022,10022,10022,10022,10023,10008,10004,10009,10021,10022,10022,10022,10022,10022,10022,10022,10027,10022,10022,10027,10027,10022,10028,10034,10034,10034,10026,10022,10022,10022,10022,10022,10022,10022,10022,10022,10022,10022,10022,10022,10022,10022,10022,10022,10022,10022,1912,1915,10022,10022,10022,10027,10022,10022,10022,10022,10022,10023,312,314,314,214,315,10005,10006,10006,10006,10006,10033,10006,10006,10033,10006,10006,10006,10006,10006,10006,10006,10006,10001,10003,10004,10006,10006,10033,10006,10006,10033,10006,10006,10006,10006,10041,10006,10041,10006,10033,10004,10001,10002,10033,10006,10006,10006,10006,10006,10006,10006,10006,10006,10006,10006,10006,10006,10006,10006,10006,10006,10006,10006,10006,10006,10006,10006,10006,10006,10006,10006,10006,10006,10006,10007,8536,8537,8538,8539,8540,10008,10035,10003,10003,10035,10033,10001,10003,10033,10003,10035,10004,10001,10035,10003,10004,10035,10003,10001,10035,10001,10001,10033,10004,10003,10033,10001,10003,10035,10004,10003,10035,10003,10003,10033,10004,10004,10004,10033,10004,10035,10002,10003,10035,10001,10003,10035,10001,10004,10035,10004,10002,10035,10001,10002,10035,10003,10004,10035,10001,10003,10035,10002,10001,10035,10003,10004,10035,10004,10009,8636,8637,8638,8639,8640,10010,10011,10011,10011,10011,10033,10004,10004,10042,10011,10011,10011,10011,10042,10011,10011,10011,10011,10011,10011,10011,10011,10033,10001,10004,10033,10011,10011,10011,10011,10011,10011,10011,10011,10033,10001,10003,10003,10033,10011,10011,10011,10011,10042,10011,10011,10011,10011,10011,10011,10011,10011,10011,10011,10011,10011,10011,10011,10011,10011,10011,10011,10011,10011,10011,10011,10011,10011,10011,10012,8736,8737,8738,8739,8740,10021,10022,10022,10022,10022,10023,10034,10034,10021,10022,10022,10022,10022,10022,10022,10022,10022,10022,10022,10022,10022,10022,10023,10034,10034,10021,10022,10022,10022,10022,10022,10022,10022,10022,10023,10034,10034,10034,10021,10022,10022,10022,10022,10022,10022,10022,10023,10185,10186,10186,10186,10186,10186,10187,10021,10022,10022,10022,10022,10022,10022,10022,10022,10022,10022,10022,10022,10022,10022,10023,312,213,214,314,315,10186,10186,10187,0,0,10024,10008,10009,10024,0,0,0,0,0,0,0,0,0,0,0,0,0,10024,10008,10009,10024,0,0,0,0,0,0,0,0,10024,10008,10036,10009,10024,10185,10186,10186,10186,10186,10186,10186,10187,0,0,0,0,0,0,0,0,0,0,0,0,0,0,0,0,0,0,0,0,0,0,0,312,314,313,214,315,10181,10183,10189,0,0,10024,10008,10009,10024,0,0,0,0,0,0,0,0,0,0,0,0,0,10024,10008,10009,10024,0,0,0,0,0,0,0,0,10024,10008,10001,10009,10024,0,0,0,0,0,0,0,0,0,0,0,0,0,0,0,0,0,0,0,0,0,0,0,0,0,0,0,0,0,0,0,212,313,213,313,315,10181,10181,10189,0,0,10024,10008,10009,10024,0,0,0,0,0,0,0,0,0,0,0,0,0,10024,10008,10009,10024,0,0,0,0,0,0,0,0,10024,10008,10002,10009,10024,0,0,0,0,0,0,0,0,0,0,0,0,0,0,0,0,0,0,0,0,0,0,0,0,0,0,0,0,0,0,219,212,313,214,313,215,10183,10182,10189,0,0,10024,10008,10009,10024,0,0,0,0,0,0,0,0,0,0,0,0,0,10024,10008,10009,10024,0,0,0,0,0,0,0,0,10024,10008,10036,10009,10024,0,0,0,0,0,0,0,0,0,0,0,0,0,0,0,1902,1903,1904,1904,1903,1903,1903,1903,1904,1903,1905,2019,1912,1915,0,112,214,213,214,313,315,10181,10181,10189,0,0,10024,10008,10009,10024,10185,10186,10186,10186,10186,10187,0,10185,10186,10186,10186,10186,10187,10024,10008,10009,10024,10185,10186,10186,10186,10186,10187,0,0,10024,10008,10004,10009,10024,0,0,0,0,0,0,0,0,0,0,0,0,0,0,0,2102,1912,1914,1914,1913,1913,1913,1914,1914,1915,10201,1912,2114,2015,0,212,313,314,313,214,315,10181,10181,10192,0,0,10024,10008,10009,10024,0,0,0,0,0,0,0,0,0,0,0,0,0,10024,10008,10009,10024,0,0,0,0,0,0,0,0,10024,10008,10003,10009,10024,0,0,0,0,0,0,0,0,0,0,0,0,0,0,0,2002,2112,2103,2103,2004,2004,2004,10201,10203,2012,2105,2212,2213,2215,0,312,214,213,213,313,315,10184,10189,10021,10022,10022,10025,10008,10009,10024,0,0,0,0,0,0,0,0,0,0,0,0,0,10024,10008,10009,10024,0,0,0,0,0,0,10179,0,10024,10008,10036,10009,10024,0,0,0,0,0,0,0,0,0,0,0,0,0,0,0,2102,2012,2103,2103,10201,10202,10202,10208,2004,2112,2005,0,0,0,0,312,213,213,213,213,315,10184,10184,10187,0,0,10024,10008,10009,10024,0,0,0,0,0,0,0,0,0,0,0,0,0,10024,10008,10009,10024,0,0,0,0,0,0,10180,0,10024,10008,10001,10009,10024,0,0,0,0,0,0,0,0,1912,1913,1914,1913,1913,1914,1915,2102,2012,10201,10202,10208,2004,2103,2003,2104,2012,2005,0,0,0,0,312,314,213,313,214,315,10182,10184,10189,0,0,10024,10008,10009,10024,0,0,0,0,0,0,0,0,0,0,0,0,0,10024,10008,10009,10024,0,0,0,0,0,0,10180,0,10024,10008,10003,10009,10024,10022,10022,10022,10022,10022,10022,10022,10022,2212,2213,2214,2014,2113,2113,2115,10201,2112,10206,2103,2103,2004,2003,2104,2103,2012,2105,0,0,0,219,212,213,214,213,213,315,10184,10182,10189,0,0,10024,10008,10009,10024,0,0,0,0,0,0,0,0,0,0,0,0,0,10024,10008,10009,10024,0,0,0,0,0,0,10180,0,10024,10008,10036,10009,10024,10017,10018,10019,10019,10020,10017,10019,10019,10025,0,1919,2212,2213,2214,2215,2102,2112,2104,2003,2003,2014,2104,2003,2003,2012,2005,0,0,0,112,314,214,313,313,314,315,10181,10184,10192,0,0,10024,10008,10009,10024,0,0,0,0,0,0,0,0,0,0,0,0,0,10024,10008,10009,10024,0,0,0,0,0,0,10179,0,10024,10008,10004,10009,10024,10027,10027,10027,10027,10027,10027,10027,10027,10028,0,0,0,0,0,0,2002,2112,2003,2103,2004,2003,2004,2004,2003,2112,2005,0,0,0,312,213,214,314,214,314,315,10181,10189,10193,0,0,10024,10008,10009,10024,0,0,0,0,0,0,0,0,0,0,0,0,0,10024,10008,10009,10024,0,0,0,0,0,0,10179,0,10024,10008,10002,10009,10024,0,10185,10186,10186,10186,10186,10187,0,0,10185,10186,10186,10186,10186,10187,2102,2012,2004,2004,2003,2103,2104,2003,2103,2112,2005,0,0,219,312,213,314,314,314,213,215,10191,10192,0,0,0,10024,10008,10009,10024,0,0,0,0,0,0,0,0,0,0,0,0,0,10024,10008,10009,10024,0,0,0,0,0,0,10180,0,10024,10008,10036,10009,10024,0,0,0,0,0,0,0,0,0,0,0,0,0,0,0,2002,2012,2103,2004,2103,2004,2004,2003,2103,2012,2105,0,112,114,213,313,214,214,214,313,315,10021,10022,10022,10022,10022,10028,10034,10034,10026,10022,782,782,882,883,10022,10022,10022,883,882,784,882,10022,10028,10008,10009,10024,0,883,883,784,782,0,0,0,10024,10008,10003,10009,10024,0,0,0,0,0,0,0,0,0,0,0,0,0,0,0,2102,2012,2003,2004,2103,2004,2003,2003,2104,2012,2005,0,212,214,213,314,214,313,213,314,215,10005,10006,10006,10006,10006,10033,10002,10003,10033,10006,10006,10006,10006,10006,10006,10006,10006,10006,10006,10006,10006,10006,10006,10002,10009,10024,0,0,10264,10264,0,0,0,0,10024,10008,10004,10009,10024,0,0,0,0,0,0,0,0,0,0,0,0,0,0,0,2002,2212,1914,1914,1913,1913,1914,1913,1913,2215,2105,0,212,314,214,213,314,213,214,214,215,10010,10011,10011,10011,10011,10033,10011,10011,10033,10011,10011,10011,10011,10011,10011,10011,10011,10011,10011,10011,10011,10011,10011,10011,10012,10024,0,0,0,0,0,0,0,0,10024,10008,10036,10009,10024,0,0,0,0,0,0,0,0,0,0,0,0,0,0,0,2202,2204,2203,2203,2204,2204,2203,2204,2204,2204,2205,219,312,314,213,313,213,214,314,314,215,10021,10022,10022,10022,10022,10022,10022,10022,10022,10022,10022,10022,10022,10022,10022,10022,10022,10022,10022,10022,10022,10022,10022,10022,10022,10028,1902,0,1902,0,0,0,1902,1903,10024,10008,10004,10009,10024,0,0,0,0,0,0,0,0,0,0,0,0,0,0,0,0,0,0,0,0,0,0,0,0,0,0,112,313,313,214,313,214,313,313,213,215,10186,10187,10195,0,0,0,0,0,0,10185,10186,10187,0,0,0,0,10185,10186,10187,0,0,0,0,0,0,0,2202,10185,10186,10187,1903,1903,10185,10187,10024,10008,10002,10009,10024,1905,0,0,0,0,0,0,0,0,0,0,0,0,0,0,0,0,0,0,0,0,0,10185,10186,10187,0,212,214,213,214,213,213,214,214,314,215,10184,10182,10187,0,0,0,0,0,0,10188,10182,10189,0,0,0,0,10188,10184,10189,0,0,0,0,0,0,0,0,10188,10182,10189,2104,2203,10188,10189,10024,10008,10036,10009,10024,0,0,0,0,0,0,0,0,0,0,0,0,0,0,0,0,0,0,0,0,0,0,10188,10182,10189,0,212,213,313,213,313,213,213,314,314,315,10184,10184,10189,10195,0,0,0,0,10196,10188,10182,10189,10195,0,0,10196,10188,10183,10189,10195,0,0,0,0,0,0,10196,10188,10184,10189,2202,10196,10188,10189,10024,10008,10003,10009,10024,10022,10022,784,785,784,882,10022,10022,10022,10022,885,885,785,885,10023,0,0,0,0,0,0,10196,10188,10183,10189,10195,212,313,313,313,313,214,213,313,314,315,10181,10183,10181,10186,10186,10186,10186,10186,10186,10183,10183,10181,10186,10186,10186,10186,10181,10184,10181,10186,10186,10186,10186,10186,10186,10186,10186,10182,10182,10183,10186,10186,10184,10189,10024,10008,10004,10009,10024,10185,10186,10187,10264,10264,10185,10186,10186,10186,10186,10187,10264,10264,10185,10186,10186,10186,10186,10186,10186,10186,10186,10183,10181,10182,10187,312,313,213,214,214,313,314,313,314,215,10182,10184,10182,10183,10182,10183,10182,10183,10182,10182,10183,10182,10181,10182,10182,10182,10182,10182,10183,10181,10183,10183,10184,10183,10181,10182,10184,10182,10181,10181,10184,10183,10182,10189,10026,10010,10036,10012,10026,10188,10184,10183,10186,10186,10183,10183,10183,10182,10183,10184,10186,10186,10182,10184,10181,10184,10182,10184,10184,10183,10184,10181,10181,10181,10189,412,413,413,413,414,414,413,414,413,415]},{"id":3,"name":"deco-below","type":"tilelayer","visible":true,"opacity":1,"x":0,"y":0,"width":75,"height":50,"data":[0,0,0,0,0,0,0,0,0,0,0,0,0,0,0,0,0,0,0,0,0,0,0,0,0,0,0,0,0,0,0,0,0,0,0,0,0,0,0,0,0,0,0,0,0,0,0,0,0,0,0,0,0,0,0,0,0,0,0,0,0,0,0,0,0,0,0,10178,0,0,0,0,0,0,0,0,0,0,0,10178,0,0,0,0,0,0,0,0,0,0,0,0,0,0,0,0,0,10178,0,0,0,0,0,0,0,0,0,0,0,0,0,0,0,0,0,0,0,10177,0,0,0,0,0,0,0,0,0,0,0,10178,0,0,0,0,0,0,0,0,0,0,0,0,0,0,0,0,0,0,0,0,0,0,0,0,0,0,0,0,0,0,0,0,0,0,0,0,0,0,0,0,0,0,0,0,0,0,0,0,0,0,0,0,0,0,0,0,0,0,10292,0,0,0,0,0,0,0,0,0,0,0,0,0,0,0,0,0,0,0,0,0,0,0,0,0,0,0,0,0,0,0,0,0,0,0,0,0,0,0,0,0,0,0,0,10172,0,0,0,0,0,0,10172,0,0,0,0,0,0,0,0,0,0,0,0,0,0,0,0,0,0,10172,0,0,0,0,0,0,0,0,0,0,0,0,0,0,0,0,0,0,0,0,0,0,0,0,0,0,0,0,0,0,0,0,0,0,10172,0,0,0,0,0,10178,0,0,0,0,0,0,0,10171,0,0,0,0,0,0,1073751996,0,0,0,0,0,0,0,0,0,0,0,0,0,0,0,0,0,0,10171,0,0,0,0,0,0,0,0,0,0,0,0,0,0,0,0,0,0,0,0,0,0,0,0,0,0,0,0,0,0,0,0,0,0,10171,0,0,0,0,0,0,0,0,0,0,0,0,0,10171,0,0,0,0,0,0,10248,0,0,0,0,0,0,0,0,0,0,0,0,0,0,0,0,0,0,10171,0,0,0,0,0,0,0,0,0,0,0,0,0,0,0,0,0,0,0,0,0,10177,0,0,0,0,0,0,0,0,0,0,0,0,10171,0,0,0,0,0,0,0,0,0,0,0,0,0,10171,0,0,0,0,0,0,10245,0,0,0,0,0,0,0,0,0,0,0,0,0,0,0,0,0,0,10171,0,0,0,0,0,0,0,0,0,0,0,0,0,0,0,0,0,0,0,0,0,0,0,0,0,0,0,0,0,0,0,0,0,0,10171,0,0,0,0,0,0,0,0,0,0,0,0,0,10171,0,0,0,0,0,0,10245,0,0,0,0,0,0,0,0,0,0,0,0,0,0,0,0,0,0,10171,0,0,0,0,0,0,0,0,0,0,0,0,0,0,0,0,0,2936,2937,3138,3139,3138,3139,2940,2941,0,0,0,0,0,0,0,0,0,10171,0,0,0,0,0,0,0,0,0,0,0,0,0,1073751996,0,0,0,0,0,0,10245,0,0,0,0,0,0,0,0,0,0,0,0,0,0,0,0,0,0,10171,0,0,0,0,0,0,0,0,0,0,0,0,0,0,0,0,0,3036,3037,3238,3239,3238,3239,3040,3041,0,0,0,0,0,0,0,0,0,1073751996,0,0,0,0,0,0,0,0,0,0,0,0,0,0,0,0,0,0,0,0,10245,0,0,0,0,0,0,0,0,0,0,0,0,0,0,0,0,0,0,1073751996,0,0,0,0,0,0,0,0,0,0,0,0,0,0,0,0,0,2740,3384,3385,0,0,0,2740,2741,0,0,0,0,0,0,0,0,4825,4826,0,0,0,0,0,0,0,0,0,0,0,0,0,0,0,0,0,0,0,0,10249,0,0,0,0,0,0,0,0,0,0,0,0,0,0,0,0,0,0,10044,0,0,0,0,0,0,0,0,0,0,0,0,0,0,0,0,0,2840,2841,0,0,0,0,2840,2841,10173,10171,10171,10171,2147493821,0,10049,0,4925,4926,0,0,0,0,0,0,0,0,0,0,0,0,0,0,10173,10171,10171,10171,10171,10171,2147493821,10173,10171,10171,10171,10171,10171,2147493821,10173,10171,10171,10171,10171,2147493821,10173,10171,10171,10171,10171,2147493821,0,0,0,0,0,0,0,0,0,0,0,0,0,0,0,0,0,2740,5225,5226,0,0,0,2740,2741,0,0,0,0,0,0,0,0,0,0,0,0,0,0,0,0,0,0,0,0,0,0,0,10172,0,0,0,0,0,0,0,0,0,0,0,0,0,0,0,0,0,0,0,0,0,0,5401,5402,0,0,0,0,0,0,0,0,0,0,0,0,0,0,0,0,0,0,0,2840,5325,5326,0,0,10049,2840,2841,0,0,0,0,5525,0,0,0,0,0,0,0,0,0,0,0,0,0,0,0,0,0,0,10171,0,0,0,0,0,0,0,0,0,0,0,0,0,0,0,0,0,0,10172,0,0,0,5501,5502,0,0,0,0,0,0,0,0,0,0,0,0,0,0,0,0,0,0,0,3136,3137,0,0,3139,3138,3140,3141,0,0,0,0,5424,0,0,0,0,0,0,0,0,0,0,0,0,0,0,0,0,0,0,10171,0,0,0,0,0,0,0,0,0,0,0,0,0,0,0,0,0,0,10171,0,0,0,0,0,0,0,0,0,0,0,0,0,0,0,0,0,0,0,0,0,0,0,0,3236,3237,0,0,3239,3238,3240,3241,0,0,0,0,0,3159,3160,0,0,0,0,0,0,0,0,0,0,0,0,0,0,0,0,10171,0,0,0,0,0,0,0,0,0,0,0,0,0,0,0,0,0,0,10171,0,0,0,0,0,0,0,0,0,0,0,0,0,0,0,0,0,0,0,0,0,0,0,0,10172,0,0,0,0,0,0,0,0,0,0,10172,0,3259,3260,5224,0,0,0,0,0,0,0,0,0,0,0,0,0,0,0,10171,0,0,0,0,0,0,0,0,0,0,0,0,0,0,0,0,0,0,10171,0,0,0,0,0,0,0,0,0,0,0,0,0,0,0,0,0,0,0,0,0,0,0,0,1073751996,0,0,0,0,0,0,0,0,0,0,10171,5223,3359,3360,0,5426,0,0,0,0,0,0,0,0,0,0,0,0,0,0,10171,0,0,0,0,0,0,0,0,0,0,0,0,0,0,0,0,0,0,1073751996,0,0,0,0,0,0,0,0,0,0,0,0,0,10045,0,0,0,0,0,0,0,10047,0,10173,0,0,0,0,0,0,0,0,0,0,0,10171,0,0,0,0,0,0,0,0,0,0,0,0,0,10173,10171,10171,10171,10171,10171,10171,0,0,0,0,0,0,0,0,0,0,0,0,0,0,0,0,0,0,10153,10154,0,0,0,0,0,0,0,0,0,0,0,0,10055,0,0,0,0,0,0,2147493889,2147493890,2147493891,0,10049,0,0,0,0,0,0,0,0,0,0,10171,0,0,0,0,0,0,0,0,0,0,0,0,0,2961,2962,2932,2933,2934,2935,0,10044,0,0,0,0,0,10047,0,0,0,0,0,10047,0,0,0,0,0,10155,10156,0,0,0,0,0,0,0,0,0,0,0,0,0,0,0,0,0,0,0,0,0,0,0,0,0,5424,0,0,0,0,0,0,0,0,10171,0,0,0,0,0,0,0,0,0,0,0,0,0,3061,3062,3032,3033,3034,3035,0,10218,1073752049,10226,10234,10222,0,1073752037,0,0,10222,0,1073752057,1073752041,10214,10050,0,0,10050,2949,2950,0,0,0,0,0,0,0,0,0,0,0,0,0,0,0,10246,10244,10244,10244,10244,10244,10247,0,0,0,0,5423,0,0,0,0,0,0,0,10171,0,0,0,0,0,0,0,0,0,0,0,0,0,0,0,3132,3133,3134,3135,0,10217,1073752050,10225,10233,10221,0,1073752038,0,0,10221,0,1073752058,1073752042,10213,10050,3384,3385,10050,3049,3050,4565,4566,0,0,0,0,0,0,0,0,0,0,2953,2954,0,0,0,0,0,0,0,0,0,0,0,3163,3164,0,0,0,0,0,0,0,10171,0,0,0,0,0,0,0,0,0,0,0,0,0,0,0,3232,3233,3234,3235,0,0,0,0,0,0,0,0,0,0,0,0,0,0,0,0,0,0,0,10295,0,4665,4666,0,0,0,0,0,0,0,0,0,0,3053,3054,0,0,0,5524,0,0,0,0,0,0,0,3263,3264,0,0,0,0,0,0,0,10171,0,0,0,0,0,0,0,0,0,0,0,0,0,10292,0,3047,3048,0,0,0,0,0,0,0,0,0,0,10038,0,0,0,10037,0,0,0,0,0,10043,0,0,0,0,0,0,0,10260,0,0,0,10260,0,0,0,0,0,0,0,0,0,0,0,0,0,0,0,0,0,0,0,0,0,0,0,10173,10171,0,0,0,0,0,0,0,0,0,0,0,0,0,0,0,0,0,0,0,0,0,0,0,0,0,0,0,0,0,0,0,0,0,0,0,0,0,0,0,0,0,0,0,0,0,0,0,0,0,0,0,0,0,0,0,0,0,0,0,0,0,0,0,0,0,0,0,0,0,0,0,0,0,0,0,0,0,0,0,0,0,0,0,0,0,0,0,0,0,0,0,0,0,0,0,0,0,0,0,0,0,0,0,0,0,0,0,0,0,0,0,0,0,0,0,0,0,0,0,0,0,0,0,0,0,0,0,0,0,0,0,0,0,0,0,0,0,0,0,0,0,0,0,0,0,0,0,0,0,0,0,0,0,0,0,0,0,0,0,0,0,0,0,0,0,0,0,0,0,0,0,0,0,0,0,0,0,0,0,0,0,0,0,0,0,0,0,0,0,0,0,0,0,0,0,0,0,0,0,0,0,0,0,0,0,0,0,0,0,0,0,0,0,0,0,0,0,0,0,0,0,0,0,0,0,0,0,0,0,0,0,0,0,0,0,0,0,0,0,0,0,10038,0,0,10037,0,0,2936,2937,3138,3139,2940,2941,0,0,0,0,0,10038,0,0,10037,0,0,0,0,0,0,0,0,10038,0,0,0,10037,0,10043,0,0,0,0,0,10038,0,0,0,0,0,0,0,10037,0,0,0,0,0,0,0,0,0,0,0,0,0,0,0,0,0,0,0,0,0,0,0,10255,0,0,0,0,0,10255,0,3036,3037,3238,3239,3040,3041,0,0,0,0,10255,0,0,0,0,0,10255,0,0,0,0,0,10255,10260,0,0,0,10260,10255,0,0,0,0,0,10255,0,0,0,0,0,0,0,0,0,0,0,10255,0,0,0,0,0,10255,0,0,0,0,10292,0,0,0,0,0,0,0,0,0,0,0,10172,0,0,0,0,0,2740,4828,5127,4927,2740,2741,0,0,0,0,0,0,0,0,0,0,0,0,0,10172,0,0,0,0,0,0,0,0,0,0,0,0,0,0,0,0,0,0,0,0,0,0,0,10172,0,0,0,0,0,0,0,0,0,0,0,0,0,0,0,0,0,0,0,0,0,0,0,0,0,10171,0,0,10044,5423,0,2840,2841,3139,3138,2840,2841,0,0,0,10172,0,0,0,0,0,0,0,0,0,5426,0,0,0,0,0,0,0,0,0,0,0,0,0,0,0,0,0,0,0,0,0,0,0,10171,0,0,0,0,0,0,0,0,0,0,3384,3385,0,0,0,0,0,0,0,0,0,0,0,0,0,10171,0,0,0,0,5524,3236,3237,3239,3238,3240,3241,0,10173,10171,10171,0,10044,0,0,0,0,0,5524,5423,0,0,0,0,0,0,0,0,0,0,0,0,0,0,0,0,0,0,0,0,0,0,0,0,10171,5230,0,0,0,0,0,0,0,5230,0,0,0,0,0,0,0,0,0,0,0,0,10177,0,0,0,10171,0,0,0,0,0,0,0,0,0,0,0,0,0,0,0,0,0,0,0,0,0,0,0,0,0,0,0,0,0,0,0,0,0,0,0,0,0,0,0,0,0,0,0,0,0,0,0,0,10171,5330,0,0,3384,3385,0,0,0,5330,0,0,0,0,0,0,0,0,0,0,0,0,0,0,0,0,1073751996,0,0,0,0,0,0,0,0,0,10172,0,0,0,0,0,0,10172,0,0,0,0,0,0,0,0,0,10172,0,0,0,0,0,0,0,0,0,0,0,0,0,0,0,0,0,0,0,0,0,1073751996,0,10175,0,0,0,0,0,0,0,0,0,0,0,0,0,0,0,0,0,0,0,0,0,0,0,0,0,0,0,0,0,0,0,0,0,10171,0,0,0,0,0,0,10171,0,0,0,0,0,0,0,0,0,10248,0,0,0,0,0,0,0,0,0,0,0,0,0,0,0,0,0,0,0,0,10049,0,0,0,10175,0,0,0,0,0,0,0,0,0,0,0,0,0,0,0,0,0,0,0,0,0,0,0,0,0,0,0,0,0,0,0,0,10171,0,0,0,0,0,0,10171,0,0,0,0,0,0,0,0,0,10245,0,0,0,0,0,0,0,0,0,0,0,0,0,0,10172,10173,10171,10171,10171,10171,10171,2147493821,0,0,0,0,10176,0,0,0,0,0,0,0,0,0,0,0,0,0,0,0,0,0,0,0,0,10172,0,0,0,0,0,0,0,0,0,10171,0,0,0,0,0,0,10171,0,0,0,0,0,0,0,0,0,10245,0,0,0,0,0,0,0,0,0,2955,2956,0,0,0,0,3157,3158,0,0,0,0,0,0,0,0,0,0,10176,0,10175,0,0,0,0,0,0,0,0,0,0,0,0,0,0,0,0,0,10171,0,0,0,0,0,0,0,0,0,10171,0,0,0,0,0,0,10171,0,0,0,0,0,0,0,0,0,10245,0,0,0,0,0,0,0,0,0,3055,3056,0,0,0,0,3257,3258,0,0,0,0,0,0,0,0,0,0,0,0,0,0,0,0,0,0,0,0,0,0,0,0,0,0,0,0,0,0,10171,0,0,0,0,0,0,0,0,0,1073751996,0,0,0,0,0,0,10171,0,0,0,0,0,0,0,0,0,10245,0,0,0,0,0,5229,0,0,0,0,0,0,0,5229,10046,0,0,0,2953,2954,0,10175,0,0,0,0,0,0,0,0,0,0,0,0,0,0,0,0,0,0,0,0,0,0,0,0,0,10171,0,0,0,0,0,0,0,0,0,0,0,0,0,0,0,0,10171,0,0,0,0,0,0,0,0,0,10245,0,0,0,0,0,5329,0,0,0,0,0,0,0,5329,0,0,0,0,3053,3054,10049,0,0,10175,0,0,0,0,10166,0,0,0,0,0,0,0,0,0,0,0,0,0,0,0,0,0,0,1073751996,0,0,0,0,0,0,0,0,0,0,0,0,0,0,0,0,1073751996,0,0,0,0,0,0,0,0,0,10249,0,0,0,0,0,0,0,0,0,0,0,0,0,10172,0,0,0,0,0,0,0,10172,0,0,0,0,10175,0,0,0,0,0,0,0,0,0,0,0,0,0,0,0,0,0,0,0,0,0,0,0,10039,0,0,0,0,0,0,0,0,0,0,0,0,0,10040,0,0,0,0,0,0,0,0,0,0,0,0,0,0,0,0,0,0,0,0,0,0,0,10171,0,0,0,0,0,0,0,10171,5230,0,0,0,0,0,0,0,5230,0,0,0,0,0,0,0,0,0,0,0,0,0,0,0,0,0,0,0,0,0,0,0,0,0,0,0,0,0,0,0,0,0,0,0,0,0,0,0,0,0,0,0,0,0,0,0,0,0,0,0,0,0,0,0,0,0,10171,0,0,0,0,0,0,0,10171,5330,0,0,3384,3385,0,0,0,5330,0,10176,0,0,0,0,0,0,0,0,0,0,0,0,0,0,0,0,0,0,0,0,0,0,0,0,0,0,0,0,0,0,0,0,0,0,0,0,0,0,0,0,0,0,0,0,0,0,0,0,0,0,0,0,0,0,0,10171,0,0,0,0,0,0,0,1073751996,0,0,0,0,0,0,0,0,0,0,0,0,0,0,0,0,0,0,0,0,0,0,5401,5402,0,0,0,0,0,0,0,0,0,0,0,0,0,0,0,0,0,0,0,0,0,0,0,0,0,0,0,0,0,0,0,0,0,0,0,0,0,0,0,0,0,0,10171,0,0,0,0,0,0,0,0,0,0,0,0,0,0,0,0,0,0,0,0,0,0,0,0,0,0,0,0,0,0,5501,5502,10292,0,4825,4826,0,0,0,0,0,0,0,0,0,0,0,0,0,0,0,0,0,0,0,0,0,0,0,4819,4820,0,0,0,0,0,0,0,0,0,0,0,0,0,1073751996,0,0,0,0,0,0,0,10172,0,0,0,0,5423,0,0,0,0,0,0,0,0,0,0,0,0,0,0,0,0,0,5426,5424,0,0,4925,4926,0,0,0,0,0,0,0,0,0,0,0,0,0,0,0,0,0,0,0,0,0,0,0,4919,4920,0,0,0,0,0,0,0,0,0,0,0,0,0,0,0,0,0,0,0,0,0,0,0,0,0,5524,0,0,0,0,0,0,0,0,0,0,0,0,0,0,0,0,0,0,0,0,5524,0,0,0,0,0,0,0,0,0,0,10177,0,0,0,0,0,0,0,0,0,0,0,0,0,0,0,0,10177,0,10292,0,0,0,0,0,10173,10171,10171,10171,10171,2147493821,0,0,10173,10171,10171,10171,10171,10171,2147493821,0,0,0,0,0,0,0,0,0,0,0,0,0,0,0,0,0,0,0,0,0,0,0,0,0,0,0,0,0,0,0,10178,0,0,0,0,0,0,0,0,0,0,0,0,0,0,0,0,0,0,0,0,0,0,0,0,0,0,0,10177,0,0,0,0,0,0,0,0,0,0,0,0,0,0,0,0,0,0,0,0,0,0,0,0,0,0,0,0,0,0,0,0,0,0,0,0,0,0,0,0,0,0,0,0,0,0,0,0,0,0,0,0,0,0,0,0,0,0,0,0,0,0,0,0,0,0,0,0,0,0,0,0,0,0,0,0,0,0,0,0,0,0,0,0,0,0,0,0,0,0,0,0,0,0,0,0,0,0,0,0,0,0,0,0,0,0,0,0,0,0]},{"id":4,"name":"buildings-base","type":"tilelayer","visible":true,"opacity":1,"x":0,"y":0,"width":75,"height":50,"data":[0,0,0,0,0,0,0,0,0,0,0,0,0,0,0,0,0,0,0,0,0,0,0,0,0,0,0,0,0,0,0,0,0,0,0,0,0,0,0,0,0,0,0,0,0,0,0,0,0,0,0,0,0,0,0,0,0,0,0,0,0,0,0,0,0,0,0,0,0,0,0,0,0,0,0,0,0,0,0,0,0,0,0,0,0,0,0,0,0,0,0,0,0,0,0,0,0,0,0,0,0,0,0,0,0,0,0,0,0,0,0,0,0,0,0,0,0,0,0,0,0,0,0,0,0,0,0,0,0,0,0,0,0,0,0,0,0,0,0,0,0,0,0,0,0,0,0,0,0,0,0,0,0,0,0,0,0,0,0,0,0,0,0,0,0,0,0,0,0,0,0,0,0,0,0,0,0,0,0,0,0,0,0,0,0,0,0,0,0,0,0,0,0,0,0,0,0,0,0,0,0,0,0,0,0,0,0,0,0,0,0,0,0,0,0,0,0,0,0,0,0,0,0,0,0,0,0,0,0,0,0,0,0,0,0,0,0,0,0,0,0,0,0,0,0,0,0,0,0,0,0,0,0,0,0,0,0,0,0,0,0,0,0,0,0,0,0,0,0,0,0,0,0,0,0,0,0,0,0,0,0,0,0,0,0,0,0,0,0,0,0,0,0,0,0,0,0,0,0,0,0,0,0,0,0,0,0,0,0,0,0,0,0,0,0,0,0,0,0,0,0,0,0,0,0,0,0,0,0,0,0,0,0,0,0,0,0,0,0,0,0,0,0,0,0,0,0,0,0,0,0,0,0,0,0,0,0,0,0,0,0,0,0,0,0,0,0,0,0,0,0,0,0,0,0,0,0,0,0,0,0,0,0,0,0,0,0,0,0,0,0,0,0,0,0,0,0,0,0,0,0,0,0,0,0,0,0,0,0,0,0,0,0,0,0,0,0,0,0,0,0,0,0,0,0,0,0,0,0,0,0,0,0,0,0,4278,4283,4279,4280,4281,4282,4283,4284,4285,0,0,0,0,0,0,0,0,0,0,0,0,0,0,0,0,0,0,0,0,0,0,0,0,0,0,0,0,0,0,0,0,0,0,0,0,0,0,0,0,0,0,0,0,0,0,0,0,0,0,0,0,0,0,0,0,0,0,0,0,0,0,0,0,0,0,4378,4383,4379,4380,4381,4382,4383,4384,4385,0,0,0,0,0,0,0,0,4370,10103,10104,10103,10104,4377,0,4370,10103,10104,10103,10104,4377,0,4370,10103,10104,10103,10104,4377,4370,10103,10104,10103,10104,4377,4370,10103,10104,10103,10104,4377,0,0,0,0,0,0,0,0,0,0,0,0,0,0,0,0,0,0,0,0,0,0,0,0,0,0,4478,10051,10052,4480,4481,4482,10051,10052,4485,0,0,0,0,0,0,0,0,4470,10105,10106,10105,10106,4477,0,4470,10105,10106,10105,10106,4477,0,4470,10105,10106,10105,10106,4477,4470,10105,10106,10105,10106,4477,4470,10105,10106,10105,10106,4477,0,0,0,0,0,0,0,0,0,0,0,0,0,0,0,0,0,0,0,0,0,0,0,0,0,0,4578,10053,10054,4580,4581,4582,10053,10054,4585,0,0,0,0,0,0,0,0,4570,4575,4576,4575,4576,4577,0,4570,4575,4576,4575,4576,4577,0,4570,4575,4576,4575,4576,4577,4570,4575,4576,4575,4576,4577,4570,4575,4576,4575,4576,4577,0,0,0,0,0,0,0,0,0,0,0,0,0,0,0,0,0,0,0,0,0,0,0,0,0,0,4678,4683,4679,4680,4681,4682,4683,4684,4685,0,0,0,0,0,0,0,0,4670,4675,3186,3187,4676,4677,0,4670,4675,3186,3187,4676,4677,0,4670,4675,3186,3187,4676,4677,4670,4675,3186,3187,4676,4677,4670,4675,3186,3187,4676,4677,0,0,0,0,0,0,0,0,0,0,0,0,0,0,0,0,0,0,0,0,0,0,0,0,0,0,0,0,0,0,0,0,0,0,0,0,0,0,0,0,0,0,0,0,0,0,0,0,0,0,0,0,0,0,0,0,0,0,0,0,0,0,0,0,0,0,0,0,0,0,0,0,0,0,0,0,0,0,0,0,0,0,0,0,0,0,0,0,0,0,0,0,0,0,0,0,0,0,0,0,0,0,0,0,0,0,0,0,0,0,0,0,0,0,0,0,0,0,0,0,0,0,0,0,0,0,0,0,0,0,0,0,0,0,0,0,0,0,0,0,0,0,0,0,0,0,0,0,0,0,0,0,0,0,0,0,0,4278,4283,4284,4279,4280,4281,4282,4283,4284,4283,4285,0,0,0,0,0,0,0,0,0,0,0,0,0,0,0,0,0,0,0,0,0,0,0,0,0,0,0,0,0,0,0,0,0,0,0,0,0,0,0,0,0,0,0,0,0,0,0,0,0,0,0,0,0,0,0,0,0,0,0,0,0,0,0,0,4378,4383,4384,4379,4380,4381,4382,4383,4384,4383,4385,0,0,0,0,0,0,0,0,0,0,0,0,0,0,0,0,0,0,0,0,0,0,0,0,0,0,0,0,0,0,0,0,0,0,0,0,0,0,0,0,0,0,0,0,0,0,0,0,0,0,0,0,0,0,0,0,0,0,0,0,0,0,0,0,4478,10051,10052,4479,4480,4481,4482,4483,10051,10052,4485,0,0,0,0,0,0,0,0,0,0,0,0,0,0,0,0,0,0,0,0,0,0,0,0,0,4478,4483,4484,4483,4484,4485,0,0,0,0,0,0,0,0,0,0,0,0,0,0,0,0,0,0,0,0,0,0,0,0,0,0,0,0,0,0,0,0,0,4578,10053,10054,4579,4580,4581,4582,4583,10053,10054,4585,0,0,0,0,0,0,0,0,0,0,0,0,0,0,0,0,0,0,0,0,0,0,0,0,0,4578,10164,4584,4583,10164,4585,0,4478,4483,4484,4483,4485,3327,3328,3329,3330,4470,4475,4476,4477,4470,4475,4476,4475,4477,0,0,0,0,0,0,0,0,0,0,0,0,0,0,4678,4683,4684,4679,4680,4681,4682,4683,4684,4683,4685,0,0,0,0,0,0,0,0,0,0,0,0,0,0,0,0,0,0,0,0,0,0,0,0,0,4678,4683,3186,3187,4684,4685,0,4578,4583,4584,4583,4585,3427,3428,3429,3430,4570,4575,4576,4577,4570,4575,4576,4575,4577,0,0,0,0,0,0,0,0,0,0,0,0,0,0,0,0,0,0,0,0,0,0,0,0,0,0,0,0,0,0,0,0,0,0,0,0,0,0,0,0,0,0,0,0,0,0,0,0,0,0,0,0,0,0,0,0,0,4678,3186,3187,4683,4685,3527,3186,3187,3530,4670,3186,3187,4677,4670,3186,3187,4675,4677,0,0,4478,4483,4484,4483,4484,4485,0,0,0,0,0,0,0,0,0,0,0,0,0,0,0,0,0,0,0,0,0,0,0,0,0,0,0,0,0,0,0,0,0,0,0,0,0,0,0,0,0,0,0,0,0,0,0,0,0,0,0,0,0,0,0,0,0,0,0,0,0,0,0,0,0,0,0,0,0,4578,4583,4584,4583,4584,4585,0,0,0,0,0,0,0,0,0,0,0,0,0,0,0,0,0,0,0,0,0,0,0,0,0,0,0,0,0,0,0,0,0,0,0,0,0,0,0,0,0,0,0,0,0,0,0,0,0,0,0,0,0,0,0,0,0,0,0,0,0,0,0,0,0,0,0,0,0,4678,4683,3186,3187,4684,4685,0,0,0,0,0,0,0,0,0,0,0,0,0,0,0,0,0,0,0,0,0,10117,10123,10118,10118,10118,10123,10119,0,0,0,0,0,0,0,0,0,0,0,0,0,0,0,0,0,0,0,0,0,0,0,0,0,0,0,0,0,0,0,0,0,0,0,0,0,0,0,0,0,0,0,0,0,0,0,0,0,0,0,0,0,0,0,0,0,0,0,0,0,0,0,0,0,0,0,0,10117,10124,10125,10126,10118,10124,10119,0,0,0,0,0,0,0,0,0,0,0,0,0,0,0,0,0,0,0,0,0,0,0,0,0,0,0,0,0,0,0,0,0,0,0,0,0,0,0,0,0,0,0,0,0,0,0,0,0,0,0,0,0,0,0,0,0,0,0,0,0,0,0,0,0,0,0,0,10120,10121,10127,10128,10121,10121,10122,0,0,0,0,0,0,0,0,0,0,0,0,0,0,0,0,0,0,0,0,0,0,0,0,0,0,0,0,0,0,0,0,0,0,0,0,0,0,0,0,0,0,0,0,0,0,0,0,0,0,0,0,0,0,0,0,0,0,0,0,0,0,0,0,0,0,0,0,0,0,0,0,0,0,0,0,0,0,0,0,0,0,0,0,0,0,0,0,0,0,0,0,0,0,0,0,0,0,0,0,0,0,0,0,0,0,0,0,0,0,0,0,0,0,0,0,0,0,0,0,0,0,0,0,0,0,0,0,0,0,0,0,0,0,0,0,0,0,0,0,0,0,0,0,0,0,0,0,0,0,0,0,0,0,0,0,0,0,0,0,0,0,0,0,0,0,0,0,0,0,0,0,0,0,0,0,0,0,0,0,0,0,0,0,0,0,0,0,0,0,0,0,0,0,0,0,0,0,0,0,0,0,0,0,0,0,0,0,0,0,0,0,0,0,0,0,0,0,0,0,0,0,0,0,0,0,0,0,0,0,0,0,0,0,0,0,0,0,0,0,0,0,0,0,0,0,0,0,0,0,0,0,0,0,0,0,0,0,0,0,0,0,0,0,0,0,0,0,0,0,0,0,0,0,0,0,0,0,0,0,0,0,0,0,0,0,0,0,0,0,0,0,0,0,0,0,0,0,0,0,0,0,0,0,0,0,0,0,0,0,0,0,0,0,0,0,0,0,0,0,0,0,0,0,0,0,0,0,0,0,0,0,0,0,0,0,0,0,0,0,0,0,0,0,0,0,0,0,0,0,0,0,0,0,0,0,0,0,0,0,0,0,0,0,0,0,0,0,0,0,0,0,0,0,0,0,0,0,0,0,0,0,0,0,0,0,0,0,0,0,0,0,0,0,0,0,0,0,0,0,0,0,0,0,0,0,0,0,0,0,0,0,0,0,0,0,0,0,0,0,0,0,0,0,0,0,0,0,0,0,0,0,0,0,0,0,0,0,0,0,0,0,0,0,0,0,0,0,0,0,0,0,0,0,0,0,0,0,0,0,0,0,0,0,0,0,0,0,0,0,0,0,0,0,0,0,0,0,0,0,0,0,0,0,0,0,0,0,0,0,0,0,0,0,0,0,0,0,0,0,0,0,0,0,0,0,0,0,0,0,0,0,0,0,0,0,0,0,0,0,0,0,0,0,0,0,0,0,0,0,0,0,0,0,0,0,0,0,0,0,0,0,0,0,0,0,0,0,0,0,0,0,0,0,0,10273,10274,0,0,0,0,0,0,0,0,10273,10274,0,0,0,0,0,0,0,0,0,0,0,0,0,0,0,0,0,3127,3128,3129,3128,3129,3128,3130,0,0,0,0,0,0,0,0,0,0,0,0,0,0,0,0,0,0,0,0,0,0,0,4470,4475,4477,0,0,0,0,0,0,0,0,0,0,0,0,0,0,0,0,0,0,0,0,0,0,0,0,0,0,0,0,0,0,0,0,0,0,0,0,0,0,0,0,0,0,3227,3228,3229,3228,3229,3228,3230,0,0,0,0,0,0,0,0,0,0,0,0,0,0,0,0,0,0,0,0,0,0,0,4570,4575,4577,0,0,0,0,0,0,0,0,0,0,0,0,0,0,0,0,0,0,0,0,0,0,0,0,0,0,0,0,0,0,0,0,0,0,0,0,0,0,0,0,0,0,3327,3328,3329,3328,3329,3328,3330,0,0,0,0,0,0,0,0,0,0,0,0,0,0,0,0,0,0,0,0,0,0,0,3186,3187,4677,0,0,0,0,0,0,0,0,0,0,0,0,0,0,0,0,0,0,0,0,0,0,0,0,0,0,0,0,0,0,0,0,0,0,4478,4483,4484,3357,3358,4483,4484,4485,3427,3428,3429,3428,3429,3428,3430,0,0,0,0,0,0,0,0,0,0,0,0,0,0,0,0,0,0,0,0,0,0,0,0,0,0,0,0,0,0,0,0,0,0,0,0,0,0,0,0,0,0,0,0,0,0,0,0,0,0,0,0,0,0,0,0,0,0,0,0,4578,4583,4584,3457,3458,4583,4584,4585,3527,3528,3186,3187,3529,3528,3530,0,0,0,0,0,0,0,0,0,0,0,0,0,0,0,0,0,0,0,0,0,0,0,0,0,0,0,0,0,0,0,0,0,0,0,0,0,0,0,0,0,0,0,0,0,0,0,0,0,0,0,0,0,0,0,0,0,0,0,0,4678,3188,3189,4683,4684,3188,3189,4685,0,0,0,0,0,0,0,0,0,0,0,0,0,0,0,0,0,0,0,0,0,0,0,0,0,0,0,0,0,0,0,0,0,0,0,0,0,0,0,0,0,0,0,0,0,0,0,0,0,0,0,0,0,0,0,0,0,0,0,0,0,0,0,0,0,0,0,0,0,0,0,0,0,0,0,0,0,0,0,0,0,0,0,0,0,0,0,0,0,0,0,0,0,0,0,0,0,0,0,0,0,0,0,0,0,0,0,0,0,0,0,0,4370,10103,10104,10103,10104,4377,0,4370,10103,10104,10103,10104,4377,0,0,0,0,4370,10103,10104,10103,10104,4377,0,0,0,0,0,0,0,0,0,0,0,0,0,0,0,0,0,0,0,0,0,0,0,0,0,0,0,0,0,0,0,0,0,0,0,0,0,0,0,0,0,0,0,0,0,4478,4483,4485,0,0,0,0,4470,10105,10106,10105,10106,4477,0,4470,10105,10106,10105,10106,4477,0,0,0,0,4470,10105,10106,10105,10106,4477,0,0,0,0,0,0,0,0,0,0,0,0,0,0,0,0,0,0,0,0,0,0,0,0,0,0,0,0,0,0,0,0,0,0,0,0,0,0,0,0,0,0,0,0,0,4578,4583,4585,0,0,0,0,4570,4575,4576,4575,4576,4577,0,4570,4575,4576,4575,4576,4577,0,0,0,0,4570,4575,4576,4575,4576,4577,0,0,0,0,0,0,0,0,0,0,0,0,0,0,0,0,0,0,0,0,0,0,0,0,0,0,0,0,0,0,0,0,0,0,0,0,0,0,0,0,0,0,0,0,0,3186,3187,4685,0,0,0,0,4670,4675,3186,3187,4676,4677,0,4670,4675,3186,3187,4676,4677,0,0,0,0,4670,4675,3186,3187,4676,4677,0,0,0,0,0,0,0,0,0,0,0,0,0,0,0,0,0,0,0,0,0,0,0,0,0,0,0,0,0,0,0,0,0,0,0,0,0,0,0,0,0,0,0,0,0,0,0,0,0,0,0,0,0,0,0,0,0,0,0,0,0,0,0,0,0,0,0,0,0,0,0,0,0,0,0,0,0,0,0,0,0,0,0,0,0,0,0,0,0,0,0,0,0,0,0,0,0,0,0,0,0,0,0,0,0,0,0,0,0,0,0,0,0,0,0,0,0,0,0,0,0,0,0,0,0,0,0,0,0,0,0,0,0,0,0,0,0,0,0,0,0,0,0,0,0,0,0,0,0,0,0,0,0,0,0,0,0,0,0,0,0,0,0,0,0,0,0,0,0,0,0,0,0,0,0,0,0,0,0,0,0,0,0,0,0,0,0,0,0,0,0,0,0,0,0,0,0,0,0,0,0,0,0,0,0,0,0,0,0,0,0,0,0,0,0,0,0,0,0,0,0,0,0,0,0,0,0,0,0,0,0,0,0,4370,10103,10104,10103,10104,4377,0,0,4370,10103,10104,10103,10104,4377,0,0,0,0,0,0,0,0,0,0,0,0,0,0,0,0,0,0,0,0,0,0,0,0,0,0,0,0,0,0,0,0,0,0,0,0,0,0,0,0,0,0,0,0,0,0,0,0,0,0,0,0,0,0,0,0,0,0,0,0,0,4470,10105,10106,10105,10106,4477,0,0,4470,10105,10106,10105,10106,4477,0,0,0,0,0,0,0,0,0,0,0,0,0,0,0,0,0,0,0,0,0,0,0,0,0,0,0,0,0,0,0,0,0,0,0,0,0,0,0,0,0,0,0,0,0,0,0,0,0,0,0,0,0,0,0,0,0,0,0,0,0,4570,4575,4576,4575,4576,4577,0,0,4570,4575,4576,4575,4576,4577,0,0,0,0,0,0,0,0,0,0,0,0,0,0,0,0,0,0,0,0,0,0,0,0,0,0,0,0,0,0,0,0,0,0,0,0,0,0,0,0,0,0,0,0,0,0,0,0,0,0,0,0,0,0,0,0,0,0,0,0,0,4670,4675,3186,3187,4676,4677,0,0,4670,4675,3186,3187,4676,4677,0,0,0,0,0,0,0,0,0,0,0,0,0,0,0,0,0,0,0,0,0,0,0,0,0,0,0,0,0,0,0,0,0,0,0,0,0,0,0,0,0,0,0,0,0,0,0,0,0,0,0,0,0,0,0,0,0,0,0,0,0,0,0,0,0,0,0,0,0,0,0,0,0,0,0,0,0,0,0,0,0,0,0,0,0,0,0,0,0,0,0,0,0,0,0,0,0,0,0,0,0,0,0,0,0,0,0,0,0,0,0,0,0,0,0,0,0,0,0,0,0,0,0,0,0,0,0,0,0,0,0,0,0,0,0,0,0,0,0,0,0,0,0,0,0,0,0,0,0,0,0,0,0,0,0,0,0,0,0,0,0,0,0,0,0,0,0,0,0,0,0,0,0,0,0,0,0,0,0,0,0,0,0,0,0,0,0,0,0,0,0,0,0,0,0,0,0,0,0,0,0,0,0,0,0,0,0,0,0,0,0,0,0,0,0,0,0,0,0,0,0,0,0,0,0,0,0,0,0,0,0,0,0,0,0,0,0,0,0,0,0,0,0,0,0,0]},{"id":5,"name":"buildings-top","type":"tilelayer","visible":true,"opacity":1,"x":0,"y":0,"width":75,"height":50,"data":[0,0,0,0,0,0,0,0,0,0,0,0,0,0,0,0,0,0,0,0,0,0,0,0,0,0,0,0,0,0,0,0,0,0,0,0,0,0,0,0,0,0,0,0,0,0,0,0,0,0,0,0,0,0,0,0,0,0,0,0,0,0,0,0,0,0,0,0,0,0,0,0,0,0,0,0,0,0,0,0,0,0,0,0,0,0,0,0,0,0,0,0,0,0,0,0,0,0,0,0,0,0,0,0,0,0,0,0,0,0,0,0,0,10291,0,0,0,0,0,0,0,0,0,0,0,0,0,0,0,0,0,0,0,0,0,0,0,0,0,0,0,0,0,0,0,0,0,0,0,0,0,0,0,0,0,0,10165,0,0,0,0,0,0,10165,0,0,0,0,0,0,10165,0,0,0,0,0,10165,0,0,0,0,0,10165,0,0,0,0,0,0,0,0,0,0,0,0,0,0,0,0,0,0,0,0,0,0,0,0,0,0,0,0,0,0,0,0,0,0,0,0,0,0,0,0,0,0,0,0,10081,10082,10082,10082,10082,10083,0,10071,10072,10072,10072,10072,10073,0,10071,10072,10072,10072,10072,10073,10071,10072,10072,10072,10072,10073,10081,10082,10082,10082,10082,10083,0,0,0,0,0,0,0,0,0,0,0,0,0,0,0,0,0,0,0,0,0,0,0,0,0,0,194,195,196,197,195,196,197,195,198,0,0,0,0,0,0,0,0,10084,10085,10085,10085,10085,10086,0,10074,10075,10075,10075,10075,10076,0,10074,10075,10075,10075,10075,10076,10074,10075,10075,10075,10075,10076,10084,10085,10085,10085,10085,10086,0,0,0,0,0,0,0,0,0,0,0,0,0,0,0,0,0,0,0,0,0,0,0,0,0,0,4178,4183,4179,4180,4181,4182,4183,4184,4185,0,0,0,0,0,0,0,0,10084,10085,10085,10085,10085,10086,0,10074,10075,10075,10075,10075,10076,0,10074,10075,10075,10075,10075,10076,10074,10075,10075,10075,10075,10076,10084,10085,10085,10085,10085,10086,0,0,0,0,0,0,0,0,0,0,0,0,0,0,0,0,0,0,0,0,0,0,0,0,0,0,0,0,0,0,0,0,0,0,0,0,0,0,0,0,0,0,0,10087,10088,10088,10088,10088,10089,0,10077,10078,10078,10078,10078,10079,0,10077,10078,10078,10078,10078,10079,10077,10078,10078,10078,10078,10079,10087,10088,10088,10088,10088,10089,0,0,0,0,0,0,0,0,0,0,0,0,0,0,0,0,0,0,0,0,0,0,0,0,0,0,0,0,0,0,0,0,0,0,0,0,0,0,0,0,0,0,0,0,0,0,0,0,0,0,0,0,0,0,0,0,0,0,0,0,0,0,0,0,0,0,0,0,0,0,0,0,0,0,0,0,0,0,0,0,0,0,0,0,0,0,0,0,0,0,0,0,0,0,0,0,0,0,0,0,0,0,0,0,0,0,0,0,0,0,0,0,0,0,0,0,0,0,0,0,0,10266,0,0,0,0,0,0,10266,0,0,0,0,0,0,10266,0,0,0,0,0,10266,0,0,0,0,0,10266,0,0,0,0,0,0,0,0,0,0,0,0,0,0,0,0,0,0,0,0,0,0,0,0,0,0,0,0,0,0,0,0,0,0,0,0,0,0,0,0,0,0,0,0,0,0,0,3086,3087,10265,0,0,0,0,3086,3087,10265,0,0,0,0,3086,3087,10265,0,0,0,3086,3087,10265,0,0,0,3086,3087,10265,0,0,0,0,0,0,0,0,194,195,196,197,195,196,197,195,196,197,198,0,0,0,0,0,0,0,0,0,0,0,0,0,0,0,0,0,0,0,0,0,0,0,0,0,0,0,0,0,0,0,0,0,0,0,0,0,0,0,0,0,0,0,0,0,0,0,0,0,0,0,0,0,0,0,0,0,0,0,0,0,0,0,0,294,295,296,297,295,296,297,295,296,297,298,0,0,0,0,0,0,0,0,0,0,0,0,0,0,0,0,0,0,0,0,0,0,0,0,0,0,0,0,0,10165,0,0,0,0,0,0,0,0,0,0,0,0,0,0,0,0,0,0,0,0,0,0,0,0,0,0,0,0,0,0,0,0,0,0,4178,4183,4184,4179,4180,4181,4182,4183,4184,4183,4185,0,0,0,0,0,0,0,0,0,0,0,0,0,0,0,0,0,0,0,0,0,0,0,0,0,10061,10062,10062,10062,10062,10063,0,0,0,0,10165,0,0,0,0,0,0,0,0,0,0,0,0,0,0,0,0,0,0,0,0,0,0,0,0,0,0,0,0,0,0,0,0,0,0,0,0,0,0,0,0,0,0,0,0,0,0,0,0,0,0,0,0,0,0,0,0,0,0,0,0,0,0,0,0,10064,10065,10065,10065,10065,10066,0,10071,10072,10072,10072,10073,194,195,196,198,10071,10072,10072,10073,194,195,196,197,198,0,0,0,0,0,0,0,0,0,0,0,0,0,0,0,0,0,0,0,0,0,0,0,0,0,0,0,0,0,0,0,0,0,0,0,0,0,0,0,0,0,0,0,0,0,0,0,0,0,0,10067,10068,10068,10068,10068,10069,0,10074,10075,10075,10075,10076,294,295,296,298,10074,10075,10075,10076,294,295,296,297,298,0,0,0,0,0,0,10165,0,0,0,0,0,0,0,0,0,0,0,0,0,0,0,0,0,0,0,0,0,0,0,0,0,0,0,0,0,0,0,0,0,0,0,0,0,0,0,0,0,0,0,0,0,0,0,0,0,0,10077,10078,10078,10078,10079,594,595,596,598,3557,3558,3559,3562,594,595,596,597,598,0,0,10071,10072,10072,10072,10072,10073,0,0,0,0,0,0,0,0,0,0,0,0,0,0,0,0,0,0,0,0,0,0,0,10111,10112,0,0,0,0,0,0,0,0,0,0,0,0,0,0,0,0,0,0,0,3086,3087,0,0,0,0,0,3147,3148,0,0,0,0,0,3657,3658,3659,3662,0,0,0,0,0,0,0,10074,10075,10075,10075,10075,10076,0,0,0,0,0,0,0,0,0,0,0,0,0,0,0,0,0,0,0,0,0,0,0,10115,10116,0,0,0,0,0,0,0,0,0,0,0,0,0,0,0,0,0,0,0,0,0,0,0,0,0,3086,3087,0,0,0,3086,3087,0,0,3086,3087,0,0,3086,3087,0,0,0,0,3557,3558,3559,3560,3561,3562,0,0,0,0,0,0,0,0,0,0,0,0,0,0,0,0,0,0,0,0,0,10071,10072,10113,10114,10072,10072,10073,0,0,0,0,0,0,0,0,0,0,0,0,0,0,0,0,0,0,0,0,0,0,0,0,0,0,0,0,0,0,0,0,0,0,0,0,0,0,0,0,0,3657,3658,3659,3660,3661,3662,0,0,0,0,0,0,0,0,0,0,0,0,0,0,0,0,0,0,0,0,0,10074,10075,10113,10114,10075,10075,10076,0,0,0,0,0,0,0,0,0,0,0,0,0,0,0,0,0,0,0,0,0,0,0,0,0,0,0,0,0,0,0,0,0,0,0,0,0,0,0,0,0,0,0,3086,3087,0,0,0,0,0,0,0,0,0,0,0,0,0,0,0,0,0,0,0,0,0,0,0,10077,10078,10113,10114,10078,10078,10079,0,0,0,0,0,0,0,0,0,0,0,0,0,0,0,0,0,0,0,0,0,0,0,0,0,0,0,0,0,0,0,0,0,0,0,0,0,0,0,0,0,0,0,0,0,0,0,0,0,0,0,0,0,0,0,0,0,0,0,0,0,0,0,0,0,0,0,0,0,0,0,0,0,0,0,0,0,0,0,0,0,0,0,0,0,0,0,0,0,0,0,0,0,0,0,0,0,0,0,0,0,0,0,0,0,0,0,0,0,0,0,0,0,0,0,0,0,0,0,0,0,0,0,0,0,0,0,0,0,0,0,0,0,0,0,0,0,0,0,0,0,0,0,0,0,0,0,0,0,0,0,0,0,0,0,0,0,0,0,0,0,0,0,0,10291,0,0,0,0,0,0,0,0,0,0,0,0,0,0,0,0,0,0,0,0,0,0,0,0,0,0,0,0,0,0,0,10258,0,0,0,10258,0,0,0,0,0,0,0,0,0,0,0,0,0,0,0,0,0,0,0,0,0,0,0,0,0,0,0,0,0,0,0,0,0,0,0,0,0,0,0,0,0,0,0,0,0,0,0,0,0,0,0,0,0,0,0,0,0,0,0,0,0,0,0,0,0,0,0,0,0,0,0,0,0,0,0,0,0,0,0,0,0,0,0,0,0,0,0,0,0,0,0,0,0,0,0,0,0,0,0,0,0,0,0,0,0,0,0,0,0,0,0,0,0,0,0,0,0,0,0,0,0,0,0,0,0,0,0,0,0,0,0,0,0,0,0,0,0,0,0,0,0,0,0,0,0,0,0,0,0,0,0,0,0,0,0,0,0,0,0,0,0,0,0,0,0,0,0,0,0,0,0,0,0,0,0,0,0,0,0,0,0,0,0,0,0,0,0,0,0,0,0,0,0,0,0,0,0,0,0,0,0,0,0,0,0,0,0,0,0,0,0,0,0,0,0,0,0,0,0,0,0,0,0,0,0,0,0,0,0,0,0,0,0,0,0,0,0,0,0,0,0,0,0,0,0,0,0,0,0,0,0,0,0,0,0,0,0,0,0,0,0,0,0,0,0,0,0,0,0,0,0,0,0,0,0,0,0,0,0,0,0,0,0,0,0,0,0,0,0,0,0,0,0,0,0,0,0,0,0,0,0,0,0,0,0,0,0,0,0,0,0,0,0,0,0,0,0,0,0,0,0,0,0,0,0,0,0,0,0,0,0,0,0,0,0,0,0,0,0,10254,10256,10256,0,0,10256,10254,10256,0,0,0,0,0,0,10256,10256,10256,10256,10254,10256,0,0,10256,10256,10254,10256,10256,10256,10256,10256,10254,10258,0,0,0,10258,10254,0,10256,10256,10256,10256,10254,10256,10256,10256,10256,10256,10256,10256,10256,10256,10256,10256,10254,10256,10256,10256,10256,10256,10254,0,0,0,0,10291,0,0,0,0,0,0,0,0,0,0,0,0,0,0,0,0,0,0,0,0,0,0,0,0,0,0,0,0,0,0,0,0,0,0,0,0,0,0,0,0,0,0,0,0,0,0,0,0,0,0,0,0,0,194,195,196,197,195,196,198,0,0,0,0,0,0,0,0,0,0,0,0,0,0,0,0,0,0,0,0,0,0,0,10081,10082,10083,0,0,0,0,0,0,0,0,0,0,0,0,0,10271,10272,0,0,0,0,0,0,0,0,10271,10272,0,0,0,0,0,0,0,0,0,10061,10062,10062,10062,10062,10062,10062,10063,3027,3028,3029,3028,3029,3028,3030,0,0,0,0,0,0,0,0,0,0,0,0,0,0,0,0,0,0,0,0,0,0,0,10087,10088,10089,0,0,0,0,0,0,0,0,0,0,0,0,0,0,0,0,0,0,0,0,0,0,0,0,0,0,0,0,0,0,0,0,0,0,10064,10065,10065,10065,10065,10065,10065,10066,0,0,0,0,0,0,0,0,0,0,0,0,0,0,0,0,0,0,0,0,0,0,0,0,0,0,0,0,0,0,0,0,0,0,0,0,0,0,0,0,0,0,0,0,0,0,0,0,0,0,0,0,0,0,0,0,0,0,0,0,0,0,0,0,0,0,0,10064,10065,10065,10065,10065,10065,10065,10066,0,0,0,0,0,0,0,0,0,0,0,0,0,0,0,0,0,0,0,0,0,0,0,0,0,0,0,0,0,0,3086,3087,0,0,0,0,0,0,0,0,0,10165,0,0,0,0,0,0,10165,0,0,0,0,0,0,0,0,0,10165,0,0,0,0,0,0,0,0,10067,10068,10068,10068,10068,10068,10068,10069,0,0,0,0,0,0,0,0,0,0,0,0,0,0,0,0,0,0,0,0,0,0,0,0,0,0,0,0,0,0,0,0,0,0,0,0,0,10081,10082,10082,10082,10082,10083,0,10071,10072,10072,10072,10072,10073,0,0,0,0,10071,10072,10072,10072,10072,10073,0,0,0,0,0,0,0,0,0,0,0,0,0,0,0,0,0,3086,3087,0,0,0,0,0,0,0,0,0,0,0,0,0,0,0,0,0,0,0,0,0,0,0,0,0,0,0,0,0,0,0,0,0,10084,10085,10085,10085,10085,10086,0,10074,10075,10075,10075,10075,10076,0,0,0,0,10074,10075,10075,10075,10075,10076,0,0,0,0,0,0,0,0,3088,3089,0,0,3088,3089,0,0,0,0,0,0,0,0,0,0,0,0,0,0,0,0,0,0,0,0,0,0,0,0,0,0,0,0,0,0,0,0,0,0,0,0,0,0,10084,10085,10085,10085,10085,10086,0,10074,10075,10075,10075,10075,10076,0,0,0,0,10074,10075,10075,10075,10075,10076,0,0,0,0,0,0,0,0,0,0,0,0,0,0,0,0,0,0,0,0,0,0,0,0,0,0,0,0,0,0,0,0,0,0,0,0,0,0,0,0,0,0,0,0,0,10071,10072,10073,0,0,0,0,10087,10088,10088,10088,10088,10089,0,10077,10078,10078,10078,10078,10079,0,0,0,0,10077,10078,10078,10078,10078,10079,0,0,0,0,0,0,0,0,0,0,0,0,0,0,0,0,0,0,0,0,0,0,0,0,0,0,0,0,0,0,0,0,0,0,0,0,0,0,0,0,0,0,0,0,0,10077,10078,10079,0,0,0,0,0,0,0,0,0,0,0,0,0,0,0,0,0,0,0,0,0,0,0,0,0,0,0,0,0,0,0,0,0,3357,0,0,0,0,0,0,0,3358,0,0,0,0,0,0,0,0,0,0,0,0,0,0,0,0,0,0,0,0,0,0,0,0,0,0,0,0,0,0,0,0,0,0,0,0,0,0,0,0,10266,0,0,0,0,0,0,10266,0,0,0,0,0,0,0,0,0,10266,0,0,0,0,0,0,0,0,3457,0,0,0,0,0,0,0,3458,0,0,0,0,0,0,0,0,0,0,0,0,0,0,0,0,0,0,0,0,0,0,0,0,0,0,0,0,0,0,3086,3087,0,0,0,0,0,0,0,3086,3087,10265,0,0,0,0,3086,3087,10265,0,0,0,0,0,0,0,3086,3087,10265,0,0,0,0,0,0,0,0,0,0,0,0,0,10165,0,0,0,0,0,0,0,10165,0,0,0,0,0,0,0,0,0,0,0,0,0,0,0,0,0,0,0,0,0,0,0,0,0,0,0,0,0,0,0,0,0,0,0,0,0,0,0,0,0,0,0,0,0,0,0,0,0,0,0,0,0,0,0,0,0,0,0,0,0,0,10071,10072,10072,10072,10072,10073,0,0,10071,10072,10072,10072,10072,10073,0,0,0,0,0,0,0,0,0,0,0,0,0,0,0,0,0,0,0,0,0,0,0,0,0,0,0,0,0,0,0,0,0,0,0,0,0,0,0,0,0,0,0,0,0,0,0,0,0,0,0,0,0,0,0,0,0,0,0,0,0,10074,10075,10075,10075,10075,10076,0,0,10074,10075,10075,10075,10075,10076,0,0,0,0,0,0,0,0,0,0,0,0,0,0,0,0,0,0,0,0,0,0,0,0,0,0,0,0,0,0,0,0,0,0,0,0,0,0,0,0,0,0,0,0,0,0,0,0,0,0,0,0,0,0,0,0,0,0,0,0,0,10077,10078,10078,10078,10078,10079,0,0,10077,10078,10078,10078,10078,10079,0,0,0,0,0,0,0,0,0,0,0,0,0,0,0,0,0,0,0,0,0,0,0,0,0,0,0,0,0,0,0,0,0,0,0,0,0,0,0,0,0,0,0,0,0,0,0,0,0,0,0,0,0,0,0,0,0,0,0,0,0,0,0,0,0,0,0,0,0,0,0,0,0,0,0,0,0,0,0,0,0,0,0,0,0,0,0,0,0,0,0,0,0,0,0,0,0,0,0,0,10291,0,0,0,0,0,0,0,0,0,0,0,0,0,0,0,0,0,0,0,0,0,0,0,0,0,0,0,0,0,0,0,0,0,0,0,0,0,0,10266,0,0,0,0,0,0,0,10266,0,0,0,0,0,0,0,0,0,0,0,0,0,0,0,0,0,0,0,0,0,0,0,0,0,0,0,0,0,0,0,0,0,0,0,0,0,0,0,0,0,0,0,0,0,0,0,0,0,0,0,0,0,0,0,0,0,0,0,0,0,0,0,0,0,3086,3087,10265,0,0,0,0,0,3086,3087,10265,0,0,0,0,0,0,0,0,0,0,0,0,0,0,0,0,0,0,0,0,0,0,0,0,0,0,0,0,0,0,0,0,0,0,0,0,0,0,0,0,0,0,0,0,0,0,0,0,0,0,0,0,0,0,0,0,10291,0,0,0,0,0,0,0,0,0,0,0,0,0,0,0,0,0,0,0,0,0,0,0,0,0,0,0,0,0,0,0,0,0,0,0,0,0,0,0,0,0,0,0,0,0,0,0,0,0,0,0,0,0,0,0,0,0,0,0,0,0,0,0,0,0,0,0,0,0,0,0,0,0,0,0,0,0,0,0,0,0,0,0,0,0,0,0,0,0,0,0,0,0,0,0,0,0,0,0,0,0,0,0,0,0,0,0,0,0,0,0,0,0,0,0,0,0,0,0,0,0,0,0,0,0,0,0,0,0,0,0,0,0,0,0,0,0,0,0,0,0,0,0,0,0,0,0,0,0,0,0,0,0,0,0,0,0,0,0,0,0,0,0,0,0,0,0,0,0,0,0,0,0,0,0,0,0,0,0,0,0,0,0,0,0,0,0,0,0,0,0,0,0,0,0,0,0,0,0,0,0,0,0,0,0,0,0,0,0,0,0,0,0,0,0,0,0,0,0,0,0,0,0,0,0,0,0,0,0,0,0,0,0,0,0,0,0,0,0,0,0,0,0,0,0,0,0,0,0,0,0,0,0,0,0,0,0,0,0,0,0,0,0,0,0]},{"id":6,"name":"collision","type":"objectgroup","visible":true,"opacity":1,"x":0,"y":0,"draworder":"topdown","objects":[{"id":1,"name":"","type":"","rotation":0,"visible":true,"x":1040,"y":704,"width":160,"height":96},{"id":2,"name":"","type":"","rotation":0,"visible":true,"x":1056,"y":640,"width":144,"height":64},{"id":3,"name":"","type":"","rotation":0,"visible":true,"x":1088,"y":592,"width":112,"height":48},{"id":4,"name":"","type":"","rotation":0,"visible":true,"x":1104,"y":496,"width":96,"height":96},{"id":5,"name":"","type":"","rotation":0,"visible":true,"x":1120,"y":0,"width":80,"height":496},{"id":6,"name":"","type":"","rotation":0,"visible":true,"x":144,"y":208,"width":80,"height":96},{"id":7,"name":"","type":"","rotation":0,"visible":true,"x":224,"y":208,"width":64,"height":96},{"id":8,"name":"","type":"","rotation":0,"visible":true,"x":288,"y":208,"width":64,"height":96},{"id":9,"name":"","type":"","rotation":0,"visible":true,"x":352,"y":208,"width":80,"height":96},{"id":10,"name":"","type":"","rotation":0,"visible":true,"x":464,"y":240,"width":96,"height":96},{"id":11,"name":"","type":"","rotation":0,"visible":true,"x":32,"y":48,"width":96,"height":128},{"id":12,"name":"","type":"","rotation":0,"visible":true,"x":32,"y":192,"width":96,"height":96},{"id":13,"name":"","type":"","rotation":0,"visible":true,"x":144,"y":48,"width":96,"height":128},{"id":14,"name":"","type":"","rotation":0,"visible":true,"x":256,"y":48,"width":96,"height":128},{"id":15,"name":"","type":"","rotation":0,"visible":true,"x":352,"y":48,"width":96,"height":128},{"id":16,"name":"","type":"","rotation":0,"visible":true,"x":448,"y":48,"width":96,"height":128},{"id":17,"name":"","type":"","rotation":0,"visible":true,"x":656,"y":144,"width":176,"height":128},{"id":18,"name":"","type":"","rotation":0,"visible":true,"x":960,"y":48,"width":144,"height":112},{"id":19,"name":"","type":"","rotation":0,"visible":true,"x":896,"y":240,"width":112,"height":128},{"id":20,"name":"","type":"","rotation":0,"visible":true,"x":624,"y":464,"width":128,"height":112},{"id":21,"name":"","type":"","rotation":0,"visible":true,"x":752,"y":448,"width":112,"height":112},{"id":22,"name":"","type":"","rotation":0,"visible":true,"x":640,"y":640,"width":96,"height":112},{"id":23,"name":"","type":"","rotation":0,"visible":true,"x":768,"y":640,"width":96,"height":112},{"id":24,"name":"","type":"","rotation":0,"visible":true,"x":144,"y":528,"width":96,"height":128},{"id":25,"name":"","type":"","rotation":0,"visible":true,"x":256,"y":528,"width":96,"height":128},{"id":26,"name":"","type":"","rotation":0,"visible":true,"x":416,"y":528,"width":96,"height":128},{"id":27,"name":"","type":"","rotation":0,"visible":true,"x":288,"y":464,"width":32,"height":32},{"id":28,"name":"","type":"","rotation":0,"visible":true,"x":448,"y":464,"width":32,"height":32},{"id":29,"name":"","type":"","rotation":0,"visible":true,"x":32,"y":464,"width":48,"height":80},{"id":30,"name":"","type":"","rotation":0,"visible":true,"x":32,"y":576,"width":48,"height":80},{"id":31,"name":"","type":"","rotation":0,"visible":true,"x":372.8,"y":324.8,"width":6.4,"height":11.2},{"id":32,"name":"","type":"","rotation":0,"visible":true,"x":372.8,"y":340.8,"width":6.4,"height":11.2},{"id":33,"name":"","type":"","rotation":0,"visible":true,"x":420.8,"y":324.8,"width":6.4,"height":11.2},{"id":34,"name":"","type":"","rotation":0,"visible":true,"x":420.8,"y":340.8,"width":6.4,"height":11.2},{"id":35,"name":"","type":"","rotation":0,"visible":true,"x":384,"y":320,"width":32,"height":32},{"id":36,"name":"","type":"","rotation":0,"visible":true,"x":144,"y":320,"width":16,"height":32},{"id":37,"name":"","type":"","rotation":0,"visible":true,"x":160,"y":320,"width":16,"height":32},{"id":38,"name":"","type":"","rotation":0,"visible":true,"x":176,"y":320,"width":16,"height":32},{"id":39,"name":"","type":"","rotation":0,"visible":true,"x":192,"y":320,"width":16,"height":32},{"id":40,"name":"","type":"","rotation":0,"visible":true,"x":208,"y":320,"width":16,"height":32},{"id":41,"name":"","type":"","rotation":0,"visible":true,"x":240,"y":320,"width":16,"height":32},{"id":42,"name":"","type":"","rotation":0,"visible":true,"x":288,"y":320,"width":16,"height":32},{"id":43,"name":"","type":"","rotation":0,"visible":true,"x":320,"y":320,"width":16,"height":32},{"id":44,"name":"","type":"","rotation":0,"visible":true,"x":336,"y":320,"width":16,"height":32},{"id":45,"name":"","type":"","rotation":0,"visible":true,"x":352,"y":320,"width":16,"height":32},{"id":46,"name":"","type":"","rotation":0,"visible":true,"x":432,"y":320,"width":16,"height":32},{"id":47,"name":"","type":"","rotation":0,"visible":true,"x":432,"y":352,"width":16,"height":16},{"id":48,"name":"","type":"","rotation":0,"visible":true,"x":1120,"y":384,"width":80,"height":16},{"id":49,"name":"","type":"","rotation":0,"visible":true,"x":1120,"y":416,"width":80,"height":16},{"id":50,"name":"","type":"","rotation":0,"visible":true,"x":1093.6,"y":452.8,"width":4.8,"height":11.2},{"id":51,"name":"","type":"","rotation":0,"visible":true,"x":452.0,"y":340.0,"width":8.0,"height":12.0},{"id":52,"name":"","type":"","rotation":0,"visible":true,"x":241.6,"y":308.8,"width":12.8,"height":11.2},{"id":53,"name":"","type":"","rotation":0,"visible":true,"x":337.6,"y":308.8,"width":12.8,"height":11.2},{"id":54,"name":"","type":"","rotation":0,"visible":true,"x":433.6,"y":297.6,"width":28.8,"height":19.2},{"id":55,"name":"","type":"","rotation":0,"visible":true,"x":435.2,"y":308.8,"width":9.6,"height":11.2},{"id":56,"name":"","type":"","rotation":0,"visible":true,"x":147.2,"y":307.2,"width":9.6,"height":12.8},{"id":57,"name":"","type":"","rotation":0,"visible":true,"x":419.2,"y":372.8,"width":9.6,"height":11.2},{"id":58,"name":"","type":"","rotation":0,"visible":true,"x":64,"y":361.6,"width":32,"height":6.4},{"id":59,"name":"","type":"","rotation":0,"visible":true,"x":116.0,"y":324.0,"width":8.0,"height":12.0},{"id":60,"name":"","type":"","rotation":0,"visible":true,"x":432,"y":345.6,"width":32,"height":6.4},{"id":61,"name":"","type":"","rotation":0,"visible":true,"x":464,"y":336,"width":16,"height":16},{"id":62,"name":"","type":"","rotation":0,"visible":true,"x":240,"y":80,"width":16,"height":96},{"id":63,"name":"","type":"","rotation":0,"visible":true,"x":528,"y":80,"width":16,"height":16},{"id":64,"name":"","type":"","rotation":0,"visible":true,"x":528,"y":144,"width":16,"height":16},{"id":65,"name":"","type":"","rotation":0,"visible":true,"x":547.2,"y":163.2,"width":9.6,"height":12.8},{"id":66,"name":"","type":"","rotation":0,"visible":true,"x":64,"y":304,"width":64,"height":64},{"id":67,"name":"","type":"","rotation":0,"visible":true,"x":32,"y":304,"width":32,"height":32},{"id":68,"name":"","type":"","rotation":0,"visible":true,"x":660.8,"y":292.8,"width":6.4,"height":11.2},{"id":69,"name":"","type":"","rotation":0,"visible":true,"x":768,"y":288,"width":48,"height":16},{"id":70,"name":"","type":"","rotation":0,"visible":true,"x":832,"y":288,"width":16,"height":16},{"id":71,"name":"","type":"","rotation":0,"visible":true,"x":785.6,"y":276.8,"width":12.8,"height":11.2},{"id":72,"name":"","type":"","rotation":0,"visible":true,"x":644.0,"y":276.0,"width":8.0,"height":12.0},{"id":73,"name":"","type":"","rotation":0,"visible":true,"x":896,"y":208,"width":16,"height":16},{"id":74,"name":"","type":"","rotation":0,"visible":true,"x":912,"y":208,"width":16,"height":16},{"id":75,"name":"","type":"","rotation":0,"visible":true,"x":832,"y":112,"width":128,"height":16},{"id":76,"name":"","type":"","rotation":0,"visible":true,"x":832,"y":208,"width":32,"height":16},{"id":77,"name":"","type":"","rotation":0,"visible":true,"x":928,"y":208,"width":32,"height":16},{"id":78,"name":"","type":"","rotation":0,"visible":true,"x":832,"y":112,"width":16,"height":112},{"id":79,"name":"","type":"","rotation":0,"visible":true,"x":944,"y":112,"width":16,"height":112},{"id":80,"name":"","type":"","rotation":0,"visible":true,"x":848,"y":150.4,"width":32,"height":9.6},{"id":81,"name":"","type":"","rotation":0,"visible":true,"x":912,"y":192,"width":16,"height":16},{"id":82,"name":"","type":"","rotation":0,"visible":true,"x":656,"y":361.6,"width":32,"height":6.4},{"id":83,"name":"","type":"","rotation":0,"visible":true,"x":704,"y":320,"width":112,"height":16},{"id":84,"name":"","type":"","rotation":0,"visible":true,"x":1056,"y":160,"width":16,"height":16},{"id":85,"name":"","type":"","rotation":0,"visible":true,"x":864,"y":336,"width":32,"height":32},{"id":86,"name":"","type":"","rotation":0,"visible":true,"x":1040,"y":240,"width":32,"height":32},{"id":87,"name":"","type":"","rotation":0,"visible":true,"x":643.2,"y":436.8,"width":9.6,"height":11.2},{"id":88,"name":"","type":"","rotation":0,"visible":true,"x":612.0,"y":616.0,"width":8.0,"height":8.0},{"id":89,"name":"","type":"","rotation":0,"visible":true,"x":740.0,"y":616.0,"width":8.0,"height":8.0},{"id":90,"name":"","type":"","rotation":0,"visible":true,"x":672,"y":601.6,"width":32,"height":6.4},{"id":91,"name":"","type":"","rotation":0,"visible":true,"x":768,"y":582.4,"width":32,"height":25.6},{"id":92,"name":"","type":"","rotation":0,"visible":true,"x":755.2,"y":612.8,"width":9.6,"height":11.2},{"id":93,"name":"","type":"","rotation":0,"visible":true,"x":740.0,"y":756.0,"width":8.0,"height":12.0},{"id":94,"name":"","type":"","rotation":0,"visible":true,"x":208,"y":480,"width":16,"height":16},{"id":95,"name":"","type":"","rotation":0,"visible":true,"x":224,"y":480,"width":16,"height":16},{"id":96,"name":"","type":"","rotation":0,"visible":true,"x":176,"y":432,"width":96,"height":16},{"id":97,"name":"","type":"","rotation":0,"visible":true,"x":176,"y":480,"width":32,"height":16},{"id":98,"name":"","type":"","rotation":0,"visible":true,"x":240,"y":480,"width":32,"height":16},{"id":99,"name":"","type":"","rotation":0,"visible":true,"x":176,"y":432,"width":16,"height":64},{"id":100,"name":"","type":"","rotation":0,"visible":true,"x":256,"y":432,"width":16,"height":64},{"id":101,"name":"","type":"","rotation":0,"visible":true,"x":131.2,"y":483.2,"width":9.6,"height":12.8},{"id":102,"name":"","type":"","rotation":0,"visible":true,"x":355.2,"y":499.2,"width":9.6,"height":12.8},{"id":103,"name":"","type":"","rotation":0,"visible":true,"x":132.0,"y":436.0,"width":8.0,"height":12.0},{"id":104,"name":"","type":"","rotation":0,"visible":true,"x":356.0,"y":660.0,"width":8.0,"height":12.0},{"id":105,"name":"","type":"","rotation":0,"visible":true,"x":484.0,"y":660.0,"width":8.0,"height":12.0},{"id":106,"name":"","type":"","rotation":0,"visible":true,"x":512,"y":544,"width":16,"height":112},{"id":107,"name":"","type":"","rotation":0,"visible":true,"x":928,"y":518.4,"width":32,"height":9.6},{"id":108,"name":"","type":"","rotation":0,"visible":true,"x":928,"y":678.4,"width":32,"height":9.6},{"id":109,"name":"","type":"","rotation":0,"visible":true,"x":884.0,"y":516.0,"width":8.0,"height":8.0},{"id":110,"name":"","type":"","rotation":0,"visible":true,"x":1012.0,"y":516.0,"width":8.0,"height":8.0},{"id":111,"name":"","type":"","rotation":0,"visible":true,"x":884.0,"y":676.0,"width":8.0,"height":8.0},{"id":112,"name":"","type":"","rotation":0,"visible":true,"x":1012.0,"y":676.0,"width":8.0,"height":8.0},{"id":113,"name":"","type":"","rotation":0,"visible":true,"x":848,"y":544,"width":16,"height":16},{"id":114,"name":"","type":"","rotation":0,"visible":true,"x":848,"y":624,"width":16,"height":16},{"id":115,"name":"","type":"","rotation":0,"visible":true,"x":868.0,"y":708.0,"width":8.0,"height":12.0},{"id":116,"name":"","type":"","rotation":0,"visible":true,"x":816,"y":633.6,"width":32,"height":6.4},{"id":117,"name":"","type":"","rotation":0,"visible":true,"x":1040,"y":486.4,"width":32,"height":9.6},{"id":118,"name":"","type":"","rotation":0,"visible":true,"x":640,"y":80,"width":16,"height":16},{"id":119,"name":"","type":"","rotation":0,"visible":true,"x":912,"y":64,"width":16,"height":16},{"id":120,"name":"","type":"","rotation":0,"visible":true,"x":528,"y":208,"width":16,"height":16},{"id":121,"name":"","type":"","rotation":0,"visible":true,"x":944,"y":496,"width":16,"height":16},{"id":122,"name":"","type":"","rotation":0,"visible":true,"x":992,"y":736,"width":16,"height":16},{"id":123,"name":"","type":"","rotation":0,"visible":true,"x":912,"y":720,"width":16,"height":16},{"id":124,"name":"","type":"","rotation":0,"visible":true,"x":448,"y":736,"width":16,"height":16},{"id":125,"name":"","type":"","rotation":0,"visible":true,"x":528,"y":736,"width":16,"height":16},{"id":126,"name":"","type":"","rotation":0,"visible":true,"x":160,"y":736,"width":16,"height":16},{"id":127,"name":"","type":"","rotation":0,"visible":true,"x":272,"y":736,"width":16,"height":16},{"id":128,"name":"","type":"","rotation":0,"visible":true,"x":32,"y":336,"width":16,"height":16},{"id":129,"name":"","type":"","rotation":0,"visible":true,"x":32,"y":416,"width":16,"height":16},{"id":130,"name":"","type":"","rotation":0,"visible":true,"x":836.0,"y":356.0,"width":8.0,"height":12.0},{"id":131,"name":"","type":"","rotation":0,"visible":true,"x":1076.0,"y":356.0,"width":8.0,"height":12.0},{"id":132,"name":"","type":"","rotation":0,"visible":true,"x":180.0,"y":420.0,"width":8.0,"height":12.0},{"id":133,"name":"","type":"","rotation":0,"visible":true,"x":484.0,"y":420.0,"width":8.0,"height":12.0},{"id":134,"name":"","type":"","rotation":0,"visible":true,"x":884.0,"y":420.0,"width":8.0,"height":12.0},{"id":135,"name":"","type":"","rotation":0,"visible":true,"x":1060.0,"y":420.0,"width":8.0,"height":12.0},{"id":136,"name":"","type":"","rotation":0,"visible":true,"x":549.6,"y":372.8,"width":4.8,"height":11.2},{"id":137,"name":"","type":"","rotation":0,"visible":true,"x":613.6,"y":372.8,"width":4.8,"height":11.2},{"id":138,"name":"","type":"","rotation":0,"visible":true,"x":549.6,"y":452.8,"width":4.8,"height":11.2},{"id":139,"name":"","type":"","rotation":0,"visible":true,"x":613.6,"y":452.8,"width":4.8,"height":11.2},{"id":140,"name":"","type":"","rotation":0,"visible":true,"x":53.6,"y":452.8,"width":4.8,"height":11.2},{"id":141,"name":"","type":"","rotation":0,"visible":true,"x":149.6,"y":452.8,"width":4.8,"height":11.2},{"id":142,"name":"","type":"","rotation":0,"visible":true,"x":341.6,"y":452.8,"width":4.8,"height":11.2},{"id":143,"name":"","type":"","rotation":0,"visible":true,"x":437.6,"y":452.8,"width":4.8,"height":11.2},{"id":144,"name":"","type":"","rotation":0,"visible":true,"x":533.6,"y":452.8,"width":4.8,"height":11.2},{"id":145,"name":"","type":"","rotation":0,"visible":true,"x":629.6,"y":452.8,"width":4.8,"height":11.2},{"id":146,"name":"","type":"","rotation":0,"visible":true,"x":725.6,"y":452.8,"width":4.8,"height":11.2},{"id":147,"name":"","type":"","rotation":0,"visible":true,"x":917.6,"y":452.8,"width":4.8,"height":11.2},{"id":148,"name":"","type":"","rotation":0,"visible":true,"x":1013.6,"y":452.8,"width":4.8,"height":11.2},{"id":149,"name":"","type":"","rotation":0,"visible":true,"x":0,"y":-16,"width":1200,"height":16},{"id":150,"name":"","type":"","rotation":0,"visible":true,"x":0,"y":800,"width":1200,"height":16},{"id":151,"name":"","type":"","rotation":0,"visible":true,"x":-16,"y":0,"width":16,"height":800},{"id":152,"name":"","type":"","rotation":0,"visible":true,"x":1200,"y":0,"width":16,"height":800},{"id":153,"name":"","type":"","rotation":0,"visible":true,"x":16,"y":16,"width":16,"height":16},{"id":154,"name":"","type":"","rotation":0,"visible":true,"x":48,"y":16,"width":16,"height":16},{"id":155,"name":"","type":"","rotation":0,"visible":true,"x":80,"y":16,"width":16,"height":16},{"id":156,"name":"","type":"","rotation":0,"visible":true,"x":112,"y":16,"width":16,"height":16},{"id":157,"name":"","type":"","rotation":0,"visible":true,"x":144,"y":16,"width":16,"height":16},{"id":158,"name":"","type":"","rotation":0,"visible":true,"x":176,"y":16,"width":16,"height":16},{"id":159,"name":"","type":"","rotation":0,"visible":true,"x":208,"y":16,"width":16,"height":16},{"id":160,"name":"","type":"","rotation":0,"visible":true,"x":240,"y":16,"width":16,"height":16},{"id":161,"name":"","type":"","rotation":0,"visible":true,"x":272,"y":16,"width":16,"height":16},{"id":162,"name":"","type":"","rotation":0,"visible":true,"x":304,"y":16,"width":16,"height":16},{"id":163,"name":"","type":"","rotation":0,"visible":true,"x":336,"y":16,"width":16,"height":16},{"id":164,"name":"","type":"","rotation":0,"visible":true,"x":368,"y":16,"width":16,"height":16},{"id":165,"name":"","type":"","rotation":0,"visible":true,"x":400,"y":16,"width":16,"height":16},{"id":166,"name":"","type":"","rotation":0,"visible":true,"x":432,"y":16,"width":16,"height":16},{"id":167,"name":"","type":"","rotation":0,"visible":true,"x":464,"y":16,"width":16,"height":16},{"id":168,"name":"","type":"","rotation":0,"visible":true,"x":496,"y":16,"width":16,"height":16},{"id":169,"name":"","type":"","rotation":0,"visible":true,"x":528,"y":16,"width":16,"height":16},{"id":170,"name":"","type":"","rotation":0,"visible":true,"x":624,"y":16,"width":16,"height":16},{"id":171,"name":"","type":"","rotation":0,"visible":true,"x":656,"y":16,"width":16,"height":16},{"id":172,"name":"","type":"","rotation":0,"visible":true,"x":688,"y":16,"width":16,"height":16},{"id":173,"name":"","type":"","rotation":0,"visible":true,"x":720,"y":16,"width":16,"height":16},{"id":174,"name":"","type":"","rotation":0,"visible":true,"x":752,"y":16,"width":16,"height":16},{"id":175,"name":"","type":"","rotation":0,"visible":true,"x":784,"y":16,"width":16,"height":16},{"id":176,"name":"","type":"","rotation":0,"visible":true,"x":816,"y":16,"width":16,"height":16},{"id":177,"name":"","type":"","rotation":0,"visible":true,"x":848,"y":16,"width":16,"height":16},{"id":178,"name":"","type":"","rotation":0,"visible":true,"x":880,"y":16,"width":16,"height":16},{"id":179,"name":"","type":"","rotation":0,"visible":true,"x":912,"y":16,"width":16,"height":16},{"id":180,"name":"","type":"","rotation":0,"visible":true,"x":944,"y":16,"width":16,"height":16},{"id":181,"name":"","type":"","rotation":0,"visible":true,"x":976,"y":16,"width":16,"height":16},{"id":182,"name":"","type":"","rotation":0,"visible":true,"x":1008,"y":16,"width":16,"height":16},{"id":183,"name":"","type":"","rotation":0,"visible":true,"x":1040,"y":16,"width":16,"height":16},{"id":184,"name":"","type":"","rotation":0,"visible":true,"x":1072,"y":16,"width":16,"height":16},{"id":185,"name":"","type":"","rotation":0,"visible":true,"x":1104,"y":16,"width":16,"height":16},{"id":186,"name":"","type":"","rotation":0,"visible":true,"x":704,"y":80,"width":16,"height":16},{"id":187,"name":"","type":"","rotation":0,"visible":true,"x":832,"y":80,"width":16,"height":16},{"id":188,"name":"","type":"","rotation":0,"visible":true,"x":16,"y":784,"width":16,"height":16},{"id":189,"name":"","type":"","rotation":0,"visible":true,"x":48,"y":784,"width":16,"height":16},{"id":190,"name":"","type":"","rotation":0,"visible":true,"x":80,"y":784,"width":16,"height":16},{"id":191,"name":"","type":"","rotation":0,"visible":true,"x":112,"y":784,"width":16,"height":16},{"id":192,"name":"","type":"","rotation":0,"visible":true,"x":144,"y":784,"width":16,"height":16},{"id":193,"name":"","type":"","rotation":0,"visible":true,"x":176,"y":784,"width":16,"height":16},{"id":194,"name":"","type":"","rotation":0,"visible":true,"x":208,"y":784,"width":16,"height":16},{"id":195,"name":"","type":"","rotation":0,"visible":true,"x":240,"y":784,"width":16,"height":16},{"id":196,"name":"","type":"","rotation":0,"visible":true,"x":272,"y":784,"width":16,"height":16},{"id":197,"name":"","type":"","rotation":0,"visible":true,"x":304,"y":784,"width":16,"height":16},{"id":198,"name":"","type":"","rotation":0,"visible":true,"x":336,"y":784,"width":16,"height":16},{"id":199,"name":"","type":"","rotation":0,"visible":true,"x":368,"y":784,"width":16,"height":16},{"id":200,"name":"","type":"","rotation":0,"visible":true,"x":400,"y":784,"width":16,"height":16},{"id":201,"name":"","type":"","rotation":0,"visible":true,"x":432,"y":784,"width":16,"height":16},{"id":202,"name":"","type":"","rotation":0,"visible":true,"x":464,"y":784,"width":16,"height":16},{"id":203,"name":"","type":"","rotation":0,"visible":true,"x":496,"y":784,"width":16,"height":16},{"id":204,"name":"","type":"","rotation":0,"visible":true,"x":528,"y":784,"width":16,"height":16},{"id":205,"name":"","type":"","rotation":0,"visible":true,"x":624,"y":784,"width":16,"height":16},{"id":206,"name":"","type":"","rotation":0,"visible":true,"x":656,"y":784,"width":16,"height":16},{"id":207,"name":"","type":"","rotation":0,"visible":true,"x":688,"y":784,"width":16,"height":16},{"id":208,"name":"","type":"","rotation":0,"visible":true,"x":720,"y":784,"width":16,"height":16},{"id":209,"name":"","type":"","rotation":0,"visible":true,"x":752,"y":784,"width":16,"height":16},{"id":210,"name":"","type":"","rotation":0,"visible":true,"x":784,"y":784,"width":16,"height":16},{"id":211,"name":"","type":"","rotation":0,"visible":true,"x":816,"y":784,"width":16,"height":16},{"id":212,"name":"","type":"","rotation":0,"visible":true,"x":848,"y":784,"width":16,"height":16},{"id":213,"name":"","type":"","rotation":0,"visible":true,"x":880,"y":784,"width":16,"height":16},{"id":214,"name":"","type":"","rotation":0,"visible":true,"x":912,"y":784,"width":16,"height":16},{"id":215,"name":"","type":"","rotation":0,"visible":true,"x":944,"y":784,"width":16,"height":16},{"id":216,"name":"","type":"","rotation":0,"visible":true,"x":976,"y":784,"width":16,"height":16},{"id":217,"name":"","type":"","rotation":0,"visible":true,"x":1008,"y":784,"width":16,"height":16},{"id":218,"name":"","type":"","rotation":0,"visible":true,"x":16,"y":48,"width":16,"height":16},{"id":219,"name":"","type":"","rotation":0,"visible":true,"x":16,"y":80,"width":16,"height":16},{"id":220,"name":"","type":"","rotation":0,"visible":true,"x":16,"y":112,"width":16,"height":16},{"id":221,"name":"","type":"","rotation":0,"visible":true,"x":16,"y":144,"width":16,"height":16},{"id":222,"name":"","type":"","rotation":0,"visible":true,"x":16,"y":176,"width":16,"height":16},{"id":223,"name":"","type":"","rotation":0,"visible":true,"x":16,"y":208,"width":16,"height":16},{"id":224,"name":"","type":"","rotation":0,"visible":true,"x":16,"y":240,"width":16,"height":16},{"id":225,"name":"","type":"","rotation":0,"visible":true,"x":16,"y":272,"width":16,"height":16},{"id":226,"name":"","type":"","rotation":0,"visible":true,"x":16,"y":304,"width":16,"height":16},{"id":227,"name":"","type":"","rotation":0,"visible":true,"x":16,"y":464,"width":16,"height":16},{"id":228,"name":"","type":"","rotation":0,"visible":true,"x":16,"y":496,"width":16,"height":16},{"id":229,"name":"","type":"","rotation":0,"visible":true,"x":16,"y":528,"width":16,"height":16},{"id":230,"name":"","type":"","rotation":0,"visible":true,"x":16,"y":560,"width":16,"height":16},{"id":231,"name":"","type":"","rotation":0,"visible":true,"x":16,"y":592,"width":16,"height":16},{"id":232,"name":"","type":"","rotation":0,"visible":true,"x":16,"y":624,"width":16,"height":16},{"id":233,"name":"","type":"","rotation":0,"visible":true,"x":16,"y":720,"width":16,"height":16},{"id":234,"name":"","type":"","rotation":0,"visible":true,"x":16,"y":752,"width":16,"height":16},{"id":235,"name":"","type":"","rotation":0,"visible":true,"x":37.6,"y":372.8,"width":4.8,"height":11.2},{"id":236,"name":"","type":"","rotation":0,"visible":true,"x":613.6,"y":36.8,"width":4.8,"height":11.2},{"id":237,"name":"","type":"","rotation":0,"visible":true,"x":549.6,"y":756.8,"width":4.8,"height":11.2},{"id":238,"name":"","type":"","rotation":0,"visible":true,"x":69.6,"y":724.8,"width":4.8,"height":11.2},{"id":239,"name":"","type":"","rotation":0,"visible":true,"x":132.8,"y":167.2,"width":6.4,"height":8.0},{"id":240,"name":"","type":"","rotation":0,"visible":true,"x":132.8,"y":151.2,"width":6.4,"height":8.0},{"id":241,"name":"","type":"","rotation":0,"visible":true,"x":132.8,"y":167.2,"width":6.4,"height":8.0},{"id":242,"name":"","type":"","rotation":0,"visible":true,"x":132.8,"y":151.2,"width":6.4,"height":8.0},{"id":243,"name":"","type":"","rotation":0,"visible":true,"x":628.8,"y":743.2,"width":6.4,"height":8.0},{"id":244,"name":"","type":"","rotation":0,"visible":true,"x":740.8,"y":743.2,"width":6.4,"height":8.0},{"id":245,"name":"","type":"","rotation":0,"visible":true,"x":756.8,"y":743.2,"width":6.4,"height":8.0},{"id":246,"name":"","type":"","rotation":0,"visible":true,"x":868.8,"y":743.2,"width":6.4,"height":8.0},{"id":247,"name":"","type":"","rotation":0,"visible":true,"x":244.8,"y":647.2,"width":6.4,"height":8.0},{"id":248,"name":"","type":"","rotation":0,"visible":true,"x":244.8,"y":631.2,"width":6.4,"height":8.0},{"id":249,"name":"","type":"","rotation":0,"visible":true,"x":244.8,"y":647.2,"width":6.4,"height":8.0},{"id":250,"name":"","type":"","rotation":0,"visible":true,"x":244.8,"y":631.2,"width":6.4,"height":8.0},{"id":251,"name":"","type":"","rotation":0,"visible":true,"x":420.8,"y":663.2,"width":6.4,"height":8.0},{"id":252,"name":"","type":"","rotation":0,"visible":true,"x":500.8,"y":663.2,"width":6.4,"height":8.0},{"id":253,"name":"","type":"","rotation":0,"visible":true,"x":980.0,"y":630.4,"width":8.0,"height":8.0}]},{"id":7,"name":"anchors","type":"objectgroup","visible":true,"opacity":1,"x":0,"y":0,"draworder":"topdown","objects":[{"id":254,"name":"","type":"","rotation":0,"point":true,"visible":true,"x":200.0,"y":202.4,"width":0,"height":0,"properties":[{"name":"kind","type":"string","value":"smoke"},{"name":"mode","type":"string","value":"hearth"}]},{"id":255,"name":"","type":"","rotation":0,"point":true,"visible":true,"x":536.0,"y":234.4,"width":0,"height":0,"properties":[{"name":"kind","type":"string","value":"smoke"},{"name":"mode","type":"string","value":"hearth"}]},{"id":256,"name":"","type":"","rotation":0,"point":true,"visible":true,"x":104.0,"y":42.4,"width":0,"height":0,"properties":[{"name":"kind","type":"string","value":"smoke"},{"name":"mode","type":"string","value":"hearth"}]},{"id":257,"name":"","type":"","rotation":0,"point":true,"visible":true,"x":104.0,"y":186.4,"width":0,"height":0,"properties":[{"name":"kind","type":"string","value":"smoke"},{"name":"mode","type":"string","value":"hearth"}]},{"id":258,"name":"","type":"","rotation":0,"point":true,"visible":true,"x":216.0,"y":42.4,"width":0,"height":0,"properties":[{"name":"kind","type":"string","value":"smoke"},{"name":"mode","type":"string","value":"hearth"}]},{"id":259,"name":"","type":"","rotation":0,"point":true,"visible":true,"x":328.0,"y":42.4,"width":0,"height":0,"properties":[{"name":"kind","type":"string","value":"smoke"},{"name":"mode","type":"string","value":"hearth"}]},{"id":260,"name":"","type":"","rotation":0,"point":true,"visible":true,"x":424.0,"y":42.4,"width":0,"height":0,"properties":[{"name":"kind","type":"string","value":"smoke"},{"name":"mode","type":"string","value":"hearth"}]},{"id":261,"name":"","type":"","rotation":0,"point":true,"visible":true,"x":520.0,"y":42.4,"width":0,"height":0,"properties":[{"name":"kind","type":"string","value":"smoke"},{"name":"mode","type":"string","value":"hearth"}]},{"id":262,"name":"","type":"","rotation":0,"point":true,"visible":true,"x":712.0,"y":634.4,"width":0,"height":0,"properties":[{"name":"kind","type":"string","value":"smoke"},{"name":"mode","type":"string","value":"hearth"}]},{"id":263,"name":"","type":"","rotation":0,"point":true,"visible":true,"x":840.0,"y":634.4,"width":0,"height":0,"properties":[{"name":"kind","type":"string","value":"smoke"},{"name":"mode","type":"string","value":"hearth"}]},{"id":264,"name":"","type":"","rotation":0,"point":true,"visible":true,"x":216.0,"y":522.4,"width":0,"height":0,"properties":[{"name":"kind","type":"string","value":"smoke"},{"name":"mode","type":"string","value":"hearth"}]},{"id":265,"name":"","type":"","rotation":0,"point":true,"visible":true,"x":328.0,"y":522.4,"width":0,"height":0,"properties":[{"name":"kind","type":"string","value":"smoke"},{"name":"mode","type":"string","value":"hearth"}]},{"id":266,"name":"","type":"","rotation":0,"point":true,"visible":true,"x":488.0,"y":522.4,"width":0,"height":0,"properties":[{"name":"kind","type":"string","value":"smoke"},{"name":"mode","type":"string","value":"hearth"}]},{"id":267,"name":"TO MILLBROOK","type":"","rotation":0,"point":true,"visible":true,"x":1096.0,"y":464.0,"width":0,"height":0,"properties":[{"name":"kind","type":"string","value":"roadsign"},{"name":"text","type":"string","value":"TO MILLBROOK"}]},{"id":268,"name":"","type":"","rotation":0,"point":true,"visible":true,"x":456.0,"y":352.0,"width":0,"height":0,"properties":[{"name":"kind","type":"string","value":"lamp"}]},{"id":269,"name":"Harlow Plaza","type":"","rotation":0,"point":true,"visible":true,"x":448.0,"y":320.0,"width":0,"height":0,"properties":[{"name":"kind","type":"string","value":"noticeboard"}]},{"id":270,"name":"","type":"","rotation":0,"point":true,"visible":true,"x":120.0,"y":336.0,"width":0,"height":0,"properties":[{"name":"kind","type":"string","value":"lamp"}]},{"id":271,"name":"","type":"","rotation":0,"point":true,"visible":true,"x":536.0,"y":96.0,"width":0,"height":0,"properties":[{"name":"kind","type":"string","value":"tree"},{"name":"stamp","type":"string","value":"tree_fruit_a"}]},{"id":272,"name":"","type":"","rotation":0,"point":true,"visible":true,"x":536.0,"y":160.0,"width":0,"height":0,"properties":[{"name":"kind","type":"string","value":"tree"},{"name":"stamp","type":"string","value":"tree_fruit_c"}]},{"id":273,"name":"","type":"","rotation":0,"point":true,"visible":true,"x":648.0,"y":288.0,"width":0,"height":0,"properties":[{"name":"kind","type":"string","value":"lamp"}]},{"id":274,"name":"","type":"","rotation":0,"point":true,"visible":true,"x":744.0,"y":768.0,"width":0,"height":0,"properties":[{"name":"kind","type":"string","value":"lamp"}]},{"id":275,"name":"","type":"","rotation":0,"point":true,"visible":true,"x":136.0,"y":448.0,"width":0,"height":0,"properties":[{"name":"kind","type":"string","value":"lamp"}]},{"id":276,"name":"","type":"","rotation":0,"point":true,"visible":true,"x":360.0,"y":672.0,"width":0,"height":0,"properties":[{"name":"kind","type":"string","value":"lamp"}]},{"id":277,"name":"","type":"","rotation":0,"point":true,"visible":true,"x":488.0,"y":672.0,"width":0,"height":0,"properties":[{"name":"kind","type":"string","value":"lamp"}]},{"id":278,"name":"","type":"","rotation":0,"point":true,"visible":true,"x":872.0,"y":720.0,"width":0,"height":0,"properties":[{"name":"kind","type":"string","value":"lamp"}]},{"id":279,"name":"","type":"","rotation":0,"point":true,"visible":true,"x":1096.0,"y":672.0,"width":0,"height":0,"properties":[{"name":"kind","type":"string","value":"water-foam"}]},{"id":280,"name":"","type":"","rotation":0,"point":true,"visible":true,"x":1080.0,"y":752.0,"width":0,"height":0,"properties":[{"name":"kind","type":"string","value":"water-foam"}]},{"id":281,"name":"","type":"","rotation":0,"point":true,"visible":true,"x":1144.0,"y":336.0,"width":0,"height":0,"properties":[{"name":"kind","type":"string","value":"water-foam"}]},{"id":282,"name":"","type":"","rotation":0,"point":true,"visible":true,"x":648.0,"y":96.0,"width":0,"height":0,"properties":[{"name":"kind","type":"string","value":"tree"},{"name":"stamp","type":"string","value":"tree_light"}]},{"id":283,"name":"","type":"","rotation":0,"point":true,"visible":true,"x":920.0,"y":80.0,"width":0,"height":0,"properties":[{"name":"kind","type":"string","value":"tree"},{"name":"stamp","type":"string","value":"tree_dark"}]},{"id":284,"name":"","type":"","rotation":0,"point":true,"visible":true,"x":536.0,"y":224.0,"width":0,"height":0,"properties":[{"name":"kind","type":"string","value":"tree"},{"name":"stamp","type":"string","value":"tree_round_small"}]},{"id":285,"name":"","type":"","rotation":0,"point":true,"visible":true,"x":952.0,"y":512.0,"width":0,"height":0,"properties":[{"name":"kind","type":"string","value":"tree"},{"name":"stamp","type":"string","value":"tree_dark"}]},{"id":286,"name":"","type":"","rotation":0,"point":true,"visible":true,"x":1000.0,"y":752.0,"width":0,"height":0,"properties":[{"name":"kind","type":"string","value":"tree"},{"name":"stamp","type":"string","value":"tree_dark"}]},{"id":287,"name":"","type":"","rotation":0,"point":true,"visible":true,"x":920.0,"y":736.0,"width":0,"height":0,"properties":[{"name":"kind","type":"string","value":"tree"},{"name":"stamp","type":"string","value":"tree_light"}]},{"id":288,"name":"","type":"","rotation":0,"point":true,"visible":true,"x":456.0,"y":752.0,"width":0,"height":0,"properties":[{"name":"kind","type":"string","value":"tree"},{"name":"stamp","type":"string","value":"tree_round_small"}]},{"id":289,"name":"","type":"","rotation":0,"point":true,"visible":true,"x":536.0,"y":752.0,"width":0,"height":0,"properties":[{"name":"kind","type":"string","value":"tree"},{"name":"stamp","type":"string","value":"tree_dark"}]},{"id":290,"name":"","type":"","rotation":0,"point":true,"visible":true,"x":168.0,"y":752.0,"width":0,"height":0,"properties":[{"name":"kind","type":"string","value":"tree"},{"name":"stamp","type":"string","value":"tree_light"}]},{"id":291,"name":"","type":"","rotation":0,"point":true,"visible":true,"x":280.0,"y":752.0,"width":0,"height":0,"properties":[{"name":"kind","type":"string","value":"tree"},{"name":"stamp","type":"string","value":"tree_round_small"}]},{"id":292,"name":"","type":"","rotation":0,"point":true,"visible":true,"x":40.0,"y":352.0,"width":0,"height":0,"properties":[{"name":"kind","type":"string","value":"tree"},{"name":"stamp","type":"string","value":"tree_round_small"}]},{"id":293,"name":"","type":"","rotation":0,"point":true,"visible":true,"x":40.0,"y":432.0,"width":0,"height":0,"properties":[{"name":"kind","type":"string","value":"tree"},{"name":"stamp","type":"string","value":"tree_light"}]},{"id":294,"name":"","type":"","rotation":0,"point":true,"visible":true,"x":840.0,"y":368.0,"width":0,"height":0,"properties":[{"name":"kind","type":"string","value":"lamp"}]},{"id":295,"name":"","type":"","rotation":0,"point":true,"visible":true,"x":1080.0,"y":368.0,"width":0,"height":0,"properties":[{"name":"kind","type":"string","value":"lamp"}]},{"id":296,"name":"","type":"","rotation":0,"point":true,"visible":true,"x":184.0,"y":432.0,"width":0,"height":0,"properties":[{"name":"kind","type":"string","value":"lamp"}]},{"id":297,"name":"","type":"","rotation":0,"point":true,"visible":true,"x":488.0,"y":432.0,"width":0,"height":0,"properties":[{"name":"kind","type":"string","value":"lamp"}]},{"id":298,"name":"","type":"","rotation":0,"point":true,"visible":true,"x":888.0,"y":432.0,"width":0,"height":0,"properties":[{"name":"kind","type":"string","value":"lamp"}]},{"id":299,"name":"","type":"","rotation":0,"point":true,"visible":true,"x":1064.0,"y":432.0,"width":0,"height":0,"properties":[{"name":"kind","type":"string","value":"lamp"}]},{"id":300,"name":"","type":"","rotation":0,"point":true,"visible":true,"x":552.0,"y":360.0,"width":0,"height":0,"properties":[{"name":"axis","type":"string","value":"v"},{"name":"kind","type":"string","value":"signal"}]},{"id":301,"name":"","type":"","rotation":0,"point":true,"visible":true,"x":616.0,"y":360.0,"width":0,"height":0,"properties":[{"name":"axis","type":"string","value":"h"},{"name":"kind","type":"string","value":"signal"}]},{"id":302,"name":"","type":"","rotation":0,"point":true,"visible":true,"x":552.0,"y":440.0,"width":0,"height":0,"properties":[{"name":"axis","type":"string","value":"h"},{"name":"kind","type":"string","value":"signal"}]},{"id":303,"name":"","type":"","rotation":0,"point":true,"visible":true,"x":616.0,"y":440.0,"width":0,"height":0,"properties":[{"name":"axis","type":"string","value":"v"},{"name":"kind","type":"string","value":"signal"}]},{"id":304,"name":"","type":"","rotation":0,"point":true,"visible":true,"x":24.0,"y":32.0,"width":0,"height":0,"properties":[{"name":"kind","type":"string","value":"tree"},{"name":"stamp","type":"string","value":"tree_round_small"}]},{"id":305,"name":"","type":"","rotation":0,"point":true,"visible":true,"x":56.0,"y":32.0,"width":0,"height":0,"properties":[{"name":"kind","type":"string","value":"tree"},{"name":"stamp","type":"string","value":"tree_round_small"}]},{"id":306,"name":"","type":"","rotation":0,"point":true,"visible":true,"x":88.0,"y":32.0,"width":0,"height":0,"properties":[{"name":"kind","type":"string","value":"tree"},{"name":"stamp","type":"string","value":"tree_round_small"}]},{"id":307,"name":"","type":"","rotation":0,"point":true,"visible":true,"x":120.0,"y":32.0,"width":0,"height":0,"properties":[{"name":"kind","type":"string","value":"tree"},{"name":"stamp","type":"string","value":"tree_round_small"}]},{"id":308,"name":"","type":"","rotation":0,"point":true,"visible":true,"x":152.0,"y":32.0,"width":0,"height":0,"properties":[{"name":"kind","type":"string","value":"tree"},{"name":"stamp","type":"string","value":"tree_round_small"}]},{"id":309,"name":"","type":"","rotation":0,"point":true,"visible":true,"x":184.0,"y":32.0,"width":0,"height":0,"properties":[{"name":"kind","type":"string","value":"tree"},{"name":"stamp","type":"string","value":"tree_round_small"}]},{"id":310,"name":"","type":"","rotation":0,"point":true,"visible":true,"x":216.0,"y":32.0,"width":0,"height":0,"properties":[{"name":"kind","type":"string","value":"tree"},{"name":"stamp","type":"string","value":"tree_round_small"}]},{"id":311,"name":"","type":"","rotation":0,"point":true,"visible":true,"x":248.0,"y":32.0,"width":0,"height":0,"properties":[{"name":"kind","type":"string","value":"tree"},{"name":"stamp","type":"string","value":"tree_round_small"}]},{"id":312,"name":"","type":"","rotation":0,"point":true,"visible":true,"x":280.0,"y":32.0,"width":0,"height":0,"properties":[{"name":"kind","type":"string","value":"tree"},{"name":"stamp","type":"string","value":"tree_round_small"}]},{"id":313,"name":"","type":"","rotation":0,"point":true,"visible":true,"x":312.0,"y":32.0,"width":0,"height":0,"properties":[{"name":"kind","type":"string","value":"tree"},{"name":"stamp","type":"string","value":"tree_round_small"}]},{"id":314,"name":"","type":"","rotation":0,"point":true,"visible":true,"x":344.0,"y":32.0,"width":0,"height":0,"properties":[{"name":"kind","type":"string","value":"tree"},{"name":"stamp","type":"string","value":"tree_round_small"}]},{"id":315,"name":"","type":"","rotation":0,"point":true,"visible":true,"x":376.0,"y":32.0,"width":0,"height":0,"properties":[{"name":"kind","type":"string","value":"tree"},{"name":"stamp","type":"string","value":"tree_round_small"}]},{"id":316,"name":"","type":"","rotation":0,"point":true,"visible":true,"x":408.0,"y":32.0,"width":0,"height":0,"properties":[{"name":"kind","type":"string","value":"tree"},{"name":"stamp","type":"string","value":"tree_round_small"}]},{"id":317,"name":"","type":"","rotation":0,"point":true,"visible":true,"x":440.0,"y":32.0,"width":0,"height":0,"properties":[{"name":"kind","type":"string","value":"tree"},{"name":"stamp","type":"string","value":"tree_round_small"}]},{"id":318,"name":"","type":"","rotation":0,"point":true,"visible":true,"x":472.0,"y":32.0,"width":0,"height":0,"properties":[{"name":"kind","type":"string","value":"tree"},{"name":"stamp","type":"string","value":"tree_round_small"}]},{"id":319,"name":"","type":"","rotation":0,"point":true,"visible":true,"x":504.0,"y":32.0,"width":0,"height":0,"properties":[{"name":"kind","type":"string","value":"tree"},{"name":"stamp","type":"string","value":"tree_round_small"}]},{"id":320,"name":"","type":"","rotation":0,"point":true,"visible":true,"x":536.0,"y":32.0,"width":0,"height":0,"properties":[{"name":"kind","type":"string","value":"tree"},{"name":"stamp","type":"string","value":"tree_round_small"}]},{"id":321,"name":"","type":"","rotation":0,"point":true,"visible":true,"x":632.0,"y":32.0,"width":0,"height":0,"properties":[{"name":"kind","type":"string","value":"tree"},{"name":"stamp","type":"string","value":"tree_round_small"}]},{"id":322,"name":"","type":"","rotation":0,"point":true,"visible":true,"x":664.0,"y":32.0,"width":0,"height":0,"properties":[{"name":"kind","type":"string","value":"tree"},{"name":"stamp","type":"string","value":"tree_round_small"}]},{"id":323,"name":"","type":"","rotation":0,"point":true,"visible":true,"x":696.0,"y":32.0,"width":0,"height":0,"properties":[{"name":"kind","type":"string","value":"tree"},{"name":"stamp","type":"string","value":"tree_round_small"}]},{"id":324,"name":"","type":"","rotation":0,"point":true,"visible":true,"x":728.0,"y":32.0,"width":0,"height":0,"properties":[{"name":"kind","type":"string","value":"tree"},{"name":"stamp","type":"string","value":"tree_round_small"}]},{"id":325,"name":"","type":"","rotation":0,"point":true,"visible":true,"x":760.0,"y":32.0,"width":0,"height":0,"properties":[{"name":"kind","type":"string","value":"tree"},{"name":"stamp","type":"string","value":"tree_round_small"}]},{"id":326,"name":"","type":"","rotation":0,"point":true,"visible":true,"x":792.0,"y":32.0,"width":0,"height":0,"properties":[{"name":"kind","type":"string","value":"tree"},{"name":"stamp","type":"string","value":"tree_round_small"}]},{"id":327,"name":"","type":"","rotation":0,"point":true,"visible":true,"x":824.0,"y":32.0,"width":0,"height":0,"properties":[{"name":"kind","type":"string","value":"tree"},{"name":"stamp","type":"string","value":"tree_round_small"}]},{"id":328,"name":"","type":"","rotation":0,"point":true,"visible":true,"x":856.0,"y":32.0,"width":0,"height":0,"properties":[{"name":"kind","type":"string","value":"tree"},{"name":"stamp","type":"string","value":"tree_round_small"}]},{"id":329,"name":"","type":"","rotation":0,"point":true,"visible":true,"x":888.0,"y":32.0,"width":0,"height":0,"properties":[{"name":"kind","type":"string","value":"tree"},{"name":"stamp","type":"string","value":"tree_round_small"}]},{"id":330,"name":"","type":"","rotation":0,"point":true,"visible":true,"x":920.0,"y":32.0,"width":0,"height":0,"properties":[{"name":"kind","type":"string","value":"tree"},{"name":"stamp","type":"string","value":"tree_round_small"}]},{"id":331,"name":"","type":"","rotation":0,"point":true,"visible":true,"x":952.0,"y":32.0,"width":0,"height":0,"properties":[{"name":"kind","type":"string","value":"tree"},{"name":"stamp","type":"string","value":"tree_round_small"}]},{"id":332,"name":"","type":"","rotation":0,"point":true,"visible":true,"x":984.0,"y":32.0,"width":0,"height":0,"properties":[{"name":"kind","type":"string","value":"tree"},{"name":"stamp","type":"string","value":"tree_round_small"}]},{"id":333,"name":"","type":"","rotation":0,"point":true,"visible":true,"x":1016.0,"y":32.0,"width":0,"height":0,"properties":[{"name":"kind","type":"string","value":"tree"},{"name":"stamp","type":"string","value":"tree_round_small"}]},{"id":334,"name":"","type":"","rotation":0,"point":true,"visible":true,"x":1048.0,"y":32.0,"width":0,"height":0,"properties":[{"name":"kind","type":"string","value":"tree"},{"name":"stamp","type":"string","value":"tree_round_small"}]},{"id":335,"name":"","type":"","rotation":0,"point":true,"visible":true,"x":1080.0,"y":32.0,"width":0,"height":0,"properties":[{"name":"kind","type":"string","value":"tree"},{"name":"stamp","type":"string","value":"tree_round_small"}]},{"id":336,"name":"","type":"","rotation":0,"point":true,"visible":true,"x":1112.0,"y":32.0,"width":0,"height":0,"properties":[{"name":"kind","type":"string","value":"tree"},{"name":"stamp","type":"string","value":"tree_round_small"}]},{"id":337,"name":"","type":"","rotation":0,"point":true,"visible":true,"x":712.0,"y":96.0,"width":0,"height":0,"properties":[{"name":"kind","type":"string","value":"tree"},{"name":"stamp","type":"string","value":"tree_dark"}]},{"id":338,"name":"","type":"","rotation":0,"point":true,"visible":true,"x":840.0,"y":96.0,"width":0,"height":0,"properties":[{"name":"kind","type":"string","value":"tree"},{"name":"stamp","type":"string","value":"tree_dark"}]},{"id":339,"name":"","type":"","rotation":0,"point":true,"visible":true,"x":24.0,"y":800.0,"width":0,"height":0,"properties":[{"name":"kind","type":"string","value":"tree"},{"name":"stamp","type":"string","value":"tree_round_small"}]},{"id":340,"name":"","type":"","rotation":0,"point":true,"visible":true,"x":56.0,"y":800.0,"width":0,"height":0,"properties":[{"name":"kind","type":"string","value":"tree"},{"name":"stamp","type":"string","value":"tree_round_small"}]},{"id":341,"name":"","type":"","rotation":0,"point":true,"visible":true,"x":88.0,"y":800.0,"width":0,"height":0,"properties":[{"name":"kind","type":"string","value":"tree"},{"name":"stamp","type":"string","value":"tree_round_small"}]},{"id":342,"name":"","type":"","rotation":0,"point":true,"visible":true,"x":120.0,"y":800.0,"width":0,"height":0,"properties":[{"name":"kind","type":"string","value":"tree"},{"name":"stamp","type":"string","value":"tree_round_small"}]},{"id":343,"name":"","type":"","rotation":0,"point":true,"visible":true,"x":152.0,"y":800.0,"width":0,"height":0,"properties":[{"name":"kind","type":"string","value":"tree"},{"name":"stamp","type":"string","value":"tree_round_small"}]},{"id":344,"name":"","type":"","rotation":0,"point":true,"visible":true,"x":184.0,"y":800.0,"width":0,"height":0,"properties":[{"name":"kind","type":"string","value":"tree"},{"name":"stamp","type":"string","value":"tree_round_small"}]},{"id":345,"name":"","type":"","rotation":0,"point":true,"visible":true,"x":216.0,"y":800.0,"width":0,"height":0,"properties":[{"name":"kind","type":"string","value":"tree"},{"name":"stamp","type":"string","value":"tree_round_small"}]},{"id":346,"name":"","type":"","rotation":0,"point":true,"visible":true,"x":248.0,"y":800.0,"width":0,"height":0,"properties":[{"name":"kind","type":"string","value":"tree"},{"name":"stamp","type":"string","value":"tree_round_small"}]},{"id":347,"name":"","type":"","rotation":0,"point":true,"visible":true,"x":280.0,"y":800.0,"width":0,"height":0,"properties":[{"name":"kind","type":"string","value":"tree"},{"name":"stamp","type":"string","value":"tree_round_small"}]},{"id":348,"name":"","type":"","rotation":0,"point":true,"visible":true,"x":312.0,"y":800.0,"width":0,"height":0,"properties":[{"name":"kind","type":"string","value":"tree"},{"name":"stamp","type":"string","value":"tree_round_small"}]},{"id":349,"name":"","type":"","rotation":0,"point":true,"visible":true,"x":344.0,"y":800.0,"width":0,"height":0,"properties":[{"name":"kind","type":"string","value":"tree"},{"name":"stamp","type":"string","value":"tree_round_small"}]},{"id":350,"name":"","type":"","rotation":0,"point":true,"visible":true,"x":376.0,"y":800.0,"width":0,"height":0,"properties":[{"name":"kind","type":"string","value":"tree"},{"name":"stamp","type":"string","value":"tree_round_small"}]},{"id":351,"name":"","type":"","rotation":0,"point":true,"visible":true,"x":408.0,"y":800.0,"width":0,"height":0,"properties":[{"name":"kind","type":"string","value":"tree"},{"name":"stamp","type":"string","value":"tree_round_small"}]},{"id":352,"name":"","type":"","rotation":0,"point":true,"visible":true,"x":440.0,"y":800.0,"width":0,"height":0,"properties":[{"name":"kind","type":"string","value":"tree"},{"name":"stamp","type":"string","value":"tree_round_small"}]},{"id":353,"name":"","type":"","rotation":0,"point":true,"visible":true,"x":472.0,"y":800.0,"width":0,"height":0,"properties":[{"name":"kind","type":"string","value":"tree"},{"name":"stamp","type":"string","value":"tree_round_small"}]},{"id":354,"name":"","type":"","rotation":0,"point":true,"visible":true,"x":504.0,"y":800.0,"width":0,"height":0,"properties":[{"name":"kind","type":"string","value":"tree"},{"name":"stamp","type":"string","value":"tree_round_small"}]},{"id":355,"name":"","type":"","rotation":0,"point":true,"visible":true,"x":536.0,"y":800.0,"width":0,"height":0,"properties":[{"name":"kind","type":"string","value":"tree"},{"name":"stamp","type":"string","value":"tree_round_small"}]},{"id":356,"name":"","type":"","rotation":0,"point":true,"visible":true,"x":632.0,"y":800.0,"width":0,"height":0,"properties":[{"name":"kind","type":"string","value":"tree"},{"name":"stamp","type":"string","value":"tree_round_small"}]},{"id":357,"name":"","type":"","rotation":0,"point":true,"visible":true,"x":664.0,"y":800.0,"width":0,"height":0,"properties":[{"name":"kind","type":"string","value":"tree"},{"name":"stamp","type":"string","value":"tree_round_small"}]},{"id":358,"name":"","type":"","rotation":0,"point":true,"visible":true,"x":696.0,"y":800.0,"width":0,"height":0,"properties":[{"name":"kind","type":"string","value":"tree"},{"name":"stamp","type":"string","value":"tree_round_small"}]},{"id":359,"name":"","type":"","rotation":0,"point":true,"visible":true,"x":728.0,"y":800.0,"width":0,"height":0,"properties":[{"name":"kind","type":"string","value":"tree"},{"name":"stamp","type":"string","value":"tree_round_small"}]},{"id":360,"name":"","type":"","rotation":0,"point":true,"visible":true,"x":760.0,"y":800.0,"width":0,"height":0,"properties":[{"name":"kind","type":"string","value":"tree"},{"name":"stamp","type":"string","value":"tree_round_small"}]},{"id":361,"name":"","type":"","rotation":0,"point":true,"visible":true,"x":792.0,"y":800.0,"width":0,"height":0,"properties":[{"name":"kind","type":"string","value":"tree"},{"name":"stamp","type":"string","value":"tree_round_small"}]},{"id":362,"name":"","type":"","rotation":0,"point":true,"visible":true,"x":824.0,"y":800.0,"width":0,"height":0,"properties":[{"name":"kind","type":"string","value":"tree"},{"name":"stamp","type":"string","value":"tree_round_small"}]},{"id":363,"name":"","type":"","rotation":0,"point":true,"visible":true,"x":856.0,"y":800.0,"width":0,"height":0,"properties":[{"name":"kind","type":"string","value":"tree"},{"name":"stamp","type":"string","value":"tree_round_small"}]},{"id":364,"name":"","type":"","rotation":0,"point":true,"visible":true,"x":888.0,"y":800.0,"width":0,"height":0,"properties":[{"name":"kind","type":"string","value":"tree"},{"name":"stamp","type":"string","value":"tree_round_small"}]},{"id":365,"name":"","type":"","rotation":0,"point":true,"visible":true,"x":920.0,"y":800.0,"width":0,"height":0,"properties":[{"name":"kind","type":"string","value":"tree"},{"name":"stamp","type":"string","value":"tree_round_small"}]},{"id":366,"name":"","type":"","rotation":0,"point":true,"visible":true,"x":952.0,"y":800.0,"width":0,"height":0,"properties":[{"name":"kind","type":"string","value":"tree"},{"name":"stamp","type":"string","value":"tree_round_small"}]},{"id":367,"name":"","type":"","rotation":0,"point":true,"visible":true,"x":984.0,"y":800.0,"width":0,"height":0,"properties":[{"name":"kind","type":"string","value":"tree"},{"name":"stamp","type":"string","value":"tree_round_small"}]},{"id":368,"name":"","type":"","rotation":0,"point":true,"visible":true,"x":1016.0,"y":800.0,"width":0,"height":0,"properties":[{"name":"kind","type":"string","value":"tree"},{"name":"stamp","type":"string","value":"tree_round_small"}]},{"id":369,"name":"","type":"","rotation":0,"point":true,"visible":true,"x":24.0,"y":64.0,"width":0,"height":0,"properties":[{"name":"kind","type":"string","value":"tree"},{"name":"stamp","type":"string","value":"tree_round_small"}]},{"id":370,"name":"","type":"","rotation":0,"point":true,"visible":true,"x":24.0,"y":96.0,"width":0,"height":0,"properties":[{"name":"kind","type":"string","value":"tree"},{"name":"stamp","type":"string","value":"tree_round_small"}]},{"id":371,"name":"","type":"","rotation":0,"point":true,"visible":true,"x":24.0,"y":128.0,"width":0,"height":0,"properties":[{"name":"kind","type":"string","value":"tree"},{"name":"stamp","type":"string","value":"tree_round_small"}]},{"id":372,"name":"","type":"","rotation":0,"point":true,"visible":true,"x":24.0,"y":160.0,"width":0,"height":0,"properties":[{"name":"kind","type":"string","value":"tree"},{"name":"stamp","type":"string","value":"tree_round_small"}]},{"id":373,"name":"","type":"","rotation":0,"point":true,"visible":true,"x":24.0,"y":192.0,"width":0,"height":0,"properties":[{"name":"kind","type":"string","value":"tree"},{"name":"stamp","type":"string","value":"tree_round_small"}]},{"id":374,"name":"","type":"","rotation":0,"point":true,"visible":true,"x":24.0,"y":224.0,"width":0,"height":0,"properties":[{"name":"kind","type":"string","value":"tree"},{"name":"stamp","type":"string","value":"tree_round_small"}]},{"id":375,"name":"","type":"","rotation":0,"point":true,"visible":true,"x":24.0,"y":256.0,"width":0,"height":0,"properties":[{"name":"kind","type":"string","value":"tree"},{"name":"stamp","type":"string","value":"tree_round_small"}]},{"id":376,"name":"","type":"","rotation":0,"point":true,"visible":true,"x":24.0,"y":288.0,"width":0,"height":0,"properties":[{"name":"kind","type":"string","value":"tree"},{"name":"stamp","type":"string","value":"tree_round_small"}]},{"id":377,"name":"","type":"","rotation":0,"point":true,"visible":true,"x":24.0,"y":320.0,"width":0,"height":0,"properties":[{"name":"kind","type":"string","value":"tree"},{"name":"stamp","type":"string","value":"tree_round_small"}]},{"id":378,"name":"","type":"","rotation":0,"point":true,"visible":true,"x":24.0,"y":480.0,"width":0,"height":0,"properties":[{"name":"kind","type":"string","value":"tree"},{"name":"stamp","type":"string","value":"tree_round_small"}]},{"id":379,"name":"","type":"","rotation":0,"point":true,"visible":true,"x":24.0,"y":512.0,"width":0,"height":0,"properties":[{"name":"kind","type":"string","value":"tree"},{"name":"stamp","type":"string","value":"tree_round_small"}]},{"id":380,"name":"","type":"","rotation":0,"point":true,"visible":true,"x":24.0,"y":544.0,"width":0,"height":0,"properties":[{"name":"kind","type":"string","value":"tree"},{"name":"stamp","type":"string","value":"tree_round_small"}]},{"id":381,"name":"","type":"","rotation":0,"point":true,"visible":true,"x":24.0,"y":576.0,"width":0,"height":0,"properties":[{"name":"kind","type":"string","value":"tree"},{"name":"stamp","type":"string","value":"tree_round_small"}]},{"id":382,"name":"","type":"","rotation":0,"point":true,"visible":true,"x":24.0,"y":608.0,"width":0,"height":0,"properties":[{"name":"kind","type":"string","value":"tree"},{"name":"stamp","type":"string","value":"tree_round_small"}]},{"id":383,"name":"","type":"","rotation":0,"point":true,"visible":true,"x":24.0,"y":640.0,"width":0,"height":0,"properties":[{"name":"kind","type":"string","value":"tree"},{"name":"stamp","type":"string","value":"tree_round_small"}]},{"id":384,"name":"","type":"","rotation":0,"point":true,"visible":true,"x":24.0,"y":736.0,"width":0,"height":0,"properties":[{"name":"kind","type":"string","value":"tree"},{"name":"stamp","type":"string","value":"tree_round_small"}]},{"id":385,"name":"","type":"","rotation":0,"point":true,"visible":true,"x":24.0,"y":768.0,"width":0,"height":0,"properties":[{"name":"kind","type":"string","value":"tree"},{"name":"stamp","type":"string","value":"tree_round_small"}]},{"id":386,"name":"TO COUNTY RD 7","type":"","rotation":0,"point":true,"visible":true,"x":40.0,"y":384.0,"width":0,"height":0,"properties":[{"name":"kind","type":"string","value":"roadsign"},{"name":"text","type":"string","value":"TO COUNTY RD 7"}]},{"id":387,"name":"TO RIDGE RD","type":"","rotation":0,"point":true,"visible":true,"x":616.0,"y":48.0,"width":0,"height":0,"properties":[{"name":"kind","type":"string","value":"roadsign"},{"name":"text","type":"string","value":"TO RIDGE RD"}]},{"id":388,"name":"TO THE QUARRY","type":"","rotation":0,"point":true,"visible":true,"x":552.0,"y":768.0,"width":0,"height":0,"properties":[{"name":"kind","type":"string","value":"roadsign"},{"name":"text","type":"string","value":"TO THE QUARRY"}]},{"id":389,"name":"TO FAIRVIEW HILL","type":"","rotation":0,"point":true,"visible":true,"x":72.0,"y":736.0,"width":0,"height":0,"properties":[{"name":"kind","type":"string","value":"roadsign"},{"name":"text","type":"string","value":"TO FAIRVIEW HILL"}]},{"id":390,"name":"Harlow Elementary School","type":"","rotation":0,"point":true,"visible":true,"x":744.0,"y":208.0,"width":0,"height":0,"properties":[{"name":"kind","type":"string","value":"label"},{"name":"text","type":"string","value":"Harlow Elementary School"}]},{"id":391,"name":"Harlow Plaza","type":"","rotation":0,"point":true,"visible":true,"x":288.0,"y":304.0,"width":0,"height":0,"properties":[{"name":"kind","type":"string","value":"label"},{"name":"text","type":"string","value":"Harlow Plaza"}]},{"id":392,"name":"Rocco's Slice House","type":"","rotation":0,"point":true,"visible":true,"x":480.0,"y":304.0,"width":0,"height":0,"properties":[{"name":"kind","type":"string","value":"label"},{"name":"text","type":"string","value":"Rocco's Slice House"}]},{"id":393,"name":"Harlow Congregational Church","type":"","rotation":0,"point":true,"visible":true,"x":952.0,"y":312.0,"width":0,"height":0,"properties":[{"name":"kind","type":"string","value":"label"},{"name":"text","type":"string","value":"Harlow Congregational Church"}]},{"id":394,"name":"Route 9","type":"","rotation":0,"point":true,"visible":true,"x":600.0,"y":400.0,"width":0,"height":0,"properties":[{"name":"kind","type":"string","value":"label"},{"name":"text","type":"string","value":"Route 9"}]},{"id":395,"name":"Fairview Subdivision","type":"","rotation":0,"point":true,"visible":true,"x":240.0,"y":584.0,"width":0,"height":0,"properties":[{"name":"kind","type":"string","value":"label"},{"name":"text","type":"string","value":"Fairview Subdivision"}]},{"id":396,"name":"Harlow Firehouse","type":"","rotation":0,"point":true,"visible":true,"x":624.0,"y":512.0,"width":0,"height":0,"properties":[{"name":"kind","type":"string","value":"label"},{"name":"text","type":"string","value":"Harlow Firehouse"}]},{"id":397,"name":"Community Fields","type":"","rotation":0,"point":true,"visible":true,"x":976.0,"y":600.0,"width":0,"height":0,"properties":[{"name":"kind","type":"string","value":"label"},{"name":"text","type":"string","value":"Community Fields"}]},{"id":398,"name":"","type":"","rotation":0,"point":true,"visible":true,"x":136.0,"y":176.0,"width":0,"height":0,"properties":[{"name":"home","type":"string","value":""},{"name":"kind","type":"string","value":"yardsign"},{"name":"seat","type":"string","value":"0"}]},{"id":399,"name":"","type":"","rotation":0,"point":true,"visible":true,"x":136.0,"y":160.0,"width":0,"height":0,"properties":[{"name":"home","type":"string","value":""},{"name":"kind","type":"string","value":"yardsign"},{"name":"seat","type":"string","value":"1"}]},{"id":400,"name":"","type":"","rotation":0,"point":true,"visible":true,"x":136.0,"y":176.0,"width":0,"height":0,"properties":[{"name":"home","type":"string","value":""},{"name":"kind","type":"string","value":"yardsign"},{"name":"seat","type":"string","value":"2"}]},{"id":401,"name":"","type":"","rotation":0,"point":true,"visible":true,"x":136.0,"y":160.0,"width":0,"height":0,"properties":[{"name":"home","type":"string","value":""},{"name":"kind","type":"string","value":"yardsign"},{"name":"seat","type":"string","value":"3"}]},{"id":402,"name":"","type":"","rotation":0,"point":true,"visible":true,"x":632.0,"y":752.0,"width":0,"height":0,"properties":[{"name":"home","type":"string","value":""},{"name":"kind","type":"string","value":"yardsign"},{"name":"seat","type":"string","value":"4"}]},{"id":403,"name":"","type":"","rotation":0,"point":true,"visible":true,"x":744.0,"y":752.0,"width":0,"height":0,"properties":[{"name":"home","type":"string","value":""},{"name":"kind","type":"string","value":"yardsign"},{"name":"seat","type":"string","value":"5"}]},{"id":404,"name":"","type":"","rotation":0,"point":true,"visible":true,"x":760.0,"y":752.0,"width":0,"height":0,"properties":[{"name":"home","type":"string","value":""},{"name":"kind","type":"string","value":"yardsign"},{"name":"seat","type":"string","value":"6"}]},{"id":405,"name":"","type":"","rotation":0,"point":true,"visible":true,"x":872.0,"y":752.0,"width":0,"height":0,"properties":[{"name":"home","type":"string","value":""},{"name":"kind","type":"string","value":"yardsign"},{"name":"seat","type":"string","value":"7"}]},{"id":406,"name":"","type":"","rotation":0,"point":true,"visible":true,"x":248.0,"y":656.0,"width":0,"height":0,"properties":[{"name":"home","type":"string","value":"Fairview Subdivision"},{"name":"kind","type":"string","value":"yardsign"},{"name":"seat","type":"string","value":"8"}]},{"id":407,"name":"","type":"","rotation":0,"point":true,"visible":true,"x":248.0,"y":640.0,"width":0,"height":0,"properties":[{"name":"home","type":"string","value":"Fairview Subdivision"},{"name":"kind","type":"string","value":"yardsign"},{"name":"seat","type":"string","value":"9"}]},{"id":408,"name":"","type":"","rotation":0,"point":true,"visible":true,"x":248.0,"y":656.0,"width":0,"height":0,"properties":[{"name":"home","type":"string","value":"Fairview Subdivision"},{"name":"kind","type":"string","value":"yardsign"},{"name":"seat","type":"string","value":"10"}]},{"id":409,"name":"","type":"","rotation":0,"point":true,"visible":true,"x":248.0,"y":640.0,"width":0,"height":0,"properties":[{"name":"home","type":"string","value":"Fairview Subdivision"},{"name":"kind","type":"string","value":"yardsign"},{"name":"seat","type":"string","value":"11"}]},{"id":410,"name":"","type":"","rotation":0,"point":true,"visible":true,"x":424.0,"y":672.0,"width":0,"height":0,"properties":[{"name":"home","type":"string","value":"Fairview Subdivision"},{"name":"kind","type":"string","value":"yardsign"},{"name":"seat","type":"string","value":"12"}]},{"id":411,"name":"","type":"","rotation":0,"point":true,"visible":true,"x":504.0,"y":672.0,"width":0,"height":0,"properties":[{"name":"home","type":"string","value":"Fairview Subdivision"},{"name":"kind","type":"string","value":"yardsign"},{"name":"seat","type":"string","value":"13"}]},{"id":412,"name":"Harlow Elementary School","type":"","rotation":0,"point":true,"visible":true,"x":720.0,"y":288.0,"width":0,"height":0,"properties":[{"name":"kind","type":"string","value":"pollplace"}]},{"id":413,"name":"Harlow Elementary School","type":"","rotation":0,"point":true,"visible":true,"x":696.0,"y":224.0,"width":0,"height":0,"properties":[{"name":"kind","type":"string","value":"banner"},{"name":"mount","type":"string","value":"facade"}]},{"id":414,"name":"Harlow Elementary School","type":"","rotation":0,"point":true,"visible":true,"x":744.0,"y":224.0,"width":0,"height":0,"properties":[{"name":"kind","type":"string","value":"banner"},{"name":"mount","type":"string","value":"facade"}]},{"id":415,"name":"Harlow Elementary School","type":"","rotation":0,"point":true,"visible":true,"x":744.0,"y":208.0,"width":0,"height":0,"properties":[{"name":"kind","type":"string","value":"bunting"},{"name":"span","type":"string","value":"11"}]},{"id":416,"name":"Community Fields","type":"","rotation":0,"point":true,"visible":true,"x":984.0,"y":640.0,"width":0,"height":0,"properties":[{"name":"kind","type":"string","value":"brazier"}]},{"id":417,"name":"Rocco's Slice House","type":"","rotation":0,"point":true,"visible":true,"x":472.0,"y":381.6,"width":0,"height":0,"properties":[{"name":"cap","type":"string","value":"1"},{"name":"facing","type":"string","value":"up"},{"name":"kind","type":"string","value":"spot"},{"name":"order","type":"string","value":"0"},{"name":"role","type":"string","value":"table"}]},{"id":418,"name":"Harlow Elementary School","type":"","rotation":0,"point":true,"visible":true,"x":824.0,"y":301.6,"width":0,"height":0,"properties":[{"name":"cap","type":"string","value":"1"},{"name":"facing","type":"string","value":"down"},{"name":"kind","type":"string","value":"spot"},{"name":"order","type":"string","value":"5"},{"name":"role","type":"string","value":"bench"}]},{"id":419,"name":"Harlow Elementary School","type":"","rotation":0,"point":true,"visible":true,"x":856.0,"y":301.6,"width":0,"height":0,"properties":[{"name":"cap","type":"string","value":"1"},{"name":"facing","type":"string","value":"down"},{"name":"kind","type":"string","value":"spot"},{"name":"order","type":"string","value":"6"},{"name":"role","type":"string","value":"bench"}]},{"id":420,"name":"Harlow Elementary School","type":"","rotation":0,"point":true,"visible":true,"x":904.0,"y":205.6,"width":0,"height":0,"properties":[{"name":"cap","type":"string","value":"1"},{"name":"facing","type":"string","value":"down"},{"name":"kind","type":"string","value":"spot"},{"name":"order","type":"string","value":"7"},{"name":"role","type":"string","value":"bench"}]},{"id":421,"name":"Harlow Congregational Church","type":"","rotation":0,"point":true,"visible":true,"x":1048.0,"y":173.6,"width":0,"height":0,"properties":[{"name":"cap","type":"string","value":"1"},{"name":"facing","type":"string","value":"down"},{"name":"kind","type":"string","value":"spot"},{"name":"order","type":"string","value":"0"},{"name":"role","type":"string","value":"bench"}]},{"id":422,"name":"Harlow Congregational Church","type":"","rotation":0,"point":true,"visible":true,"x":1080.0,"y":173.6,"width":0,"height":0,"properties":[{"name":"cap","type":"string","value":"1"},{"name":"facing","type":"string","value":"down"},{"name":"kind","type":"string","value":"spot"},{"name":"order","type":"string","value":"1"},{"name":"role","type":"string","value":"bench"}]},{"id":423,"name":"Community Fields","type":"","rotation":0,"point":true,"visible":true,"x":872.0,"y":557.6,"width":0,"height":0,"properties":[{"name":"cap","type":"string","value":"1"},{"name":"facing","type":"string","value":"down"},{"name":"kind","type":"string","value":"spot"},{"name":"order","type":"string","value":"0"},{"name":"role","type":"string","value":"bench"}]},{"id":424,"name":"Community Fields","type":"","rotation":0,"point":true,"visible":true,"x":872.0,"y":637.6,"width":0,"height":0,"properties":[{"name":"cap","type":"string","value":"1"},{"name":"facing","type":"string","value":"down"},{"name":"kind","type":"string","value":"spot"},{"name":"order","type":"string","value":"1"},{"name":"role","type":"string","value":"bench"}]},{"id":425,"name":"Harlow Plaza","type":"","rotation":0,"point":true,"visible":true,"x":176.0,"y":317.6,"width":0,"height":0,"properties":[{"name":"cap","type":"string","value":"1"},{"name":"facing","type":"string","value":"up"},{"name":"kind","type":"string","value":"spot"},{"name":"order","type":"string","value":"0"},{"name":"role","type":"string","value":"door"}]},{"id":426,"name":"Harlow Plaza","type":"","rotation":0,"point":true,"visible":true,"x":272.0,"y":317.6,"width":0,"height":0,"properties":[{"name":"cap","type":"string","value":"1"},{"name":"facing","type":"string","value":"up"},{"name":"kind","type":"string","value":"spot"},{"name":"order","type":"string","value":"1"},{"name":"role","type":"string","value":"door"}]},{"id":427,"name":"Harlow Plaza","type":"","rotation":0,"point":true,"visible":true,"x":320.0,"y":317.6,"width":0,"height":0,"properties":[{"name":"cap","type":"string","value":"1"},{"name":"facing","type":"string","value":"up"},{"name":"kind","type":"string","value":"spot"},{"name":"order","type":"string","value":"2"},{"name":"role","type":"string","value":"door"}]},{"id":428,"name":"Harlow Plaza","type":"","rotation":0,"point":true,"visible":true,"x":384.0,"y":317.6,"width":0,"height":0,"properties":[{"name":"cap","type":"string","value":"1"},{"name":"facing","type":"string","value":"up"},{"name":"kind","type":"string","value":"spot"},{"name":"order","type":"string","value":"3"},{"name":"role","type":"string","value":"door"}]},{"id":429,"name":"Rocco's Slice House","type":"","rotation":0,"point":true,"visible":true,"x":512.0,"y":349.6,"width":0,"height":0,"properties":[{"name":"cap","type":"string","value":"1"},{"name":"facing","type":"string","value":"up"},{"name":"kind","type":"string","value":"spot"},{"name":"order","type":"string","value":"1"},{"name":"role","type":"string","value":"door"}]},{"id":430,"name":"Harlow Elementary School","type":"","rotation":0,"point":true,"visible":true,"x":720.0,"y":285.6,"width":0,"height":0,"properties":[{"name":"cap","type":"string","value":"1"},{"name":"facing","type":"string","value":"up"},{"name":"kind","type":"string","value":"spot"},{"name":"order","type":"string","value":"8"},{"name":"role","type":"string","value":"door"}]},{"id":431,"name":"Harlow Congregational Church","type":"","rotation":0,"point":true,"visible":true,"x":944.0,"y":381.6,"width":0,"height":0,"properties":[{"name":"cap","type":"string","value":"1"},{"name":"facing","type":"string","value":"up"},{"name":"kind","type":"string","value":"spot"},{"name":"order","type":"string","value":"2"},{"name":"role","type":"string","value":"door"}]},{"id":432,"name":"Harlow Firehouse","type":"","rotation":0,"point":true,"visible":true,"x":656.0,"y":589.6,"width":0,"height":0,"properties":[{"name":"cap","type":"string","value":"1"},{"name":"facing","type":"string","value":"up"},{"name":"kind","type":"string","value":"spot"},{"name":"order","type":"string","value":"0"},{"name":"role","type":"string","value":"door"}]},{"id":433,"name":"Harlow Firehouse","type":"","rotation":0,"point":true,"visible":true,"x":720.0,"y":589.6,"width":0,"height":0,"properties":[{"name":"cap","type":"string","value":"1"},{"name":"facing","type":"string","value":"up"},{"name":"kind","type":"string","value":"spot"},{"name":"order","type":"string","value":"1"},{"name":"role","type":"string","value":"door"}]},{"id":434,"name":"Fairview Subdivision","type":"","rotation":0,"point":true,"visible":true,"x":192.0,"y":669.6,"width":0,"height":0,"properties":[{"name":"cap","type":"string","value":"1"},{"name":"facing","type":"string","value":"up"},{"name":"kind","type":"string","value":"spot"},{"name":"order","type":"string","value":"0"},{"name":"role","type":"string","value":"door"}]},{"id":435,"name":"Fairview Subdivision","type":"","rotation":0,"point":true,"visible":true,"x":304.0,"y":669.6,"width":0,"height":0,"properties":[{"name":"cap","type":"string","value":"1"},{"name":"facing","type":"string","value":"up"},{"name":"kind","type":"string","value":"spot"},{"name":"order","type":"string","value":"1"},{"name":"role","type":"string","value":"door"}]},{"id":436,"name":"Fairview Subdivision","type":"","rotation":0,"point":true,"visible":true,"x":464.0,"y":669.6,"width":0,"height":0,"properties":[{"name":"cap","type":"string","value":"1"},{"name":"facing","type":"string","value":"up"},{"name":"kind","type":"string","value":"spot"},{"name":"order","type":"string","value":"2"},{"name":"role","type":"string","value":"door"}]},{"id":437,"name":"Fairview Subdivision","type":"","rotation":0,"point":true,"visible":true,"x":64.0,"y":557.6,"width":0,"height":0,"properties":[{"name":"cap","type":"string","value":"1"},{"name":"facing","type":"string","value":"up"},{"name":"kind","type":"string","value":"spot"},{"name":"order","type":"string","value":"3"},{"name":"role","type":"string","value":"door"}]},{"id":438,"name":"Fairview Subdivision","type":"","rotation":0,"point":true,"visible":true,"x":64.0,"y":669.6,"width":0,"height":0,"properties":[{"name":"cap","type":"string","value":"1"},{"name":"facing","type":"string","value":"up"},{"name":"kind","type":"string","value":"spot"},{"name":"order","type":"string","value":"4"},{"name":"role","type":"string","value":"door"}]},{"id":439,"name":"Harlow Plaza","type":"","rotation":0,"point":true,"visible":true,"x":208.0,"y":317.6,"width":0,"height":0,"properties":[{"name":"cap","type":"string","value":"1"},{"name":"facing","type":"string","value":"down"},{"name":"kind","type":"string","value":"spot"},{"name":"order","type":"string","value":"4"},{"name":"role","type":"string","value":"porch"}]},{"id":440,"name":"Harlow Plaza","type":"","rotation":0,"point":true,"visible":true,"x":416.0,"y":317.6,"width":0,"height":0,"properties":[{"name":"cap","type":"string","value":"1"},{"name":"facing","type":"string","value":"down"},{"name":"kind","type":"string","value":"spot"},{"name":"order","type":"string","value":"5"},{"name":"role","type":"string","value":"porch"}]},{"id":441,"name":"Rocco's Slice House","type":"","rotation":0,"point":true,"visible":true,"x":544.0,"y":349.6,"width":0,"height":0,"properties":[{"name":"cap","type":"string","value":"1"},{"name":"facing","type":"string","value":"down"},{"name":"kind","type":"string","value":"spot"},{"name":"order","type":"string","value":"2"},{"name":"role","type":"string","value":"porch"}]},{"id":442,"name":"Harlow Elementary School","type":"","rotation":0,"point":true,"visible":true,"x":688.0,"y":285.6,"width":0,"height":0,"properties":[{"name":"cap","type":"string","value":"1"},{"name":"facing","type":"string","value":"down"},{"name":"kind","type":"string","value":"spot"},{"name":"order","type":"string","value":"9"},{"name":"role","type":"string","value":"porch"}]},{"id":443,"name":"Harlow Elementary School","type":"","rotation":0,"point":true,"visible":true,"x":752.0,"y":285.6,"width":0,"height":0,"properties":[{"name":"cap","type":"string","value":"1"},{"name":"facing","type":"string","value":"down"},{"name":"kind","type":"string","value":"spot"},{"name":"order","type":"string","value":"10"},{"name":"role","type":"string","value":"porch"}]},{"id":444,"name":"Harlow Congregational Church","type":"","rotation":0,"point":true,"visible":true,"x":912.0,"y":381.6,"width":0,"height":0,"properties":[{"name":"cap","type":"string","value":"1"},{"name":"facing","type":"string","value":"down"},{"name":"kind","type":"string","value":"spot"},{"name":"order","type":"string","value":"3"},{"name":"role","type":"string","value":"porch"}]},{"id":445,"name":"Harlow Congregational Church","type":"","rotation":0,"point":true,"visible":true,"x":976.0,"y":381.6,"width":0,"height":0,"properties":[{"name":"cap","type":"string","value":"1"},{"name":"facing","type":"string","value":"down"},{"name":"kind","type":"string","value":"spot"},{"name":"order","type":"string","value":"4"},{"name":"role","type":"string","value":"porch"}]},{"id":446,"name":"Harlow Firehouse","type":"","rotation":0,"point":true,"visible":true,"x":624.0,"y":589.6,"width":0,"height":0,"properties":[{"name":"cap","type":"string","value":"1"},{"name":"facing","type":"string","value":"down"},{"name":"kind","type":"string","value":"spot"},{"name":"order","type":"string","value":"2"},{"name":"role","type":"string","value":"porch"}]},{"id":447,"name":"Harlow Firehouse","type":"","rotation":0,"point":true,"visible":true,"x":752.0,"y":589.6,"width":0,"height":0,"properties":[{"name":"cap","type":"string","value":"1"},{"name":"facing","type":"string","value":"down"},{"name":"kind","type":"string","value":"spot"},{"name":"order","type":"string","value":"3"},{"name":"role","type":"string","value":"porch"}]},{"id":448,"name":"Fairview Subdivision","type":"","rotation":0,"point":true,"visible":true,"x":160.0,"y":669.6,"width":0,"height":0,"properties":[{"name":"cap","type":"string","value":"1"},{"name":"facing","type":"string","value":"down"},{"name":"kind","type":"string","value":"spot"},{"name":"order","type":"string","value":"5"},{"name":"role","type":"string","value":"porch"}]},{"id":449,"name":"Fairview Subdivision","type":"","rotation":0,"point":true,"visible":true,"x":224.0,"y":669.6,"width":0,"height":0,"properties":[{"name":"cap","type":"string","value":"1"},{"name":"facing","type":"string","value":"down"},{"name":"kind","type":"string","value":"spot"},{"name":"order","type":"string","value":"6"},{"name":"role","type":"string","value":"porch"}]},{"id":450,"name":"Fairview Subdivision","type":"","rotation":0,"point":true,"visible":true,"x":272.0,"y":669.6,"width":0,"height":0,"properties":[{"name":"cap","type":"string","value":"1"},{"name":"facing","type":"string","value":"down"},{"name":"kind","type":"string","value":"spot"},{"name":"order","type":"string","value":"7"},{"name":"role","type":"string","value":"porch"}]},{"id":451,"name":"Fairview Subdivision","type":"","rotation":0,"point":true,"visible":true,"x":336.0,"y":669.6,"width":0,"height":0,"properties":[{"name":"cap","type":"string","value":"1"},{"name":"facing","type":"string","value":"down"},{"name":"kind","type":"string","value":"spot"},{"name":"order","type":"string","value":"8"},{"name":"role","type":"string","value":"porch"}]},{"id":452,"name":"Fairview Subdivision","type":"","rotation":0,"point":true,"visible":true,"x":528.0,"y":669.6,"width":0,"height":0,"properties":[{"name":"cap","type":"string","value":"1"},{"name":"facing","type":"string","value":"down"},{"name":"kind","type":"string","value":"spot"},{"name":"order","type":"string","value":"9"},{"name":"role","type":"string","value":"porch"}]},{"id":453,"name":"Fairview Subdivision","type":"","rotation":0,"point":true,"visible":true,"x":440.0,"y":669.6,"width":0,"height":0,"properties":[{"name":"cap","type":"string","value":"1"},{"name":"facing","type":"string","value":"up"},{"name":"kind","type":"string","value":"spot"},{"name":"order","type":"string","value":"10"},{"name":"role","type":"string","value":"window"}]},{"id":454,"name":"Harlow Plaza","type":"","rotation":0,"point":true,"visible":true,"x":136.0,"y":365.6,"width":0,"height":0,"properties":[{"name":"cap","type":"string","value":"1"},{"name":"facing","type":"string","value":"face"},{"name":"kind","type":"string","value":"spot"},{"name":"order","type":"string","value":"6"},{"name":"pair","type":"string","value":"Harlow Plaza#0"},{"name":"role","type":"string","value":"chat"},{"name":"side","type":"string","value":"a"}]},{"id":455,"name":"Harlow Plaza","type":"","rotation":0,"point":true,"visible":true,"x":168.0,"y":365.6,"width":0,"height":0,"properties":[{"name":"cap","type":"string","value":"1"},{"name":"facing","type":"string","value":"face"},{"name":"kind","type":"string","value":"spot"},{"name":"order","type":"string","value":"7"},{"name":"pair","type":"string","value":"Harlow Plaza#0"},{"name":"role","type":"string","value":"chat"},{"name":"side","type":"string","value":"b"}]},{"id":456,"name":"Harlow Plaza","type":"","rotation":0,"point":true,"visible":true,"x":200.0,"y":365.6,"width":0,"height":0,"properties":[{"name":"cap","type":"string","value":"1"},{"name":"facing","type":"string","value":"face"},{"name":"kind","type":"string","value":"spot"},{"name":"order","type":"string","value":"8"},{"name":"pair","type":"string","value":"Harlow Plaza#1"},{"name":"role","type":"string","value":"chat"},{"name":"side","type":"string","value":"a"}]},{"id":457,"name":"Harlow Plaza","type":"","rotation":0,"point":true,"visible":true,"x":232.0,"y":365.6,"width":0,"height":0,"properties":[{"name":"cap","type":"string","value":"1"},{"name":"facing","type":"string","value":"face"},{"name":"kind","type":"string","value":"spot"},{"name":"order","type":"string","value":"9"},{"name":"pair","type":"string","value":"Harlow Plaza#1"},{"name":"role","type":"string","value":"chat"},{"name":"side","type":"string","value":"b"}]},{"id":458,"name":"Harlow Plaza","type":"","rotation":0,"point":true,"visible":true,"x":264.0,"y":365.6,"width":0,"height":0,"properties":[{"name":"cap","type":"string","value":"1"},{"name":"facing","type":"string","value":"face"},{"name":"kind","type":"string","value":"spot"},{"name":"order","type":"string","value":"10"},{"name":"pair","type":"string","value":"Harlow Plaza#2"},{"name":"role","type":"string","value":"chat"},{"name":"side","type":"string","value":"a"}]},{"id":459,"name":"Harlow Plaza","type":"","rotation":0,"point":true,"visible":true,"x":296.0,"y":365.6,"width":0,"height":0,"properties":[{"name":"cap","type":"string","value":"1"},{"name":"facing","type":"string","value":"face"},{"name":"kind","type":"string","value":"spot"},{"name":"order","type":"string","value":"11"},{"name":"pair","type":"string","value":"Harlow Plaza#2"},{"name":"role","type":"string","value":"chat"},{"name":"side","type":"string","value":"b"}]},{"id":460,"name":"Harlow Plaza","type":"","rotation":0,"point":true,"visible":true,"x":328.0,"y":365.6,"width":0,"height":0,"properties":[{"name":"cap","type":"string","value":"1"},{"name":"facing","type":"string","value":"face"},{"name":"kind","type":"string","value":"spot"},{"name":"order","type":"string","value":"12"},{"name":"pair","type":"string","value":"Harlow Plaza#3"},{"name":"role","type":"string","value":"chat"},{"name":"side","type":"string","value":"a"}]},{"id":461,"name":"Harlow Plaza","type":"","rotation":0,"point":true,"visible":true,"x":360.0,"y":365.6,"width":0,"height":0,"properties":[{"name":"cap","type":"string","value":"1"},{"name":"facing","type":"string","value":"face"},{"name":"kind","type":"string","value":"spot"},{"name":"order","type":"string","value":"13"},{"name":"pair","type":"string","value":"Harlow Plaza#3"},{"name":"role","type":"string","value":"chat"},{"name":"side","type":"string","value":"b"}]},{"id":462,"name":"Rocco's Slice House","type":"","rotation":0,"point":true,"visible":true,"x":504.0,"y":365.6,"width":0,"height":0,"properties":[{"name":"cap","type":"string","value":"1"},{"name":"facing","type":"string","value":"face"},{"name":"kind","type":"string","value":"spot"},{"name":"order","type":"string","value":"3"},{"name":"pair","type":"string","value":"Rocco's Slice House#0"},{"name":"role","type":"string","value":"chat"},{"name":"side","type":"string","value":"a"}]},{"id":463,"name":"Rocco's Slice House","type":"","rotation":0,"point":true,"visible":true,"x":536.0,"y":365.6,"width":0,"height":0,"properties":[{"name":"cap","type":"string","value":"1"},{"name":"facing","type":"string","value":"face"},{"name":"kind","type":"string","value":"spot"},{"name":"order","type":"string","value":"4"},{"name":"pair","type":"string","value":"Rocco's Slice House#0"},{"name":"role","type":"string","value":"chat"},{"name":"side","type":"string","value":"b"}]},{"id":464,"name":"Harlow Elementary School","type":"","rotation":0,"point":true,"visible":true,"x":696.0,"y":301.6,"width":0,"height":0,"properties":[{"name":"cap","type":"string","value":"1"},{"name":"facing","type":"string","value":"face"},{"name":"kind","type":"string","value":"spot"},{"name":"order","type":"string","value":"11"},{"name":"pair","type":"string","value":"Harlow Elementary School#0"},{"name":"role","type":"string","value":"chat"},{"name":"side","type":"string","value":"a"}]},{"id":465,"name":"Harlow Elementary School","type":"","rotation":0,"point":true,"visible":true,"x":728.0,"y":301.6,"width":0,"height":0,"properties":[{"name":"cap","type":"string","value":"1"},{"name":"facing","type":"string","value":"face"},{"name":"kind","type":"string","value":"spot"},{"name":"order","type":"string","value":"12"},{"name":"pair","type":"string","value":"Harlow Elementary School#0"},{"name":"role","type":"string","value":"chat"},{"name":"side","type":"string","value":"b"}]},{"id":466,"name":"Harlow Congregational Church","type":"","rotation":0,"point":true,"visible":true,"x":856.0,"y":381.6,"width":0,"height":0,"properties":[{"name":"cap","type":"string","value":"1"},{"name":"facing","type":"string","value":"face"},{"name":"kind","type":"string","value":"spot"},{"name":"order","type":"string","value":"5"},{"name":"pair","type":"string","value":"Harlow Congregational Church#0"},{"name":"role","type":"string","value":"chat"},{"name":"side","type":"string","value":"a"}]},{"id":467,"name":"Harlow Congregational Church","type":"","rotation":0,"point":true,"visible":true,"x":888.0,"y":381.6,"width":0,"height":0,"properties":[{"name":"cap","type":"string","value":"1"},{"name":"facing","type":"string","value":"face"},{"name":"kind","type":"string","value":"spot"},{"name":"order","type":"string","value":"6"},{"name":"pair","type":"string","value":"Harlow Congregational Church#0"},{"name":"role","type":"string","value":"chat"},{"name":"side","type":"string","value":"b"}]},{"id":468,"name":"Harlow Firehouse","type":"","rotation":0,"point":true,"visible":true,"x":632.0,"y":605.6,"width":0,"height":0,"properties":[{"name":"cap","type":"string","value":"1"},{"name":"facing","type":"string","value":"face"},{"name":"kind","type":"string","value":"spot"},{"name":"order","type":"string","value":"4"},{"name":"pair","type":"string","value":"Harlow Firehouse#0"},{"name":"role","type":"string","value":"chat"},{"name":"side","type":"string","value":"a"}]},{"id":469,"name":"Harlow Firehouse","type":"","rotation":0,"point":true,"visible":true,"x":664.0,"y":605.6,"width":0,"height":0,"properties":[{"name":"cap","type":"string","value":"1"},{"name":"facing","type":"string","value":"face"},{"name":"kind","type":"string","value":"spot"},{"name":"order","type":"string","value":"5"},{"name":"pair","type":"string","value":"Harlow Firehouse#0"},{"name":"role","type":"string","value":"chat"},{"name":"side","type":"string","value":"b"}]},{"id":470,"name":"Harlow Firehouse","type":"","rotation":0,"point":true,"visible":true,"x":680.0,"y":621.6,"width":0,"height":0,"properties":[{"name":"cap","type":"string","value":"1"},{"name":"facing","type":"string","value":"face"},{"name":"kind","type":"string","value":"spot"},{"name":"order","type":"string","value":"6"},{"name":"pair","type":"string","value":"Harlow Firehouse#1"},{"name":"role","type":"string","value":"chat"},{"name":"side","type":"string","value":"a"}]},{"id":471,"name":"Harlow Firehouse","type":"","rotation":0,"point":true,"visible":true,"x":712.0,"y":621.6,"width":0,"height":0,"properties":[{"name":"cap","type":"string","value":"1"},{"name":"facing","type":"string","value":"face"},{"name":"kind","type":"string","value":"spot"},{"name":"order","type":"string","value":"7"},{"name":"pair","type":"string","value":"Harlow Firehouse#1"},{"name":"role","type":"string","value":"chat"},{"name":"side","type":"string","value":"b"}]},{"id":472,"name":"Fairview Subdivision","type":"","rotation":0,"point":true,"visible":true,"x":136.0,"y":717.6,"width":0,"height":0,"properties":[{"name":"cap","type":"string","value":"1"},{"name":"facing","type":"string","value":"face"},{"name":"kind","type":"string","value":"spot"},{"name":"order","type":"string","value":"11"},{"name":"pair","type":"string","value":"Fairview Subdivision#0"},{"name":"role","type":"string","value":"chat"},{"name":"side","type":"string","value":"a"}]},{"id":473,"name":"Fairview Subdivision","type":"","rotation":0,"point":true,"visible":true,"x":168.0,"y":717.6,"width":0,"height":0,"properties":[{"name":"cap","type":"string","value":"1"},{"name":"facing","type":"string","value":"face"},{"name":"kind","type":"string","value":"spot"},{"name":"order","type":"string","value":"12"},{"name":"pair","type":"string","value":"Fairview Subdivision#0"},{"name":"role","type":"string","value":"chat"},{"name":"side","type":"string","value":"b"}]},{"id":474,"name":"Fairview Subdivision","type":"","rotation":0,"point":true,"visible":true,"x":248.0,"y":717.6,"width":0,"height":0,"properties":[{"name":"cap","type":"string","value":"1"},{"name":"facing","type":"string","value":"face"},{"name":"kind","type":"string","value":"spot"},{"name":"order","type":"string","value":"13"},{"name":"pair","type":"string","value":"Fairview Subdivision#1"},{"name":"role","type":"string","value":"chat"},{"name":"side","type":"string","value":"a"}]},{"id":475,"name":"Fairview Subdivision","type":"","rotation":0,"point":true,"visible":true,"x":280.0,"y":717.6,"width":0,"height":0,"properties":[{"name":"cap","type":"string","value":"1"},{"name":"facing","type":"string","value":"face"},{"name":"kind","type":"string","value":"spot"},{"name":"order","type":"string","value":"14"},{"name":"pair","type":"string","value":"Fairview Subdivision#1"},{"name":"role","type":"string","value":"chat"},{"name":"side","type":"string","value":"b"}]},{"id":476,"name":"Fairview Subdivision","type":"","rotation":0,"point":true,"visible":true,"x":440.0,"y":685.6,"width":0,"height":0,"properties":[{"name":"cap","type":"string","value":"1"},{"name":"facing","type":"string","value":"face"},{"name":"kind","type":"string","value":"spot"},{"name":"order","type":"string","value":"15"},{"name":"pair","type":"string","value":"Fairview Subdivision#2"},{"name":"role","type":"string","value":"chat"},{"name":"side","type":"string","value":"a"}]},{"id":477,"name":"Fairview Subdivision","type":"","rotation":0,"point":true,"visible":true,"x":472.0,"y":685.6,"width":0,"height":0,"properties":[{"name":"cap","type":"string","value":"1"},{"name":"facing","type":"string","value":"face"},{"name":"kind","type":"string","value":"spot"},{"name":"order","type":"string","value":"16"},{"name":"pair","type":"string","value":"Fairview Subdivision#2"},{"name":"role","type":"string","value":"chat"},{"name":"side","type":"string","value":"b"}]},{"id":478,"name":"Fairview Subdivision","type":"","rotation":0,"point":true,"visible":true,"x":88.0,"y":717.6,"width":0,"height":0,"properties":[{"name":"cap","type":"string","value":"1"},{"name":"facing","type":"string","value":"face"},{"name":"kind","type":"string","value":"spot"},{"name":"order","type":"string","value":"17"},{"name":"pair","type":"string","value":"Fairview Subdivision#4"},{"name":"role","type":"string","value":"chat"},{"name":"side","type":"string","value":"a"}]},{"id":479,"name":"Fairview Subdivision","type":"","rotation":0,"point":true,"visible":true,"x":120.0,"y":717.6,"width":0,"height":0,"properties":[{"name":"cap","type":"string","value":"1"},{"name":"facing","type":"string","value":"face"},{"name":"kind","type":"string","value":"spot"},{"name":"order","type":"string","value":"18"},{"name":"pair","type":"string","value":"Fairview Subdivision#4"},{"name":"role","type":"string","value":"chat"},{"name":"side","type":"string","value":"b"}]},{"id":480,"name":"Route 9","type":"","rotation":0,"point":true,"visible":true,"x":328.0,"y":477.6,"width":0,"height":0,"properties":[{"name":"cap","type":"string","value":"1"},{"name":"facing","type":"string","value":"face"},{"name":"kind","type":"string","value":"spot"},{"name":"order","type":"string","value":"0"},{"name":"pair","type":"string","value":"Route 9#0"},{"name":"role","type":"string","value":"chat"},{"name":"side","type":"string","value":"a"}]},{"id":481,"name":"Route 9","type":"","rotation":0,"point":true,"visible":true,"x":360.0,"y":477.6,"width":0,"height":0,"properties":[{"name":"cap","type":"string","value":"1"},{"name":"facing","type":"string","value":"face"},{"name":"kind","type":"string","value":"spot"},{"name":"order","type":"string","value":"1"},{"name":"pair","type":"string","value":"Route 9#0"},{"name":"role","type":"string","value":"chat"},{"name":"side","type":"string","value":"b"}]},{"id":482,"name":"Route 9","type":"","rotation":0,"point":true,"visible":true,"x":632.0,"y":381.6,"width":0,"height":0,"properties":[{"name":"cap","type":"string","value":"1"},{"name":"facing","type":"string","value":"face"},{"name":"kind","type":"string","value":"spot"},{"name":"order","type":"string","value":"2"},{"name":"pair","type":"string","value":"Route 9#1"},{"name":"role","type":"string","value":"chat"},{"name":"side","type":"string","value":"a"}]},{"id":483,"name":"Route 9","type":"","rotation":0,"point":true,"visible":true,"x":664.0,"y":381.6,"width":0,"height":0,"properties":[{"name":"cap","type":"string","value":"1"},{"name":"facing","type":"string","value":"face"},{"name":"kind","type":"string","value":"spot"},{"name":"order","type":"string","value":"3"},{"name":"pair","type":"string","value":"Route 9#1"},{"name":"role","type":"string","value":"chat"},{"name":"side","type":"string","value":"b"}]},{"id":484,"name":"Route 9","type":"","rotation":0,"point":true,"visible":true,"x":872.0,"y":461.6,"width":0,"height":0,"properties":[{"name":"cap","type":"string","value":"1"},{"name":"facing","type":"string","value":"face"},{"name":"kind","type":"string","value":"spot"},{"name":"order","type":"string","value":"4"},{"name":"pair","type":"string","value":"Route 9#2"},{"name":"role","type":"string","value":"chat"},{"name":"side","type":"string","value":"a"}]},{"id":485,"name":"Route 9","type":"","rotation":0,"point":true,"visible":true,"x":904.0,"y":461.6,"width":0,"height":0,"properties":[{"name":"cap","type":"string","value":"1"},{"name":"facing","type":"string","value":"face"},{"name":"kind","type":"string","value":"spot"},{"name":"order","type":"string","value":"5"},{"name":"pair","type":"string","value":"Route 9#2"},{"name":"role","type":"string","value":"chat"},{"name":"side","type":"string","value":"b"}]},{"id":486,"name":"Community Fields","type":"","rotation":0,"point":true,"visible":true,"x":968.0,"y":621.6,"width":0,"height":0,"properties":[{"name":"cap","type":"string","value":"1"},{"name":"facing","type":"string","value":"face"},{"name":"kind","type":"string","value":"spot"},{"name":"order","type":"string","value":"2"},{"name":"pair","type":"string","value":"Community Fields#0"},{"name":"role","type":"string","value":"chat"},{"name":"side","type":"string","value":"a"}]},{"id":487,"name":"Community Fields","type":"","rotation":0,"point":true,"visible":true,"x":1000.0,"y":621.6,"width":0,"height":0,"properties":[{"name":"cap","type":"string","value":"1"},{"name":"facing","type":"string","value":"face"},{"name":"kind","type":"string","value":"spot"},{"name":"order","type":"string","value":"3"},{"name":"pair","type":"string","value":"Community Fields#0"},{"name":"role","type":"string","value":"chat"},{"name":"side","type":"string","value":"b"}]},{"id":488,"name":"Community Fields","type":"","rotation":0,"point":true,"visible":true,"x":1000.0,"y":637.6,"width":0,"height":0,"properties":[{"name":"cap","type":"string","value":"1"},{"name":"facing","type":"string","value":"down"},{"name":"kind","type":"string","value":"spot"},{"name":"order","type":"string","value":"4"},{"name":"role","type":"string","value":"lawn"}]},{"id":489,"name":"Community Fields","type":"","rotation":0,"point":true,"visible":true,"x":1064.0,"y":605.6,"width":0,"height":0,"properties":[{"name":"cap","type":"string","value":"1"},{"name":"facing","type":"string","value":"down"},{"name":"kind","type":"string","value":"spot"},{"name":"order","type":"string","value":"5"},{"name":"role","type":"string","value":"lawn"}]},{"id":490,"name":"Community Fields","type":"","rotation":0,"point":true,"visible":true,"x":1064.0,"y":573.6,"width":0,"height":0,"properties":[{"name":"cap","type":"string","value":"1"},{"name":"facing","type":"string","value":"down"},{"name":"kind","type":"string","value":"spot"},{"name":"order","type":"string","value":"6"},{"name":"role","type":"string","value":"lawn"}]},{"id":491,"name":"Community Fields","type":"","rotation":0,"point":true,"visible":true,"x":984.0,"y":605.6,"width":0,"height":0,"properties":[{"name":"cap","type":"string","value":"1"},{"name":"facing","type":"string","value":"down"},{"name":"kind","type":"string","value":"spot"},{"name":"order","type":"string","value":"7"},{"name":"role","type":"string","value":"lawn"}]},{"id":492,"name":"Community Fields","type":"","rotation":0,"point":true,"visible":true,"x":904.0,"y":669.6,"width":0,"height":0,"properties":[{"name":"cap","type":"string","value":"1"},{"name":"facing","type":"string","value":"down"},{"name":"kind","type":"string","value":"spot"},{"name":"order","type":"string","value":"8"},{"name":"role","type":"string","value":"lawn"}]},{"id":493,"name":"Community Fields","type":"","rotation":0,"point":true,"visible":true,"x":1048.0,"y":669.6,"width":0,"height":0,"properties":[{"name":"cap","type":"string","value":"1"},{"name":"facing","type":"string","value":"down"},{"name":"kind","type":"string","value":"spot"},{"name":"order","type":"string","value":"9"},{"name":"role","type":"string","value":"lawn"}]},{"id":494,"name":"Community Fields","type":"","rotation":0,"point":true,"visible":true,"x":968.0,"y":669.6,"width":0,"height":0,"properties":[{"name":"cap","type":"string","value":"1"},{"name":"facing","type":"string","value":"down"},{"name":"kind","type":"string","value":"spot"},{"name":"order","type":"string","value":"10"},{"name":"role","type":"string","value":"lawn"}]},{"id":495,"name":"Community Fields","type":"","rotation":0,"point":true,"visible":true,"x":952.0,"y":637.6,"width":0,"height":0,"properties":[{"name":"cap","type":"string","value":"1"},{"name":"facing","type":"string","value":"down"},{"name":"kind","type":"string","value":"spot"},{"name":"order","type":"string","value":"11"},{"name":"role","type":"string","value":"lawn"}]},{"id":496,"name":"Harlow Elementary School","type":"","rotation":0,"point":true,"visible":true,"x":744.0,"y":285.6,"width":0,"height":0,"properties":[{"name":"cap","type":"string","value":"1"},{"name":"facing","type":"string","value":"up"},{"name":"kind","type":"string","value":"spot"},{"name":"order","type":"string","value":"0"},{"name":"role","type":"string","value":"queue"}]},{"id":497,"name":"Harlow Elementary School","type":"","rotation":0,"point":true,"visible":true,"x":776.0,"y":285.6,"width":0,"height":0,"properties":[{"name":"cap","type":"string","value":"1"},{"name":"facing","type":"string","value":"up"},{"name":"kind","type":"string","value":"spot"},{"name":"order","type":"string","value":"1"},{"name":"role","type":"string","value":"queue"}]},{"id":498,"name":"Harlow Elementary School","type":"","rotation":0,"point":true,"visible":true,"x":808.0,"y":285.6,"width":0,"height":0,"properties":[{"name":"cap","type":"string","value":"1"},{"name":"facing","type":"string","value":"up"},{"name":"kind","type":"string","value":"spot"},{"name":"order","type":"string","value":"2"},{"name":"role","type":"string","value":"queue"}]},{"id":499,"name":"Harlow Elementary School","type":"","rotation":0,"point":true,"visible":true,"x":840.0,"y":285.6,"width":0,"height":0,"properties":[{"name":"cap","type":"string","value":"1"},{"name":"facing","type":"string","value":"up"},{"name":"kind","type":"string","value":"spot"},{"name":"order","type":"string","value":"3"},{"name":"role","type":"string","value":"queue"}]},{"id":500,"name":"Harlow Elementary School","type":"","rotation":0,"point":true,"visible":true,"x":872.0,"y":285.6,"width":0,"height":0,"properties":[{"name":"cap","type":"string","value":"1"},{"name":"facing","type":"string","value":"up"},{"name":"kind","type":"string","value":"spot"},{"name":"order","type":"string","value":"4"},{"name":"role","type":"string","value":"queue"}]}]},{"id":8,"name":"traffic","type":"objectgroup","visible":false,"opacity":1,"x":0,"y":0,"draworder":"topdown","objects":[{"id":501,"name":"h24","type":"","rotation":0,"visible":true,"x":0,"y":424.0,"width":0,"height":0,"polyline":[{"x":0,"y":0},{"x":1120,"y":0.0}],"properties":[{"name":"kind","type":"string","value":"lane"},{"name":"dir","type":"string","value":"e"},{"name":"road","type":"string","value":"h24"},{"name":"through","type":"string","value":"0"}]},{"id":502,"name":"","type":"","rotation":0,"point":true,"visible":true,"x":542,"y":424.0,"width":0,"height":0,"properties":[{"name":"kind","type":"string","value":"stopline"},{"name":"axis","type":"string","value":"h"},{"name":"dir","type":"string","value":"e"},{"name":"signal","type":"string","value":"1"}]},{"id":503,"name":"","type":"","rotation":0,"point":true,"visible":true,"x":78,"y":424.0,"width":0,"height":0,"properties":[{"name":"kind","type":"string","value":"stopline"},{"name":"axis","type":"string","value":"h"},{"name":"dir","type":"string","value":"e"},{"name":"signal","type":"string","value":"0"}]},{"id":504,"name":"","type":"","rotation":0,"point":true,"visible":true,"x":350,"y":424.0,"width":0,"height":0,"properties":[{"name":"kind","type":"string","value":"stopline"},{"name":"axis","type":"string","value":"h"},{"name":"dir","type":"string","value":"e"},{"name":"signal","type":"string","value":"0"}]},{"id":505,"name":"h24","type":"","rotation":0,"visible":true,"x":1120,"y":392.0,"width":0,"height":0,"polyline":[{"x":0,"y":0},{"x":-1120,"y":0.0}],"properties":[{"name":"kind","type":"string","value":"lane"},{"name":"dir","type":"string","value":"w"},{"name":"road","type":"string","value":"h24"},{"name":"through","type":"string","value":"0"}]},{"id":506,"name":"","type":"","rotation":0,"point":true,"visible":true,"x":626,"y":392.0,"width":0,"height":0,"properties":[{"name":"kind","type":"string","value":"stopline"},{"name":"axis","type":"string","value":"h"},{"name":"dir","type":"string","value":"w"},{"name":"signal","type":"string","value":"1"}]},{"id":507,"name":"","type":"","rotation":0,"point":true,"visible":true,"x":146,"y":392.0,"width":0,"height":0,"properties":[{"name":"kind","type":"string","value":"stopline"},{"name":"axis","type":"string","value":"h"},{"name":"dir","type":"string","value":"w"},{"name":"signal","type":"string","value":"0"}]},{"id":508,"name":"","type":"","rotation":0,"point":true,"visible":true,"x":418,"y":392.0,"width":0,"height":0,"properties":[{"name":"kind","type":"string","value":"stopline"},{"name":"axis","type":"string","value":"h"},{"name":"dir","type":"string","value":"w"},{"name":"signal","type":"string","value":"0"}]},{"id":509,"name":"v35","type":"","rotation":0,"visible":true,"x":568.0,"y":0,"width":0,"height":0,"polyline":[{"x":0,"y":0},{"x":0.0,"y":800}],"properties":[{"name":"kind","type":"string","value":"lane"},{"name":"dir","type":"string","value":"s"},{"name":"road","type":"string","value":"v35"},{"name":"through","type":"string","value":"1"}]},{"id":510,"name":"","type":"","rotation":0,"point":true,"visible":true,"x":568.0,"y":366,"width":0,"height":0,"properties":[{"name":"kind","type":"string","value":"stopline"},{"name":"axis","type":"string","value":"v"},{"name":"dir","type":"string","value":"s"},{"name":"signal","type":"string","value":"1"}]},{"id":511,"name":"v35","type":"","rotation":0,"visible":true,"x":600.0,"y":800,"width":0,"height":0,"polyline":[{"x":0,"y":0},{"x":0.0,"y":-800}],"properties":[{"name":"kind","type":"string","value":"lane"},{"name":"dir","type":"string","value":"n"},{"name":"road","type":"string","value":"v35"},{"name":"through","type":"string","value":"1"}]},{"id":512,"name":"","type":"","rotation":0,"point":true,"visible":true,"x":600.0,"y":450,"width":0,"height":0,"properties":[{"name":"kind","type":"string","value":"stopline"},{"name":"axis","type":"string","value":"v"},{"name":"dir","type":"string","value":"n"},{"name":"signal","type":"string","value":"1"}]},{"id":513,"name":"v6","type":"","rotation":0,"visible":true,"x":104.0,"y":432,"width":0,"height":0,"polyline":[{"x":0,"y":0},{"x":0.0,"y":272}],"properties":[{"name":"kind","type":"string","value":"lane"},{"name":"dir","type":"string","value":"s"},{"name":"road","type":"string","value":"v6"},{"name":"through","type":"string","value":"0"}]},{"id":514,"name":"","type":"","rotation":0,"point":true,"visible":true,"x":104.0,"y":654,"width":0,"height":0,"properties":[{"name":"kind","type":"string","value":"stopline"},{"name":"axis","type":"string","value":"v"},{"name":"dir","type":"string","value":"s"},{"name":"signal","type":"string","value":"0"}]},{"id":515,"name":"v6","type":"","rotation":0,"visible":true,"x":120.0,"y":704,"width":0,"height":0,"polyline":[{"x":0,"y":0},{"x":0.0,"y":-272}],"properties":[{"name":"kind","type":"string","value":"lane"},{"name":"dir","type":"string","value":"n"},{"name":"road","type":"string","value":"v6"},{"name":"through","type":"string","value":"0"}]},{"id":516,"name":"","type":"","rotation":0,"point":true,"visible":true,"x":120.0,"y":450,"width":0,"height":0,"properties":[{"name":"kind","type":"string","value":"stopline"},{"name":"axis","type":"string","value":"v"},{"name":"dir","type":"string","value":"n"},{"name":"signal","type":"string","value":"0"}]},{"id":517,"name":"v23","type":"","rotation":0,"visible":true,"x":376.0,"y":432,"width":0,"height":0,"polyline":[{"x":0,"y":0},{"x":0.0,"y":272}],"properties":[{"name":"kind","type":"string","value":"lane"},{"name":"dir","type":"string","value":"s"},{"name":"road","type":"string","value":"v23"},{"name":"through","type":"string","value":"0"}]},{"id":518,"name":"v23","type":"","rotation":0,"visible":true,"x":392.0,"y":704,"width":0,"height":0,"polyline":[{"x":0,"y":0},{"x":0.0,"y":-272}],"properties":[{"name":"kind","type":"string","value":"lane"},{"name":"dir","type":"string","value":"n"},{"name":"road","type":"string","value":"v23"},{"name":"through","type":"string","value":"0"}]},{"id":519,"name":"","type":"","rotation":0,"point":true,"visible":true,"x":392.0,"y":450,"width":0,"height":0,"properties":[{"name":"kind","type":"string","value":"stopline"},{"name":"axis","type":"string","value":"v"},{"name":"dir","type":"string","value":"n"},{"name":"signal","type":"string","value":"0"}]},{"id":520,"name":"h42","type":"","rotation":0,"visible":true,"x":0,"y":696.0,"width":0,"height":0,"polyline":[{"x":0,"y":0},{"x":400,"y":0.0}],"properties":[{"name":"kind","type":"string","value":"lane"},{"name":"dir","type":"string","value":"e"},{"name":"road","type":"string","value":"h42"},{"name":"through","type":"string","value":"0"}]},{"id":521,"name":"","type":"","rotation":0,"point":true,"visible":true,"x":78,"y":696.0,"width":0,"height":0,"properties":[{"name":"kind","type":"string","value":"stopline"},{"name":"axis","type":"string","value":"h"},{"name":"dir","type":"string","value":"e"},{"name":"signal","type":"string","value":"0"}]},{"id":522,"name":"h42","type":"","rotation":0,"visible":true,"x":400,"y":680.0,"width":0,"height":0,"polyline":[{"x":0,"y":0},{"x":-400,"y":0.0}],"properties":[{"name":"kind","type":"string","value":"lane"},{"name":"dir","type":"string","value":"w"},{"name":"road","type":"string","value":"h42"},{"name":"through","type":"string","value":"0"}]},{"id":523,"name":"","type":"","rotation":0,"point":true,"visible":true,"x":146,"y":680.0,"width":0,"height":0,"properties":[{"name":"kind","type":"string","value":"stopline"},{"name":"axis","type":"string","value":"h"},{"name":"dir","type":"string","value":"w"},{"name":"signal","type":"string","value":"0"}]}]}]}