{"type":"map","version":"1.10","tiledversion":"1.10.2","orientation":"orthogonal","renderorder":"right-down","compressionlevel":-1,"infinite":false,"width":75,"height":50,"tilewidth":16,"tileheight":16,"nextlayerid":9,"nextobjectid":514,"tilesets":[{"firstgid":1,"name":"rpg-tileset","image":"../../tilesets/rpg-tileset.png","imagewidth":1600,"imageheight":1600,"tilewidth":16,"tileheight":16,"columns":100,"tilecount":10000,"margin":0,"spacing":0},{"firstgid":10001,"name":"township-modern","image":"../../tilesets/township-modern.png","imagewidth":160,"imageheight":480,"tilewidth":16,"tileheight":16,"columns":10,"tilecount":300,"margin":0,"spacing":0}],"layers":[{"id":1,"name":"ground","type":"tilelayer","visible":true,"opacity":1,"x":0,"y":0,"width":75,"height":50,"data":[303,203,303,204,205,204,305,203,305,205,305,204,305,305,302,203,205,302,305,205,202,205,304,302,304,305,302,203,202,305,202,302,305,304,10019,204,10020,305,302,305,303,204,205,302,305,303,204,204,302,202,303,205,304,303,202,305,204,202,304,303,305,305,305,203,203,205,202,204,302,303,202,205,203,302,203,203,203,205,202,203,302,204,305,202,202,302,302,205,303,203,305,302,305,305,305,305,204,203,304,304,204,205,204,205,203,202,304,202,303,204,204,305,305,302,202,202,203,205,305,302,204,203,305,304,202,202,205,205,203,205,202,202,202,304,305,302,204,203,305,303,202,204,304,302,203,204,205,305,203,202,305,204,305,304,302,303,204,204,204,302,204,303,203,205,303,304,204,304,205,203,305,303,302,305,205,305,205,302,204,302,203,202,204,304,10017,303,10019,205,202,302,304,304,305,205,202,303,303,302,305,202,302,305,205,303,304,303,203,304,203,302,304,203,205,304,204,205,303,202,204,202,202,203,204,303,304,305,302,205,203,204,204,204,202,303,303,305,202,305,302,203,302,304,305,202,203,205,202,302,203,303,302,303,203,202,204,202,204,203,205,10004,304,304,303,204,303,304,203,204,305,303,302,202,304,202,302,204,304,204,304,202,302,202,303,305,304,304,302,203,203,302,205,205,203,302,205,302,303,204,304,202,202,204,303,205,304,305,304,303,205,204,205,202,203,204,304,205,203,305,303,304,203,205,304,204,203,305,204,202,205,202,302,205,204,302,305,305,305,202,203,204,202,302,302,204,304,302,305,303,302,303,203,304,304,303,305,302,303,304,204,304,304,205,202,303,303,205,303,203,204,305,302,304,205,303,302,202,305,205,304,302,205,305,303,302,203,204,205,303,202,302,303,203,305,305,302,203,202,205,303,305,205,204,205,305,303,303,304,204,204,302,305,204,303,303,202,303,302,305,202,305,304,202,303,305,205,304,202,205,305,303,305,202,205,305,205,203,304,304,304,305,302,203,203,302,203,302,205,303,204,202,202,205,205,203,203,304,302,202,205,205,203,204,204,205,302,204,202,202,303,304,303,202,304,205,304,304,302,303,204,205,304,203,203,305,304,304,303,305,204,304,302,305,304,202,304,304,204,304,202,205,202,304,202,302,302,305,204,203,205,302,204,305,205,305,302,205,205,304,204,204,304,203,303,204,205,202,205,303,305,202,303,204,203,303,205,303,302,202,304,203,302,302,205,302,204,203,204,202,304,202,202,203,304,304,202,203,202,204,204,202,302,302,205,305,304,302,202,205,204,203,205,202,203,305,204,204,204,302,205,305,302,204,205,204,302,305,302,204,205,203,204,203,303,202,203,204,304,205,202,304,304,302,303,203,205,304,205,303,302,205,302,302,202,305,304,304,304,204,304,205,305,202,305,205,202,203,303,304,205,305,304,305,303,202,204,202,305,302,203,303,203,202,304,304,205,205,204,203,203,205,304,202,303,202,303,302,304,203,305,303,204,303,202,305,202,202,304,304,203,304,305,305,202,303,203,302,305,302,304,203,203,303,204,205,205,202,205,203,205,303,203,202,303,305,202,302,203,202,203,204,302,204,304,304,202,303,203,205,305,204,302,303,202,303,303,302,305,204,204,205,203,302,204,205,303,202,303,304,203,205,205,204,205,205,304,203,203,304,204,302,305,205,302,303,304,304,205,302,304,302,303,204,204,204,204,203,205,303,303,202,205,203,204,203,304,204,203,203,202,304,304,205,303,304,303,204,205,203,204,203,202,305,205,205,10017,305,10017,302,302,304,203,304,303,302,302,303,204,303,304,305,304,204,302,205,205,203,204,302,305,204,203,303,302,202,205,304,203,304,202,302,202,202,303,203,205,303,204,202,202,205,303,305,205,204,304,304,304,302,304,205,202,204,204,304,202,303,205,203,204,205,305,202,204,305,205,302,305,302,10003,302,202,305,202,205,302,302,205,303,302,304,304,303,302,202,302,303,304,305,202,205,302,305,204,205,304,303,303,205,204,205,304,205,302,304,305,204,305,304,203,203,203,303,204,203,203,303,303,303,204,304,305,304,305,204,305,303,202,303,203,205,302,304,304,302,10017,303,205,203,302,204,202,204,305,305,302,303,304,204,202,205,303,304,302,305,204,205,305,302,202,202,302,302,204,205,305,305,203,304,302,202,303,202,202,203,203,303,205,304,204,203,302,202,205,205,305,204,205,205,305,205,204,205,202,203,202,305,202,303,202,205,302,303,305,203,305,204,303,303,205,203,302,205,303,304,303,202,305,202,204,302,303,303,204,304,204,304,303,203,203,204,302,304,304,202,204,302,302,302,203,202,202,205,205,204,205,202,202,204,303,302,303,304,305,304,204,205,302,205,204,302,204,304,202,303,202,202,303,205,302,304,302,305,202,205,205,304,203,202,205,303,304,205,204,302,302,204,303,205,202,305,304,203,202,203,202,203,10019,204,205,202,202,303,303,204,303,305,203,305,302,305,202,304,204,304,302,202,202,302,204,304,303,303,205,203,204,303,203,305,203,305,204,303,303,305,304,304,203,303,304,203,202,202,202,304,305,204,205,202,303,205,205,203,302,305,204,303,203,202,205,302,203,305,10003,303,203,203,305,304,203,302,303,202,302,302,205,304,205,304,204,304,303,304,202,205,204,303,203,204,305,204,203,304,205,203,303,303,305,203,302,202,205,302,303,303,303,302,302,204,203,203,204,303,303,303,204,302,205,203,304,202,202,302,202,303,303,302,303,302,203,302,205,203,303,202,302,205,203,304,305,202,204,205,304,304,302,204,303,202,302,305,203,203,303,305,205,305,202,203,305,204,204,205,205,305,305,203,204,303,305,304,302,204,305,205,304,304,302,205,303,202,204,202,302,305,302,304,302,204,205,303,304,204,203,303,204,303,302,202,202,203,302,302,205,302,204,303,305,202,304,205,204,203,305,202,204,303,205,305,203,305,202,202,303,302,205,202,304,205,205,203,203,305,303,204,204,305,305,302,205,305,203,202,304,303,304,203,203,303,303,204,205,204,305,302,305,305,302,205,205,205,203,303,304,304,303,202,205,303,205,204,304,303,304,305,202,302,305,204,303,205,205,303,304,202,202,303,202,302,302,305,203,305,305,303,305,303,303,303,302,304,304,203,202,305,205,305,305,303,305,305,305,203,302,204,204,205,304,203,203,202,204,305,205,204,302,205,304,302,202,304,204,203,205,305,204,203,204,305,304,303,304,302,205,205,202,304,203,305,203,202,303,304,304,304,203,202,305,203,202,205,303,205,203,205,205,304,305,303,302,202,303,202,302,303,204,303,304,202,202,205,205,305,304,304,303,303,203,303,204,203,202,304,205,303,205,305,203,304,304,204,205,304,202,205,305,205,302,303,304,203,304,303,304,204,202,204,205,305,205,304,304,302,205,303,303,305,303,205,302,304,204,205,205,304,303,302,304,202,302,303,304,204,202,305,205,304,302,304,205,205,303,304,203,204,204,302,303,302,205,202,304,303,304,302,202,302,303,303,304,304,304,304,204,204,302,203,303,302,302,205,303,303,204,303,202,204,204,204,204,305,303,203,204,304,304,204,305,202,305,305,202,305,305,305,204,304,304,305,202,302,305,204,202,304,203,302,302,303,205,303,203,305,205,305,305,202,202,303,204,305,302,202,205,203,205,204,203,202,205,304,202,204,302,203,305,305,204,305,203,203,303,204,304,305,304,305,303,204,205,302,205,205,202,205,303,204,304,303,302,303,305,205,203,303,303,204,305,204,202,302,305,203,303,302,304,202,204,302,205,305,302,205,303,303,204,204,204,204,205,202,205,205,204,202,304,203,305,302,305,304,203,202,204,203,205,302,202,204,202,202,205,304,305,205,205,203,202,305,302,303,203,302,205,304,304,202,305,303,302,305,205,204,305,202,205,302,204,302,303,203,202,305,305,202,205,304,202,305,303,302,202,305,304,204,305,304,202,303,302,205,304,203,302,304,202,305,305,302,303,305,305,205,202,305,302,203,204,303,203,304,305,203,304,204,202,304,303,202,202,304,205,204,204,203,202,302,203,303,205,204,303,303,203,304,204,302,204,305,303,204,305,204,205,304,202,205,204,304,302,203,202,303,203,10001,302,303,204,10004,205,304,202,305,202,305,303,303,302,304,204,203,204,204,302,302,302,203,205,203,302,203,303,204,203,305,203,305,204,205,202,305,303,204,205,205,204,305,302,204,305,303,303,303,302,303,303,10018,204,205,302,202,204,303,202,304,205,305,303,202,202,203,205,203,205,303,202,205,204,302,204,304,304,202,304,202,302,205,303,203,303,303,305,303,203,303,204,204,303,205,302,304,204,304,205,302,304,203,305,302,202,205,203,302,202,205,202,204,204,302,303,203,303,204,303,204,305,203,303,204,305,10018,204,204,304,303,304,202,204,302,202,203,203,303,303,203,305,303,205,204,204,304,203,304,302,304,305,204,205,305,202,205,303,202,302,204,202,203,305,203,305,304,203,205,204,203,303,304,202,202,303,302,204,203,304,205,303,305,305,303,202,302,304,202,305,305,202,304,305,304,302,305,204,203,304,204,204,10020,304,303,202,204,302,302,303,202,305,202,203,202,305,302,305,203,203,303,205,203,205,302,305,204,205,203,203,203,302,205,302,302,304,204,302,202,204,304,305,204,205,302,305,305,203,303,305,303,304,205,202,202,305,302,204,202,303,303,305,304,205,303,303,303,302,205,303,302,302,204,203,302,204,10019,205,204,202,304,204,302,204,202,302,303,202,305,204,304,202,203,205,303,304,204,304,304,304,304,204,304,305,204,205,205,303,203,205,304,203,303,305,304,205,304,202,305,304,204,202,305,203,204,203,302,203,203,203,303,202,202,302,302,304,302,205,304,302,302,304,305,305,203,304,305,305,302,302,304,304,204,304,205,302,304,304,302,305,303,305,202,202,203,203,304,205,305,202,202,304,203,305,202,203,305,304,202,203,203,304,304,302,204,203,305,303,304,302,204,304,303,302,205,303,304,304,303,203,205,302,204,304,304,305,303,205,302,203,305,205,202,203,202,204,204,303,305,305,202,303,205,304,302,202,305,205,203,304,304,205,302,202,305,303,204,305,304,202,304,305,202,205,202,305,305,302,203,205,303,204,203,203,204,203,202,302,304,203,204,304,302,305,203,203,303,305,304,302,304,205,302,305,304,302,203,305,202,203,203,302,205,304,304,305,305,204,304,303,205,305,303,305,303,302,203,305,302,304,204,203,303,305,205,304,304,204,202,205,205,205,203,202,304,203,202,202,202,204,202,302,203,304,205,304,303,304,204,204,205,303,302,305,202,304,304,204,305,204,302,203,304,303,302,304,303,303,303,302,202,305,205,305,203,204,204,203,302,205,204,305,204,302,204,205,204,304,202,305,302,305,302,202,302,303,303,305,305,304,305,204,303,204,205,204,203,204,203,302,202,205,202,305,305,202,204,302,204,303,304,305,205,204,305,305,204,305,202,203,203,202,304,204,302,303,304,303,302,304,305,203,205,302,303,204,305,203,302,203,203,304,205,205,302,205,205,304,303,202,202,204,203,202,202,304,304,303,205,302,305,305,203,304,205,204,203,302,304,302,303,303,203,305,203,203,304,303,305,202,202,205,205,203,302,205,305,205,305,202,204,202,204,202,303,205,205,202,305,302,203,202,202,203,305,205,204,303,205,305,205,305,305,302,204,305,204,203,204,202,305,203,304,205,304,304,204,202,305,204,202,203,204,205,202,302,304,205,204,202,202,202,302,204,303,204,203,204,305,304,305,203,204,202,302,303,302,203,305,205,302,304,302,202,203,305,305,304,303,302,302,303,202,303,203,302,305,303,203,304,203,304,304,305,204,303,204,203,202,304,204,304,205,204,305,302,205,303,205,205,304,202,303,205,303,202,205,203,203,302,203,204,305,304,304,302,205,202,305,304,205,303,302,205,303,302,304,205,304,304,304,303,302,305,203,302,302,203,302,204,302,204,303,304,304,203,304,303,303,205,303,304,302,303,204,304,202,202,202,303,303,205,203,202,203,203,303,203,205,302,302,205,302,303,204,302,202,203,203,202,202,303,204,305,204,203,205,205,204,303,203,305,303,205,202,202,204,303,304,303,304,305,202,305,305,205,305,203,304,203,202,304,202,302,203,204,305,304,203,302,205,303,302,205,302,202,205,204,204,302,205,302,305,302,303,302,302,205,204,302,304,302,304,205,202,203,303,203,305,302,303,202,203,205,305,205,202,304,203,304,205,203,202,203,302,204,205,205,302,203,203,205,202,303,205,202,304,302,204,304,305,303,205,204,305,203,204,304,304,302,303,304,204,204,202,204,303,303,304,302,302,202,303,305,202,203,304,302,302,303,203,302,304,304,204,203,305,202,302,304,205,203,303,204,205,202,205,205,203,205,202,205,305,202,204,202,205,304,305,202,303,203,303,305,305,204,202,302,304,204,302,303,202,203,205,305,304,202,203,204,204,303,303,203,205,203,304,204,302,304,203,304,302,202,304,205,302,304,202,203,302,302,303,302,304,302,202,302,204,303,204,305,204,202,203,303,303,303,205,203,303,305,303,203,203,305,304,302,202,302,205,302,304,305,304,204,204,302,305,202,205,303,205,202,205,203,205,305,303,205,303,203,305,203,303,302,302,303,302,304,302,203,305,304,304,204,304,204,305,303,203,203,303,304,204,304,304,304,302,302,203,205,304,203,302,205,203,302,304,302,302,302,204,305,202,303,204,304,304,303,205,203,304,303,205,203,203,202,202,204,205,205,303,202,304,205,304,304,203,205,205,202,204,304,302,304,205,204,304,302,202,303,303,204,204,303,302,302,302,305,303,305,305,203,203,204,202,204,204,203,205,302,202,204,204,302,305,203,203,205,303,204,202,304,205,304,305,202,203,205,205,203,305,303,305,205,304,304,305,203,203,304,305,202,302,203,204,305,305,302,304,205,202,305,202,304,302,304,205,203,202,304,304,204,302,203,304,305,203,303,205,203,202,304,202,203,203,305,303,303,304,303,204,204,303,205,302,204,204,304,304,204,204,205,204,303,305,205,302,204,302,205,304,204,204,304,305,205,305,202,302,305,203,202,202,202,303,204,302,303,304,205,202,305,302,302,205,302,203,305,202,304,204,205,205,202,202,302,204,203,304,205,302,204,204,302,205,304,202,204,203,202,302,204,302,303,304,304,302,205,304,303,302,303,304,304,303,205,302,205,202,205,202,202,305,202,304,204,204,302,202,204,204,204,203,303,302,304,305,302,302,305,304,303,305,203,303,302,205,204,304,304,305,302,304,202,305,202,304,305,304,305,303,303,204,305,204,304,204,302,303,304,303,304,305,302,203,304,205,205,302,305,304,204,205,305,203,203,304,303,302,302,205,303,203,202,303,304,305,304,204,302,305,203,205,302,203,302,302,302,303,305,203,202,204,305,205,305,302,305,203,204,303,305,305,303,203,304,203,302,203,202,205,302,203,205,205,203,204,303,205,305,305,305,202,302,203,203,305,302,202,302,302,204,202,203,202,302,302,305,303,304,304,305,204,303,204,305,305,202,203,203,202,302,303,204,205,305,204,205,205,303,203,205,202,203,202,203,305,205,202,302,202,305,305,305,305,304,303,302,202,303,202,204,203,202,205,304,303,203,202,202,305,204,304,303,302,202,303,202,202,202,302,203,202,205,202,303,304,304,305,205,302,204,304,303,304,205,205,302,203,302,303,305,305,302,204,305,305,203,302,304,202,203,305,303,304,304,303,203,304,302,202,204,305,205,303,204,203,202,203,302,203,304,204,202,304,304,303,202,302,302,304,304,303,204,205,204,305,202,202,204,203,303,304,205,305,202,303,304,303,303,304,305,203,202,203,202,205,204,303,303,302,303,203,303,203,203,305,302,303,305,303,203,202,302,205,205,204,302,305,302,303,203,202,303,305,203,204,204,303,304,203,204,203,204,304,203,203,302,202,204,204,305,203,305,305,302,303,302,202,303,305,204,304,303,303,304,303,304,202,303,304,305,205,304,205,202,202,305,204,303,205,302,203,303,305,204,204,305,303,302,204,203,204,305,204,203,204,204,202,302,205,205,304,302,304,204,202,205,202,203,303,202,204,304,302,205,205,204,305,202,302,302,303,302,202,304,203,303,303,302,305,205,305,203,205,203,204,302,205,205,302,303,203,305,205,304,303,305,303,302,303,302,303,302,303,205,204,203,204,305,202,203,303,204,205,205,305,202,302,203,204,203,204,305,302,203,302,304,202,305,302,202,204,302,204,304,302,304,304,305,205,305,305,303,303,205,203,204,203,302,203,303,303,304,202,305,204,203,304,303,204,204,205,205,203,303,305,202,204,202,205,304,202,205,205,205,203,305,304,303,204,205,302,305,302,203,305,304,205,303,205,204,202,302,204,205,202,302,203,203,205,205,203,203,305,303,202,302,304,202,203,202,205,303,204]},{"id":2,"name":"ground-detail","type":"tilelayer","visible":true,"opacity":1,"x":0,"y":0,"width":75,"height":50,"data":[10182,10181,10181,10184,10184,10182,10183,10183,10182,10181,10182,10184,10182,10182,10184,10183,10182,10182,10181,10184,10184,10183,10184,10181,10184,10181,10183,10183,10182,10184,10184,10182,10189,10021,10005,10006,10007,10021,10188,10184,10183,10184,10184,10183,10181,10191,10184,10183,10181,10183,10182,10182,10183,10184,10181,10184,10184,10182,10184,10181,10184,10183,10183,10182,10182,10184,10181,10183,10184,10182,10183,10184,10183,10183,10182,10183,10183,10182,10182,10182,10181,10184,10183,10182,10183,10182,10183,10184,10182,10181,10182,10181,10181,10183,10184,10183,10182,10182,10183,10183,10183,10181,10184,10182,10191,10191,10191,10192,10024,10008,10036,10009,10024,10190,10191,10184,10182,10181,10191,10192,2002,10190,10191,10181,10184,10181,10184,10183,10181,10182,10184,10184,10191,10191,10191,10191,10191,10191,10184,10184,10183,10183,10184,10184,10181,10181,10182,10184,10184,10183,10183,10181,10191,10191,10191,10191,10191,10191,10191,10191,10191,10191,10191,10191,10191,10191,10183,10184,10184,10191,10191,10191,10191,10191,10191,10191,10191,10183,10192,10193,0,0,0,10024,10010,10011,10012,10024,0,10194,10190,10191,10192,10193,1902,2205,0,2202,10190,10191,10191,10191,10191,10191,10191,10191,10192,2202,2204,1905,0,0,10194,10190,10191,10191,10191,10191,10191,10191,10191,10191,10191,10191,10191,10191,10192,10193,0,0,219,112,115,0,112,114,115,218,0,0,10194,10190,10191,10192,10193,0,0,219,112,114,114,115,10190,112,114,114,113,115,10026,10017,10020,10018,10026,219,112,113,113,114,115,218,0,0,219,112,218,219,112,114,114,113,114,113,113,115,0,3010,113,113,114,114,113,114,114,114,113,113,113,114,115,218,112,113,113,113,113,113,213,213,114,213,214,213,113,114,114,114,114,113,113,114,114,113,113,213,213,213,213,114,314,214,213,314,314,114,10017,10019,10018,114,113,214,314,214,314,314,114,113,114,113,214,113,113,313,213,213,213,313,314,313,214,3307,3309,313,313,213,313,313,313,314,313,214,314,214,213,213,115,212,214,213,214,313,313,213,314,213,214,314,214,313,314,213,313,214,213,314,213,213,213,313,214,213,213,314,314,313,314,213,314,214,214,10017,10017,10017,314,213,314,314,214,213,214,214,214,314,313,214,213,214,213,214,213,314,314,213,313,213,3007,3010,314,313,314,313,314,214,213,214,314,213,213,313,213,315,312,314,214,313,214,313,213,214,213,313,214,314,213,313,214,214,313,313,314,314,314,213,213,314,313,214,314,314,313,313,213,214,214,213,10018,10019,10017,213,314,313,214,313,314,214,214,214,213,314,214,314,213,213,213,214,214,314,214,313,213,3010,3008,313,313,214,314,214,214,214,313,213,313,213,214,313,215,212,213,213,414,414,413,414,414,214,213,313,214,313,313,314,214,214,214,313,413,213,414,413,414,413,413,414,413,413,314,213,213,213,413,10017,10020,10019,313,413,414,214,214,414,413,413,414,413,414,414,413,314,214,414,414,414,413,414,414,413,3310,3008,414,413,413,414,414,214,313,414,414,413,414,413,414,415,412,413,415,118,0,0,0,119,412,414,414,413,413,414,413,414,413,414,415,0,412,118,0,0,0,0,0,0,119,412,413,413,415,118,10020,10019,10018,415,118,119,412,415,118,0,0,0,0,0,0,119,412,415,118,0,0,0,0,0,0,0,0,0,0,0,0,112,115,415,118,0,0,0,0,10185,10186,10186,10187,0,0,0,0,0,0,0,0,0,0,0,0,0,0,0,0,0,0,0,0,0,0,0,0,0,0,0,0,0,0,0,10021,10017,10017,10019,10023,1912,1914,1913,1913,1913,1914,1913,1913,1915,2018,0,0,0,0,0,0,0,0,1912,1914,1914,1913,1913,1913,1914,1913,1913,882,784,0,0,0,0,0,0,10190,10191,10181,10189,10195,0,0,0,0,0,0,0,1902,0,1902,0,0,1902,1905,0,0,0,1902,1905,0,0,0,0,0,0,0,0,0,0,0,10024,10005,10036,10007,10024,2212,2213,2213,2214,2214,2214,2214,2214,2213,1913,1913,1914,1914,1913,1913,1914,1914,1915,0,0,0,0,0,0,0,0,0,112,115,1912,1914,1914,1914,1913,1913,1913,1915,10183,10184,10186,10187,0,0,0,0,0,0,2102,1904,2003,1903,1903,2003,2104,1904,1904,1904,2104,2104,1905,10021,10022,10022,10022,10022,10022,10022,10022,10022,10022,10028,10008,10001,10009,10024,0,0,0,0,0,0,0,0,0,0,0,0,0,0,0,1038,1037,1136,1139,0,0,1139,0,0,1236,1136,0,212,315,0,0,0,0,10196,10185,10186,10186,10182,10182,10183,10189,0,0,0,0,0,0,2002,2104,2103,2004,2003,2004,2104,2003,2004,2004,2104,2103,2105,10024,10005,10006,10006,10006,10006,10006,10006,10006,10006,10006,10004,10002,10009,10024,0,0,0,0,0,0,0,0,0,0,0,0,0,0,1040,1239,1036,1902,1905,1036,1039,1140,1239,1038,1240,1038,1038,312,215,0,0,0,10185,10186,10184,10184,10182,10183,10183,10183,10192,0,0,0,0,0,0,2202,2003,2004,2004,2103,2103,2003,2104,2104,2103,2004,2004,1912,10024,10008,10001,10001,10003,10035,10002,10002,10035,10004,10001,10004,10001,10009,10024,0,0,0,0,0,0,0,0,0,0,0,0,0,0,1239,1137,1037,2202,2205,1140,1237,1237,1036,1140,1137,1040,0,212,215,0,0,0,10188,10181,10181,10184,10181,10182,10182,10189,0,0,0,0,0,0,0,0,2002,2103,2003,2003,2104,2104,2004,2003,2104,2104,2005,2212,10024,10008,10001,10002,10011,10011,10011,10011,10011,10011,10011,10011,10011,10012,10024,0,0,0,0,0,0,0,0,0,0,0,0,0,0,0,1239,1236,1237,1038,1239,1139,1136,1137,1039,1139,1138,1236,212,215,0,0,0,10190,10191,10183,10183,10183,10182,10181,10183,10186,10186,10186,10186,10186,10187,0,0,2002,2203,2103,2104,2103,2204,2103,2203,2104,2104,2105,0,10024,10008,10004,10009,10021,10022,10022,10022,10022,10022,10022,10022,10022,10022,10028,0,0,0,10185,10186,10186,10186,10186,10186,10186,10186,10187,0,0,0,1037,1139,1037,1039,1139,1038,1139,1040,1040,1237,1239,1036,212,315,0,0,0,0,0,10188,10181,10182,10184,10181,10189,10193,0,0,0,0,0,0,0,2202,0,2202,2203,2205,10185,10186,10186,10186,10186,10186,10187,10024,10008,10036,10009,10024,0,0,0,0,10185,10186,10186,10186,10186,10186,10186,10186,10187,0,0,0,0,0,0,0,0,0,0,0,0,1138,1036,1238,1139,1239,1239,1238,1240,1902,1905,1137,1136,312,215,10185,10186,10186,10186,10186,10182,10184,10182,10182,10184,10189,0,0,0,0,0,0,0,0,0,0,10179,10179,0,0,0,0,0,0,0,0,10024,10008,10002,10009,10024,1903,1903,1904,1905,0,0,0,0,0,0,0,0,0,0,0,0,0,0,0,0,0,0,0,0,1136,0,0,1237,1137,0,0,1140,0,2202,2205,1237,0,212,215,0,0,0,0,10194,10188,10184,10182,10182,10182,10189,0,0,0,0,0,0,0,0,0,0,10180,10180,0,0,0,0,0,0,0,0,10024,10008,10003,10009,10024,2003,2104,2104,2205,0,0,0,0,0,0,0,0,0,0,0,0,0,0,0,0,0,0,0,0,0,0,0,0,0,0,0,0,0,0,0,0,0,312,215,0,0,0,0,0,10188,10181,10182,10181,10181,10189,0,0,0,0,0,0,0,0,0,0,5808,5807,5810,0,0,0,0,0,0,0,10024,10008,10036,10009,10024,2103,2103,2105,0,0,0,0,0,0,0,0,0,0,0,0,0,0,0,0,0,0,0,0,0,0,0,0,0,1912,1915,0,0,0,0,0,0,219,212,315,0,0,0,0,0,10188,10181,10183,10183,10182,10189,0,0,0,0,0,0,0,0,0,0,5710,5907,5810,0,0,0,0,0,0,0,10024,10008,10001,10009,10024,2103,2003,2004,1905,0,0,0,0,0,0,0,0,0,0,0,0,0,0,0,0,0,0,0,0,0,0,0,0,2112,2015,112,113,113,114,114,114,114,313,215,0,0,0,0,0,10188,10182,10183,10183,10184,10189,0,0,0,0,0,0,0,0,0,0,5808,5710,5710,0,0,0,0,0,0,0,10024,10008,10004,10009,10024,2004,1912,1915,2205,0,0,0,0,0,0,0,0,0,0,0,0,0,0,0,0,0,0,0,0,0,0,0,0,2012,2015,412,414,414,414,413,414,413,414,415,0,0,0,0,0,10188,10181,10184,10184,10181,10192,0,0,0,0,0,0,0,0,0,0,0,0,0,0,0,0,0,0,0,0,10024,10008,10036,10009,10024,2003,2012,2115,0,0,0,0,0,0,0,0,0,0,0,0,0,0,0,0,0,0,0,0,0,0,0,0,0,2012,2115,0,0,0,0,0,0,0,0,0,0,0,0,0,0,10190,10184,10184,10191,10192,10193,0,883,784,785,783,0,0,0,0,0,0,0,0,0,0,10019,10020,0,0,0,10024,10008,10003,10009,10024,2205,2212,2215,0,0,0,0,0,0,0,0,0,0,0,0,0,0,0,0,0,0,0,0,0,0,0,0,0,2212,2215,0,0,0,0,0,0,0,0,0,0,0,0,0,0,10194,10190,10191,10021,10022,10022,10022,10022,10022,10022,10022,10022,10022,10022,10022,10022,10022,10022,10022,10022,10022,10022,10022,10022,10022,10022,10028,10034,10034,10034,10026,10022,10022,10022,10022,10020,10018,10017,10017,10018,10017,10020,10020,10019,10022,10022,10022,10022,10022,10022,10022,10022,10022,10022,10022,10022,10022,10022,10022,10022,10022,10022,10022,10022,10022,10022,10022,10022,10022,10022,10022,884,884,885,785,10022,10022,10023,10005,10006,10006,10006,10006,10006,10006,10006,10006,10006,10006,10006,10006,10006,10006,10006,10006,10041,10006,10041,10006,10041,10006,10033,10001,10004,10003,10033,10006,10006,10006,10006,10006,10006,10006,10006,10006,10006,10006,10006,10006,10006,10006,10041,10006,10041,10006,10041,10006,10006,10006,10006,10006,10006,10006,10042,10006,10006,10006,10006,10006,10006,10006,10006,10006,10006,10006,10006,10006,10006,10006,10006,10006,10006,10007,10008,10035,10003,10002,10035,10003,10001,10035,10001,10002,10035,10003,10003,10035,10001,10001,10035,10004,10002,10035,10003,10002,10035,10033,10003,10001,10001,10033,10035,10003,10003,10035,10001,10002,10035,10003,10004,10035,10003,10002,10035,10004,10002,10035,10003,10001,10035,10002,10002,10035,10002,10003,10035,10002,10001,10035,10001,10004,10035,10002,10001,10035,10004,10003,10035,10002,10001,10035,10004,10003,10035,10002,10003,10035,10009,10010,10011,10011,10011,10011,10011,10011,10011,10011,10011,10011,10011,10042,10011,10011,10011,10011,10011,10011,10011,10011,10011,10011,10033,10011,10011,10011,10033,10011,10011,10011,10011,10011,10011,10011,10011,10011,10011,10011,10011,10011,10011,10011,10011,10011,10011,10011,10011,10011,10011,10011,10011,10011,10011,10011,10011,10011,10011,10011,10011,10011,10011,10011,10011,10011,10011,10011,10011,10011,10011,10011,10011,10011,10011,10012,10021,10022,10022,10022,10022,10022,10022,10022,10022,10022,10022,10022,10022,10022,10022,10022,10022,2114,2114,10022,10022,10022,10022,10022,10022,10022,10022,10022,10022,10022,10022,10022,10022,10022,10022,10022,10022,10022,10022,10022,10022,10022,10022,10022,10022,10022,10022,10022,2014,2013,10022,10022,10022,10022,10022,10022,10022,10022,10022,10022,10022,10022,10022,10022,10022,10022,10022,10022,10022,10022,10022,10022,10022,10022,10023,10186,10187,10195,0,0,0,0,0,0,0,0,0,0,0,0,0,0,2112,2115,0,0,10185,10186,10186,10186,10186,10186,10187,0,10185,10186,10186,10186,10186,10186,10186,10186,10186,10186,10186,10186,10186,10186,10186,10186,10186,10186,10187,2112,2015,0,10185,10186,10186,10186,10186,10187,0,10185,10186,10186,10186,10186,10187,0,10185,10186,10186,10186,10186,10187,0,10196,10185,10186,10181,10183,10187,0,0,0,0,0,0,0,0,0,0,0,0,0,0,2012,2115,0,0,0,0,0,0,0,0,0,0,0,0,0,0,0,0,0,0,0,0,0,0,0,0,0,0,0,0,0,2112,2115,0,0,0,0,0,0,0,0,0,0,0,0,0,0,0,0,0,0,0,0,0,10021,10185,10183,10181,10184,10181,10189,0,0,0,0,0,0,0,0,0,0,0,0,0,0,2012,2015,0,0,0,0,0,0,0,0,0,0,0,0,0,0,0,0,0,0,0,0,0,0,0,0,0,0,0,0,0,2012,2015,0,0,0,0,0,0,0,10179,0,0,0,0,0,0,10179,0,0,0,0,0,0,10024,10188,10181,10182,10184,10182,10189,0,0,0,0,0,0,0,0,0,0,0,0,0,0,2112,2115,0,0,0,0,0,0,0,0,0,0,0,0,0,0,0,0,0,0,0,0,0,0,0,0,0,0,0,0,0,2112,2015,0,0,0,0,0,0,0,10179,0,0,0,0,0,0,10180,0,0,0,0,0,0,10024,10188,10181,10183,10183,10183,10189,0,0,0,0,0,0,0,0,0,0,0,0,0,0,2012,2115,0,0,0,0,0,0,0,0,0,0,0,0,0,0,0,0,0,0,0,0,0,0,0,0,0,0,0,0,0,2012,2015,0,0,0,0,0,0,0,10179,0,0,0,0,0,0,10180,0,0,0,0,0,0,10024,10188,10184,10182,10182,10182,10192,10179,0,0,0,0,0,0,0,0,0,0,0,0,0,2112,2115,0,0,0,0,0,0,0,0,0,0,0,0,0,0,0,0,0,0,0,0,0,0,0,0,0,0,0,0,0,2112,2115,0,0,0,0,0,0,0,10180,0,0,0,0,0,0,10179,0,0,0,0,0,0,10024,10188,10182,10182,10182,10189,10193,10179,0,0,0,0,0,0,0,0,0,0,0,0,0,2012,2115,0,0,0,0,10020,10017,0,0,0,0,0,10018,10019,0,0,0,0,10020,10018,0,0,0,0,0,0,0,0,0,0,2112,2115,0,0,0,0,0,0,0,10180,0,0,0,0,0,0,10180,0,0,0,0,0,0,10024,10188,10181,10182,10191,10192,0,0,0,2113,2114,0,0,2013,2013,0,0,2113,2113,0,2019,2012,2015,2018,0,0,0,1912,1915,0,0,0,0,0,1912,1915,0,0,0,0,1912,1915,0,0,0,0,0,0,0,0,0,2019,2012,2015,2018,0,0,0,0,0,0,10179,0,0,0,0,0,0,10179,0,0,0,0,0,0,10026,10190,10183,10183,1913,1914,1914,1913,1914,1914,1914,1913,1913,1914,1913,1913,1914,1914,1914,1913,1913,2214,2214,1913,1914,1913,1914,1914,1913,1914,1913,1914,1913,1914,1914,1913,1913,1913,1913,1913,1913,1914,1913,1914,1913,1914,1913,1914,1914,1914,1914,1913,2214,2213,1913,1914,1914,1913,1913,1913,1914,1913,1914,1913,1914,1914,1914,1913,1913,1913,1913,1913,1913,1913,1914,1914,1915,10188,10184,10186,10187,0,0,0,0,0,0,0,0,0,10185,10186,10186,10186,10186,10187,0,0,0,10185,10186,10186,10186,10186,10187,0,0,0,10185,10186,10186,10186,10186,10187,1919,2112,1918,0,0,0,0,0,0,0,0,0,0,0,0,0,0,0,10264,10264,0,0,0,0,0,10264,10264,0,0,0,0,10185,10264,10264,10185,10187,1919,2012,10188,10182,10183,10189,10195,0,0,0,0,0,0,0,0,0,0,0,0,0,0,0,0,0,0,0,0,0,0,0,0,0,0,0,0,0,0,0,0,0,2112,0,0,0,0,0,0,0,0,0,0,0,0,0,0,0,0,0,0,0,0,0,0,0,0,0,0,0,0,0,0,0,0,0,0,0,2012,10188,10183,10182,10183,10187,0,0,0,0,0,0,0,0,0,0,0,0,0,0,0,0,0,0,0,0,0,0,0,0,0,0,0,0,0,0,0,0,0,2012,0,0,0,0,0,0,0,0,0,0,0,0,0,0,0,0,1902,1905,0,0,0,0,1902,1905,0,1902,1905,0,0,0,0,0,0,0,0,2112,10188,10182,10183,10184,10189,0,0,0,0,0,0,0,0,0,0,0,0,0,0,0,0,0,0,0,0,0,0,0,0,0,0,0,0,0,0,0,0,0,2112,0,0,0,0,0,0,0,0,0,0,0,0,0,0,0,1902,2004,2003,1904,1904,1904,1903,2004,2103,1904,2005,0,0,0,0,0,0,0,0,0,2112,10188,10183,10184,10184,10189,0,0,0,0,0,0,0,0,0,0,0,0,0,0,0,0,0,0,0,0,0,0,0,0,0,0,0,0,0,0,0,0,0,2012,0,0,0,0,0,0,0,0,0,0,0,0,0,0,0,0,2002,2003,2103,2104,2103,2104,2103,2104,2004,2105,0,0,0,0,0,0,0,0,0,2112,10188,10181,10181,10183,10189,0,0,0,0,0,0,0,0,0,0,0,0,0,0,0,0,0,0,0,0,0,0,0,0,0,0,0,0,0,0,0,0,0,2112,0,0,0,0,0,0,0,0,0,0,0,0,0,0,0,1902,2104,2104,2003,2104,2003,2103,2104,2004,2004,2104,1905,0,0,0,0,0,0,0,0,2012,10188,10184,10184,10183,10189,0,0,0,0,0,0,0,0,0,0,0,0,0,0,10021,10023,0,0,0,0,0,0,0,10021,10023,0,0,0,0,0,0,0,0,2012,0,0,0,0,0,0,0,0,0,0,0,0,0,0,0,0,2002,2203,2103,2104,2104,2104,2104,2004,2003,2205,0,0,0,0,0,0,0,0,0,2112,10188,10181,10181,10182,10189,0,0,0,0,0,0,0,0,0,0,0,0,0,0,10026,10028,0,0,0,0,0,0,0,10026,10028,0,0,0,0,0,0,0,2019,2012,10185,10187,0,0,0,0,0,0,0,0,0,0,0,0,0,0,2202,0,2202,2203,2203,2203,2204,2204,2205,0,1902,0,0,0,0,0,0,0,2019,2012,10188,10184,10184,10183,10189,0,0,0,0,0,0,0,0,1912,1914,1914,1913,1914,1913,1913,1913,1914,1914,1913,1914,1913,1914,1914,1913,1914,1913,1913,1913,1914,1913,1913,1913,1913,2215,10188,10189,0,0,0,0,0,0,0,0,0,0,0,0,0,0,0,0,0,10185,10186,10187,0,1912,1913,1913,1914,1913,1914,1913,1914,1914,1913,1914,1913,2215,10188,10184,10183,10183,10189,10195,0,0,0,0,0,0,0,0,0,10264,10264,0,0,0,0,10196,10185,10187,10264,10264,0,0,0,0,0,0,0,10264,10264,0,0,10196,10185,10182,10189,10195,0,0,0,0,0,0,0,0,0,0,0,0,0,0,0,10196,10188,10181,10189,10195,0,0,0,0,0,0,0,0,10264,10264,0,10196,10185,10183,10182,10183,10184,10184,10186,10186,10186,10186,10186,10186,10186,10186,10186,10186,10186,10186,10186,10186,10186,10186,10186,10184,10184,10186,10186,10186,10186,10186,10186,10186,10186,10186,10186,10186,10186,10186,10186,10183,10183,10181,10186,10186,10186,10186,10186,10186,10186,10186,10186,10186,10186,10186,10186,10186,10186,10186,10186,10181,10182,10184,10186,10186,10186,10186,10186,10186,10186,10186,10186,10186,10186,10186,10186,10181,10181,10182,10181,10182,10181,10183,10181,10181,10181,10183,10182,10182,10183,10181,10181,10183,10184,10181,10184,10182,10182,10182,10181,10184,10182,10184,10181,10181,10183,10184,10181,10182,10183,10183,10183,10183,10182,10184,10181,10181,10181,10183,10181,10183,10181,10183,10184,10181,10182,10181,10182,10184,10181,10183,10183,10183,10183,10183,10181,10181,10181,10181,10184,10182,10181,10184,10182,10184,10181,10183,10183,10182,10184,10184,10183,10184,10182]},{"id":3,"name":"deco-below","type":"tilelayer","visible":true,"opacity":1,"x":0,"y":0,"width":75,"height":50,"data":[0,0,0,0,0,0,0,0,0,0,0,0,10178,0,0,0,0,0,0,0,0,0,10178,0,0,0,0,0,0,0,0,0,0,0,0,0,0,0,0,0,0,0,0,0,0,0,0,0,0,0,0,0,0,0,0,0,0,10178,0,0,0,0,0,0,0,0,0,0,0,0,0,0,0,0,0,0,0,0,0,0,0,0,0,10178,0,0,0,0,0,0,0,0,0,0,0,0,0,0,0,0,0,0,0,0,0,4825,4826,0,0,0,0,0,0,0,0,0,0,0,0,5401,5402,0,0,0,0,0,0,10177,0,0,0,0,0,0,5019,5020,0,0,0,0,0,0,0,0,0,0,0,0,0,0,0,0,0,0,0,0,0,0,0,0,0,0,0,0,0,0,0,0,0,0,0,0,0,0,0,0,0,0,0,0,4925,4926,0,0,0,0,0,0,10292,0,0,0,0,0,5501,5502,0,0,0,0,10177,0,0,0,0,0,0,0,0,5119,5120,0,0,0,0,0,0,0,0,0,0,0,0,0,10177,0,0,0,0,0,0,0,0,0,0,0,0,0,0,0,0,0,0,0,0,0,0,0,0,0,0,0,0,0,0,0,0,0,0,10038,0,0,0,0,0,0,0,0,0,0,0,0,0,0,0,0,0,0,0,0,0,0,0,0,0,0,0,0,0,0,0,0,0,0,0,0,0,0,0,0,0,0,0,0,0,0,0,0,0,0,0,0,0,0,0,0,0,0,0,0,0,0,0,0,0,0,0,0,0,0,0,0,0,0,0,0,0,0,0,0,0,0,0,0,0,0,0,0,0,0,0,0,0,0,0,0,0,0,0,0,0,0,0,0,0,0,0,0,0,0,0,0,0,0,0,0,0,0,0,0,0,0,0,0,0,0,0,0,0,0,0,0,0,0,0,0,0,0,0,0,0,0,0,0,0,0,0,0,0,0,0,0,0,0,0,0,0,0,0,0,0,0,0,0,0,0,0,0,0,0,0,0,0,0,0,0,0,0,0,0,0,0,0,0,0,0,0,0,0,0,0,0,0,0,0,0,0,0,0,0,0,0,0,0,0,0,0,0,0,0,0,0,0,0,0,0,0,0,0,0,0,0,0,0,0,0,0,0,0,0,0,0,0,0,0,0,0,0,0,0,0,0,0,0,0,0,0,0,0,0,0,0,0,0,0,0,0,0,0,0,0,0,0,0,0,0,0,0,0,0,0,0,0,0,0,0,0,0,0,0,0,0,0,0,0,0,0,0,0,0,0,0,0,0,0,0,0,0,0,0,0,0,0,0,0,0,0,0,0,0,0,0,0,0,0,0,0,0,0,0,0,0,0,0,0,0,0,0,0,0,0,0,0,0,0,0,0,0,0,0,0,0,0,0,0,0,0,0,0,0,0,0,0,0,0,0,0,0,0,0,0,0,0,0,0,0,0,0,0,0,0,0,0,0,0,0,0,0,0,0,0,0,0,0,0,0,0,0,0,0,0,0,0,0,0,0,0,0,0,5019,5020,0,0,0,0,0,0,0,0,0,0,0,0,0,0,0,0,0,0,0,4825,4826,0,0,0,0,0,5401,5402,0,0,0,0,0,0,0,0,0,0,0,0,5401,5402,0,5524,5426,0,0,0,0,0,0,0,0,0,0,0,0,0,0,10049,0,0,0,0,5424,0,0,0,0,0,0,0,0,5119,5120,0,0,0,0,0,0,0,0,0,0,0,0,0,0,0,0,0,0,0,4925,4926,0,0,0,0,0,5501,5502,0,0,0,0,0,0,0,0,0,0,0,0,5501,5502,0,0,5423,0,0,0,0,0,0,0,0,0,0,0,0,0,0,0,0,0,0,0,0,0,0,0,0,0,4819,4820,0,0,0,0,0,0,0,0,0,0,0,0,0,0,0,0,0,0,0,0,0,0,0,0,0,0,0,0,0,0,0,0,0,0,0,0,0,2147493879,2147493880,0,0,0,0,0,0,0,0,0,0,0,10040,0,0,0,10262,0,0,0,0,0,0,0,0,0,0,0,0,0,0,0,0,0,0,4919,4920,0,0,5221,5222,0,0,0,0,0,0,0,0,0,0,0,0,0,0,10177,0,0,0,0,0,0,0,0,0,3157,3158,3557,3558,3559,3560,3561,3562,0,0,0,0,0,0,0,0,0,0,0,0,0,0,0,0,0,0,0,0,0,0,0,0,0,0,0,5423,0,0,0,0,0,0,0,0,0,0,5224,0,5324,5321,5322,0,0,0,0,0,0,0,0,0,0,0,0,0,0,0,0,0,0,0,0,0,0,0,0,3257,3258,3657,3658,3659,3660,3661,3662,10176,0,0,0,0,0,0,0,0,0,0,0,0,0,0,0,0,0,0,0,0,0,0,0,0,0,0,0,0,0,5524,0,0,0,0,0,0,0,0,0,4825,4826,5223,0,0,0,0,0,0,4822,4823,4824,0,0,0,0,0,0,0,0,0,0,0,0,0,0,0,3351,3352,3757,3758,3759,3760,3761,3762,3355,3356,0,0,0,0,0,0,0,0,0,0,0,0,0,0,0,0,0,0,0,0,0,0,0,0,0,0,0,0,0,0,0,0,0,0,0,0,0,0,4925,4926,0,0,4825,4826,0,0,0,4922,4923,4924,0,0,10178,0,0,0,0,0,0,0,0,0,0,0,0,3451,3452,0,0,0,0,0,10176,3455,3456,0,10153,10154,0,0,0,10037,0,0,0,0,0,0,0,0,0,0,0,0,0,0,0,0,0,0,0,0,0,0,0,0,0,0,0,0,0,0,0,0,0,0,0,4925,4926,0,0,0,5022,5023,5024,0,0,0,0,0,0,0,0,0,0,0,0,0,10172,0,0,2959,2960,2961,2962,0,0,0,0,0,0,10155,10156,0,0,0,0,0,0,0,0,0,0,0,0,0,0,0,0,0,0,0,0,0,0,0,0,0,0,10172,0,0,0,0,0,0,5019,5020,0,0,0,0,0,3587,0,0,0,5122,5123,5124,0,0,0,0,0,0,0,0,0,0,0,0,0,10171,0,0,3059,3165,3166,3062,0,0,0,0,0,0,0,10172,0,0,0,0,3159,3160,0,0,0,0,0,0,0,0,0,0,0,0,0,0,0,0,0,0,0,0,10171,0,0,4825,4826,0,0,5119,5120,0,0,0,0,0,3687,0,0,0,0,0,0,0,0,0,0,0,0,0,0,0,0,0,0,0,10171,0,0,0,3265,3266,0,0,0,0,0,0,0,0,10171,0,0,0,0,3259,3260,0,0,0,0,0,0,0,0,0,0,0,0,0,0,0,0,0,0,0,0,10171,0,3384,3385,3384,3385,5026,0,3384,3385,3384,3385,3384,3385,3787,0,0,0,0,0,0,0,0,10172,0,0,0,0,0,0,0,0,0,0,1073751996,0,0,0,4565,4566,0,0,0,0,0,0,0,0,10171,0,0,0,0,3359,3360,0,0,0,0,0,0,0,0,0,0,0,0,0,0,0,0,0,0,0,0,10171,0,5423,0,2947,2948,5126,0,0,0,0,0,0,0,0,0,0,0,0,0,0,0,0,0,0,0,0,0,0,0,0,0,0,0,5401,5402,0,0,4665,4565,4566,0,0,0,0,0,0,0,10171,0,0,0,0,10049,0,10049,0,0,0,0,0,0,0,0,0,0,0,0,0,0,0,0,0,0,0,1073751996,5524,5524,0,3047,3048,0,0,0,0,0,0,0,0,0,0,0,0,5017,5018,0,0,0,10172,0,0,0,0,0,0,0,0,0,0,5501,5502,5525,0,0,4665,4666,0,0,0,0,0,2949,2950,10171,0,0,0,0,0,0,0,0,0,0,0,0,0,0,0,0,0,0,0,0,0,0,0,0,0,0,5424,0,0,0,0,0,0,0,0,0,0,0,0,0,0,0,0,0,5117,5118,0,0,0,0,0,0,0,10178,0,0,0,0,0,0,0,5423,0,0,0,0,0,0,0,0,0,0,3049,3050,1073751996,0,0,0,0,0,0,0,0,0,0,0,0,0,0,0,0,0,0,0,0,0,0,0,0,0,0,5401,5402,0,0,0,0,0,0,0,0,0,0,0,0,0,0,0,0,0,0,0,0,0,10172,0,0,0,0,0,10173,10171,10171,10171,10171,2147493821,0,5426,0,0,0,0,0,0,0,0,0,0,10173,0,0,0,0,0,0,0,0,0,0,0,0,0,0,0,0,0,0,0,0,0,0,0,0,0,0,0,5501,5502,0,0,0,0,0,0,0,0,0,0,0,0,0,0,0,0,0,0,0,0,0,0,0,0,0,10292,0,0,0,0,0,0,0,0,0,0,0,10043,0,0,0,0,0,0,0,0,10262,0,0,0,10262,0,0,0,10044,10173,10047,0,0,0,0,0,10047,0,10173,0,10173,0,0,10173,0,10173,10171,2147493821,0,0,0,0,0,0,0,0,0,0,0,0,0,0,0,0,10173,10171,10171,10171,10171,2147493821,0,0,0,0,0,0,0,0,0,0,0,0,0,0,0,0,0,0,0,0,0,0,0,0,0,0,0,0,0,0,0,0,0,0,0,0,0,0,0,0,0,0,0,0,0,0,0,0,0,0,0,0,0,0,0,0,0,0,0,0,0,0,0,0,0,0,0,0,0,0,0,0,0,0,0,0,0,0,0,0,0,0,0,0,0,0,0,0,0,0,0,0,0,0,0,0,0,0,0,0,0,0,0,0,0,0,0,0,0,0,0,0,0,0,0,0,0,0,0,0,0,0,0,0,0,0,0,0,0,0,0,0,0,0,0,0,0,0,0,0,0,0,0,0,0,0,0,0,0,0,0,0,0,0,0,0,0,0,0,0,0,0,0,0,0,0,0,0,0,0,0,0,0,0,0,0,0,0,0,0,0,0,0,0,0,0,0,0,0,0,0,0,0,0,0,0,0,0,0,0,0,0,0,0,0,0,0,0,0,0,0,0,0,0,0,0,0,0,0,0,0,0,0,0,0,0,0,0,0,0,0,0,0,0,0,0,0,0,0,0,0,0,0,0,0,0,0,0,0,0,0,0,0,0,10046,0,0,0,0,0,0,0,0,0,0,0,0,0,0,0,0,0,0,0,0,0,0,0,0,0,0,0,0,0,0,0,0,0,0,0,0,0,0,0,0,0,0,0,0,0,0,0,0,0,0,0,0,0,0,0,0,0,0,0,0,0,0,0,0,0,0,0,0,0,0,10262,0,0,0,0,0,0,0,0,0,0,0,0,0,0,0,0,0,0,0,0,0,0,0,0,0,0,0,0,0,0,0,0,0,0,0,0,0,0,0,0,0,0,0,0,0,0,0,0,10292,0,0,0,0,0,0,0,0,0,0,0,0,0,0,0,0,0,0,10172,0,0,0,0,0,0,0,0,0,0,0,10172,0,0,0,0,0,0,0,0,0,0,0,0,0,0,0,0,0,0,0,10172,0,0,0,0,0,0,0,0,10172,0,0,0,0,0,0,10172,0,0,0,0,0,0,10172,0,0,0,0,0,0,0,0,0,0,0,0,0,0,0,0,0,0,0,10171,0,0,2959,2960,0,0,0,0,0,0,0,10171,0,0,0,0,0,0,0,0,0,0,0,0,0,0,0,0,0,0,0,10171,0,0,0,0,0,0,0,0,10248,0,0,0,0,0,0,10248,0,0,0,0,0,0,10230,0,0,0,0,0,0,0,0,0,0,0,0,0,0,0,0,0,0,0,10171,0,0,3059,3060,0,0,0,0,0,0,0,10171,0,0,0,0,0,0,0,0,0,0,0,0,0,0,0,0,0,0,0,10171,0,0,0,0,0,0,0,0,10245,0,0,0,0,0,0,10245,0,0,0,0,0,0,10229,10177,0,0,0,0,0,0,0,0,0,0,0,0,0,0,0,0,0,0,10171,0,0,2961,2962,0,0,0,0,0,0,0,10171,0,0,0,0,0,0,0,0,0,0,0,0,0,0,0,0,0,0,0,10171,0,0,0,0,0,0,0,0,10245,0,0,0,0,0,0,10245,0,0,0,0,0,0,0,0,0,0,0,0,3163,3164,0,0,0,0,0,0,0,0,0,0,0,0,1073751996,0,0,3061,3062,0,0,0,0,0,0,0,10171,0,0,0,0,0,0,0,0,0,0,0,0,0,0,0,0,0,0,0,10171,0,0,0,0,0,0,0,0,10245,0,0,0,0,0,0,10245,0,0,0,0,0,0,0,0,10172,0,10177,0,3263,3264,0,0,0,0,0,0,0,0,0,0,0,0,0,0,0,0,0,0,0,0,0,0,0,10173,10171,10173,10171,10171,10171,10171,2147493821,10173,10171,10171,10171,2147493821,0,0,0,0,0,0,0,0,1073751996,0,0,0,0,0,0,0,0,10245,0,0,0,0,0,0,10245,0,0,0,0,0,0,0,0,0,0,0,0,0,0,0,0,0,0,0,0,0,0,0,0,0,0,0,0,0,0,0,0,0,0,0,0,0,0,0,0,0,0,0,0,0,0,0,0,0,0,0,0,0,0,0,0,0,0,10048,0,10044,0,0,0,0,0,0,10249,0,0,0,0,0,0,10249,0,0,0,0,0,0,10172,10173,2147493821,0,0,0,0,0,5426,5524,5423,0,0,0,0,0,0,0,0,0,0,0,0,0,0,0,0,0,0,0,0,0,0,0,0,0,0,0,0,0,0,0,0,0,0,0,0,0,0,0,10173,10171,2147493821,0,0,0,0,0,0,0,0,0,0,0,0,0,0,0,0,0,0,0,0,0,0,1073751996,0,0,0,0,0,0,0,5524,0,0,0,0,0,0,0,0,0,0,0,0,0,0,0,0,0,0,0,0,0,0,0,0,0,0,0,0,0,0,0,0,0,0,0,0,0,0,0,0,0,0,0,0,0,0,0,0,0,0,0,0,0,0,0,0,0,0,0,0,0,0,0,0,0,0,0,0,0,0,0,0,0,0,10172,0,0,0,0,0,0,0,0,0,0,0,0,10172,0,0,0,0,0,0,0,0,10172,0,0,0,0,0,0,0,0,10172,0,0,0,0,0,0,0,0,0,0,0,0,0,0,0,0,0,0,0,0,0,0,0,0,0,0,0,0,0,0,0,0,0,0,0,0,10172,0,0,0,0,10173,10171,10171,2936,2937,3138,3139,2940,2941,0,0,0,0,0,0,0,0,0,0,0,0,0,0,0,0,0,0,0,0,0,0,0,0,10171,0,0,0,0,0,0,0,0,0,0,0,0,0,0,0,0,0,0,0,0,0,0,0,0,0,0,0,0,0,0,0,0,0,0,0,0,10171,0,0,0,0,0,0,0,3036,3037,3238,3239,3040,3041,0,0,0,0,0,0,0,0,0,0,0,0,0,0,0,0,0,0,0,0,0,0,0,0,10171,0,0,0,0,0,0,0,0,0,0,0,0,0,0,0,0,0,0,0,0,0,0,0,0,0,0,0,0,0,0,0,0,0,0,0,0,10171,0,0,0,0,0,0,0,2740,5027,4827,5127,2740,2741,0,0,0,0,0,0,0,0,0,0,0,0,0,0,0,0,0,0,0,0,0,0,0,0,10171,0,0,0,0,0,0,0,0,0,0,0,0,0,0,0,0,0,0,0,0,0,0,0,0,0,0,0,0,0,0,0,0,0,0,0,0,10171,0,0,0,0,0,0,0,2840,4929,4930,4830,2840,2841,0,0,0,0,0,0,0,0,0,0,0,0,0,0,0,0,0,0,0,0,0,0,0,0,10171,0,0,0,0,0,0,0,0,0,0,0,0,0,0,0,0,0,0,0,0,0,0,0,0,0,0,0,0,0,0,0,0,0,0,0,0,10171,0,0,0,0,0,0,0,3136,3137,3139,3138,3140,3141,0,0,0,0,0,0,10218,10173,0,0,0,0,0,0,0,10172,1073752049,0,0,0,0,0,0,0,10171,0,0,0,0,5019,5020,0,0,0,0,0,5423,0,0,0,0,0,0,0,0,0,0,0,0,0,0,0,0,10172,0,0,0,0,0,0,0,10171,0,0,0,0,0,0,10172,3236,3237,3239,3238,3240,3241,0,0,0,0,0,0,10217,0,0,0,0,0,0,0,0,10171,1073752050,0,0,0,0,0,0,0,10171,0,0,0,0,5119,5120,0,0,0,0,0,0,0,0,0,0,0,0,0,5029,5030,0,0,0,0,0,0,0,10171,0,0,0,0,0,0,0,10171,0,0,0,0,0,0,10171,0,0,0,0,0,0,10173,10171,10171,10171,10171,10171,2147493821,0,0,10173,10171,10171,10171,10171,10171,10171,0,0,10173,10171,10171,10171,10171,10171,10171,0,0,0,0,0,0,0,0,0,0,0,0,0,0,0,0,0,0,0,5129,5130,0,0,0,0,0,10173,10171,10171,0,10173,10171,10171,10171,10171,10171,10171,0,0,0,0,10173,10171,10171,0,0,0,0,0,0,0,0,0,0,0,0,0,0,0,0,0,0,0,0,0,0,0,0,0,0,0,0,0,0,0,0,0,0,0,0,0,0,0,0,5423,5426,0,0,0,0,0,0,0,0,0,0,0,0,0,0,0,0,0,0,0,0,0,0,0,0,0,0,0,0,0,0,0,0,0,0,0,0,10178,0,0,0,0,0,0,0,0,10178,0,5524,10177,0,0,0,0,0,0,0,0,0,0,10178,0,0,0,0,0,0,0,0,0,0,0,0,0,0,0,0,5424,0,0,0,0,0,0,0,0,0,0,0,0,0,0,0,0,0,0,0,0,0,0,0,0,0,0,0,0,0,0,0,0,0,0,0,0,0,0,0,0,0,0,0,0,0,0,0,0,0,0,0,0,0,0,0,0,10178,0,0,0,0,0,10177,0,0,0,0,0,0,0,0,0,0,0,0,0,0,0,0,0,0,0,0,0,0,0,0,0,0,0,0,0,0,0,0,0,0,0,0,0,0]},{"id":4,"name":"buildings-base","type":"tilelayer","visible":true,"opacity":1,"x":0,"y":0,"width":75,"height":50,"data":[0,0,0,0,0,0,0,0,0,0,0,0,0,0,0,0,0,0,0,0,0,0,0,0,0,0,0,0,0,0,0,0,0,0,0,0,0,0,0,0,0,0,0,0,0,0,0,0,0,0,0,0,0,0,0,0,0,0,0,0,0,0,0,0,0,0,0,0,0,0,0,0,0,0,0,0,0,0,0,0,0,0,0,0,0,0,0,0,0,0,0,0,0,0,0,0,0,0,0,0,0,0,0,0,0,0,0,0,0,0,0,0,0,0,0,0,0,0,0,0,0,0,0,0,0,0,0,0,0,0,0,0,0,0,0,0,0,0,0,0,0,0,0,0,0,0,0,0,0,0,0,0,0,0,0,0,0,0,0,0,0,0,0,0,0,0,0,0,0,0,0,0,0,0,0,0,0,0,0,0,0,0,0,3009,0,0,0,3010,0,0,0,0,0,0,0,0,0,0,0,0,0,0,0,0,0,0,0,0,0,0,0,0,0,0,0,0,0,0,0,0,0,0,0,0,0,0,0,0,0,0,0,0,0,0,0,0,0,0,0,0,0,0,0,0,0,0,0,0,0,0,0,0,0,0,0,0,0,0,3010,0,0,0,3308,0,0,0,0,0,0,0,0,0,0,0,0,0,0,0,0,0,0,0,0,0,0,0,0,0,0,0,0,0,0,0,0,0,0,0,0,0,0,0,0,0,0,0,0,0,0,0,0,0,0,0,0,0,0,0,0,0,0,0,0,0,0,0,0,0,0,0,0,0,0,3009,0,0,0,3310,0,0,0,0,0,0,0,0,0,0,0,0,0,0,0,0,0,0,0,0,0,0,0,0,0,0,0,0,0,0,0,0,0,0,0,0,0,0,0,0,0,0,0,0,0,0,0,0,0,0,0,0,0,0,0,0,0,0,0,0,0,0,0,0,0,0,0,0,0,0,3008,0,0,0,3010,0,0,0,0,0,0,0,0,0,0,0,0,0,0,0,0,0,0,0,0,0,0,0,0,0,0,0,0,0,0,0,0,0,0,0,0,0,0,0,0,0,0,0,0,0,0,0,0,0,0,0,0,0,0,0,0,0,0,0,0,0,0,0,0,0,0,0,0,0,0,3009,0,0,0,3309,0,0,0,0,0,0,0,0,0,0,0,0,0,0,0,0,0,0,0,0,0,0,0,0,0,0,0,0,0,0,0,0,0,0,0,0,0,0,0,0,0,0,0,0,0,0,0,0,0,0,0,0,0,0,0,0,0,0,0,0,0,0,0,0,0,0,0,0,0,0,3309,0,0,0,3308,0,0,0,0,0,0,0,0,0,0,0,0,0,0,0,0,0,0,0,0,0,0,0,0,0,0,0,0,0,0,0,0,0,0,0,0,0,0,0,0,0,0,0,0,0,0,0,0,0,0,0,0,0,0,0,0,0,0,0,0,0,0,0,0,0,0,0,0,0,0,3007,0,0,0,3310,0,0,0,0,0,0,0,0,0,0,0,0,0,0,0,0,0,0,0,0,0,0,0,0,0,0,0,0,0,0,0,0,0,0,0,0,0,0,0,0,0,0,0,0,0,0,0,0,0,0,0,0,0,0,0,0,0,0,0,0,0,0,0,0,0,0,0,0,0,0,3007,0,0,0,3008,0,0,0,0,0,0,0,0,0,0,0,0,0,0,0,0,0,0,0,0,0,0,0,0,0,0,0,0,0,0,0,0,0,0,0,0,0,0,0,0,0,0,0,0,0,0,0,0,0,0,0,0,0,0,0,0,0,0,0,0,0,0,0,0,0,0,0,0,0,0,0,0,0,0,0,0,0,0,0,0,0,0,0,0,0,0,0,0,0,0,0,0,0,0,0,0,0,0,0,0,0,0,0,0,0,0,0,0,0,0,0,0,0,0,0,0,0,0,0,0,0,0,0,0,0,0,0,0,0,0,0,0,0,0,0,0,0,0,0,0,0,0,0,0,0,0,0,0,0,0,0,0,0,0,0,0,0,0,0,0,0,0,0,0,0,0,0,0,0,0,0,0,0,0,4683,4483,0,0,0,0,0,0,0,0,0,0,0,0,0,0,0,0,0,0,0,0,0,0,0,0,0,0,0,0,0,0,0,0,0,0,0,0,0,0,0,0,0,0,0,0,0,0,0,0,0,0,0,0,0,0,0,0,0,0,0,0,0,0,0,4278,4283,4383,0,0,0,0,0,0,0,4383,4583,0,0,0,0,0,0,0,0,0,0,0,0,0,0,0,0,0,0,0,0,0,0,0,0,0,0,0,0,0,0,0,0,0,0,0,0,0,0,0,0,0,0,0,0,0,0,0,0,0,0,0,0,0,0,0,0,0,0,0,0,0,0,0,4378,4383,4483,0,0,0,0,0,0,0,4483,4683,0,0,0,0,0,0,0,0,0,0,0,0,0,0,0,0,0,0,0,0,0,0,0,0,0,0,0,0,0,0,0,0,0,0,0,0,0,0,0,0,0,0,0,0,0,0,0,0,0,0,0,0,0,0,0,0,0,0,0,0,0,0,0,4478,3090,3091,4483,4484,4485,0,0,0,0,0,0,0,0,0,0,0,0,0,0,0,0,0,0,0,0,0,0,0,0,0,0,0,0,0,0,0,0,0,0,0,0,0,0,0,0,0,0,0,0,0,0,0,0,0,0,0,0,0,0,0,0,0,0,0,0,0,0,0,0,0,0,0,0,0,4578,3190,3191,4583,4584,4585,0,0,4583,0,0,0,0,0,0,0,0,0,0,0,0,0,0,0,0,0,0,0,0,0,0,0,0,0,0,0,0,0,0,0,0,0,0,0,0,0,0,0,0,0,0,0,0,0,0,0,0,0,0,0,0,0,0,0,0,0,0,0,0,0,0,0,0,0,0,4678,3290,3291,4683,4684,4685,0,4584,4683,4684,0,0,0,0,0,0,0,0,0,0,0,0,0,0,0,0,0,0,0,0,0,0,0,0,0,0,0,0,0,0,0,0,0,0,0,0,0,0,0,0,0,0,0,0,0,0,0,0,0,0,0,0,0,0,0,0,0,0,0,0,0,0,0,0,0,0,0,0,0,0,0,0,0,0,0,0,0,0,0,0,0,0,0,0,0,0,0,0,0,0,0,0,0,0,0,0,0,0,0,0,0,0,0,0,0,0,0,0,0,0,0,0,0,0,0,0,0,0,0,0,0,0,0,0,0,0,0,0,0,0,0,0,0,0,0,0,0,0,0,0,0,0,0,0,0,0,0,0,0,0,0,0,0,0,0,0,0,0,0,0,0,0,0,0,0,0,4370,10103,10104,10103,10104,4377,0,0,0,0,0,0,0,0,0,0,0,0,0,0,0,0,0,0,0,0,0,0,0,4270,4275,4276,4272,4273,4274,4275,4276,4277,3127,3128,3129,3128,3129,3128,3129,3128,3130,0,0,0,0,0,0,0,0,0,0,0,0,0,0,0,0,0,0,0,0,0,0,0,0,0,0,0,0,4470,10105,10106,10105,10106,4477,0,0,0,0,0,0,0,4478,4483,4484,4483,4484,4483,4485,0,0,0,0,0,0,0,0,0,4370,4375,4376,4372,4373,4374,4375,4376,4377,3227,3228,3229,3228,3229,3228,3229,3228,3230,0,0,0,0,0,0,0,0,0,0,0,0,0,0,0,0,0,4370,10103,10104,10103,10104,4377,0,0,0,0,0,4570,4575,4576,4575,4576,4577,0,0,0,0,0,0,0,4578,4583,4584,4583,10051,10052,4585,0,0,0,0,0,0,0,0,0,4470,10051,10052,4472,4473,4474,10051,10052,4477,3327,3328,3329,3328,3329,3328,3329,3328,3330,0,0,0,0,0,0,0,0,0,0,0,0,0,0,0,0,0,4470,10105,10106,10105,10106,4477,0,0,0,0,0,4670,4675,3186,3187,4676,4677,0,0,0,0,0,0,0,4678,4683,3186,3187,10053,10054,4685,0,0,0,0,0,0,0,0,0,4570,10053,10054,4572,4573,4574,10053,10054,4577,3427,3428,3429,3428,3429,3428,3429,3428,3430,0,0,0,0,0,0,0,0,0,0,0,0,0,0,0,0,0,4570,4575,4576,4575,4576,4577,0,0,0,0,0,0,0,0,0,0,0,0,0,0,0,0,0,0,0,0,0,0,0,0,0,0,0,0,0,0,0,0,0,0,4670,4675,4676,4672,4673,4674,4675,4676,4677,3527,3528,3529,3186,3187,3528,3529,3528,3530,0,0,0,0,0,0,0,0,0,0,0,0,0,0,0,0,0,4670,4675,3186,3187,4676,4677,0,0,0,0,0,0,0,0,0,0,0,0,0,0,0,0,0,0,0,0,0,0,0,0,0,0,0,0,0,0,0,0,0,0,0,0,0,0,0,0,0,0,0,0,0,0,0,0,0,0,0,0,0,0,0,0,0,0,0,0,0,0,0,0,0,0,0,0,0,0,0,0,0,0,0,0,0,0,0,0,0,0,0,0,0,0,0,0,0,0,0,0,0,0,0,0,0,0,0,0,0,0,0,0,0,0,0,0,0,0,0,0,0,0,0,0,0,0,0,0,0,0,0,0,0,0,0,0,0,0,0,0,0,0,0,0,0,0,0,0,0,0,0,0,0,0,0,0,0,0,0,0,0,0,0,0,0,0,0,0,0,0,0,0,0,0,0,0,0,0,0,0,0,0,0,0,0,0,0,0,0,0,0,0,0,0,0,0,0,0,0,0,0,0,0,0,0,0,0,0,0,0,0,0,0,0,0,0,0,0,0,0,0,0,0,0,0,0,0,0,0,0,0,0,0,0,0,0,0,0,0,0,0,0,0,0,0,0,0,0,0,0,0,0,0,0,0,0,0,0,0,0,0,0,0,0,0,0,0,0,0,0,0,0,0,0,0,0,0,0,0,0,0,0,0,0,0,0,0,0,0,0,0,0,0,0,0,0,0,0,0,0,0,0,0,0,0,0,0,0,0,0,0,0,0,0,0,0,0,0,0,0,0,0,0,0,0,0,0,0,0,0,0,0,0,0,0,0,0,0,0,0,0,0,0,0,0,0,0,0,0,0,0,0,0,0,0,0,0,0,0,0,0,0,0,0,0,0,0,0,0,0,0,0,0,0,0,0,0,0,0,0,0,0,0,0,0,0,0,0,0,0,0,0,0,0,0,0,0,0,0,0,0,0,0,0,0,0,0,0,0,0,0,0,0,0,0,0,0,0,0,0,0,0,0,0,0,0,0,0,0,0,0,0,0,0,0,0,0,0,0,0,0,0,0,0,0,0,0,0,0,0,0,0,0,0,0,0,0,0,0,0,0,0,0,0,0,0,0,0,0,0,0,0,0,0,0,0,0,0,0,0,0,0,0,0,0,0,0,0,0,0,0,0,0,0,0,0,0,0,0,0,0,0,0,0,0,0,0,0,0,0,0,0,0,0,0,0,0,0,0,0,0,0,0,0,0,0,0,0,0,0,0,0,0,0,0,0,0,0,0,0,0,0,0,0,0,0,0,0,0,0,0,0,0,0,0,0,0,0,0,0,0,0,0,0,0,0,0,0,0,0,0,0,0,0,0,0,0,0,0,0,0,0,0,0,0,0,0,0,0,0,0,0,0,0,0,0,0,0,0,0,0,0,0,0,0,0,0,0,0,0,0,0,0,0,0,0,0,0,0,0,0,0,0,0,0,0,0,0,0,0,0,4478,4483,4484,4483,4484,4483,4485,0,4470,4475,4476,4475,4477,4478,4483,4484,4483,4484,4485,4278,4283,4279,4280,4281,4282,4283,4285,0,0,0,0,0,0,0,0,0,0,0,0,0,0,0,0,0,0,0,0,0,0,0,0,0,0,0,0,0,0,0,4478,4483,4484,4485,4470,4475,4476,4477,4478,4483,4484,4485,0,0,0,0,0,4578,4583,4584,4583,10051,10052,4585,0,4570,4575,4576,4575,4577,4578,4583,4584,4583,4584,4585,4378,4383,4379,4380,4381,4382,4383,4385,0,0,0,4370,10103,10104,10103,10104,4377,0,4370,10103,10104,10103,10104,4377,0,4370,10103,10104,10103,10104,4377,0,0,0,0,0,0,0,0,4578,4583,4584,4585,4570,4575,4576,4577,4578,4583,4584,4585,0,0,0,0,0,4678,4683,3186,3187,10053,10054,4685,0,4670,3186,3187,4675,4677,4678,4683,3186,3187,4684,4685,4478,10051,10052,4480,4481,10051,10052,4485,0,0,0,4470,10105,10106,10105,10106,4477,0,4470,10105,10106,10105,10106,4477,0,4470,10105,10106,10105,10106,4477,0,0,0,0,0,0,0,0,4678,3186,3187,4685,4670,3186,3187,4677,4678,3186,3187,4685,0,0,0,0,0,0,0,0,0,0,0,0,0,0,0,0,0,0,0,0,0,0,0,0,4578,10053,10054,4580,4581,10053,10054,4585,0,0,0,4570,4575,4576,4575,4576,4577,0,4570,4575,4576,4575,4576,4577,0,4570,4575,4576,4575,4576,4577,10273,10274,0,0,0,0,0,0,0,0,0,0,0,0,0,0,0,0,0,0,0,0,0,0,0,0,0,0,0,0,0,0,0,0,0,0,0,0,0,0,0,0,0,0,4678,4683,4679,4680,4681,4682,4683,4685,0,0,0,4670,4675,3186,3187,4676,4677,0,4670,4675,3186,3187,4676,4677,0,4670,4675,3186,3187,4676,4677,0,0,0,0,0,0,0,0,0,0,0,0,0,0,0,0,0,0,0,0,0,0,0,0,0,0,0,0,0,0,0,0,0,0,0,0,0,0,0,0,0,0,0,0,0,0,0,0,0,0,0,0,0,0,0,0,0,0,0,0,0,0,0,0,0,0,0,0,0,0,0,0,0,0,0,0,0,0,0,0,0,0,0,0,0,0,0,0,0,0,0,0,0,0,0,0,0,0,0,0,0,0,0,0,0,0,0,0,0,0,0,0,0,0,0,0,0,0,0,0,0,0,0,0,0,0,0,0,0,0,0,0,0,0,0,0,0,0,0,0,0,0,0,0,0,0,0,0,0,0,0,0,0,0,0,0,10273,10274,0,0,0,0,0,0,0,0,0,0,0,0,0,0,0,0,0,0,0,0,0,0,0,0,0,0,0,0,0,0,0,0,0,0,0,0,0,0,0,0,0,0,0,0,0,0,0,0,0,0,0,0,0,0,0,0,0,0,0,0,0,0,0,0,0,0,0,0,0,0,0,0,0,0,0,0,0,0,0,0,0,0,0,0,0,0,0,0,0,0,0,0,0,0,0,0,0,0,0,0,0,0,0,0,0,0,0,0,0,0,0,0,0,0,0,0,0,0,0,0,0,0,0,0,0,0,0,0,0,0,0,0,0,0,0,0,0,0,0,0,0,0,0,0,0,0,0,0,0,0,0,0,0,0,0,0,0,0,0,0,0,0,0,0,0,0,0,0,0,0,0,0,0,0,0,0,0,0,0,0,0,0,0,0,0,0,0,0,0,0,0,0,0,0,0,0,0,0,0,0,0,0,0,0,0,0,0,0,0,0,0,0,0,0,0,0,0,0,0,0,0,0,0,0,0,0,0,0,0,0,0,0,4370,10103,10104,10103,10104,4377,10267,10268,4577,4370,10103,10104,10103,10104,4377,4570,10267,10268,4370,10103,10104,10103,10104,4377,0,0,0,0,0,0,0,0,0,0,0,0,0,0,0,0,0,0,0,0,0,0,0,0,0,0,0,0,0,0,0,4370,10103,10104,10103,10104,4377,0,0,0,0,0,0,0,0,0,0,0,0,0,0,4470,10105,10106,10105,10106,4477,10269,10270,4677,4470,10105,10106,10105,10106,4477,4670,10269,10270,4470,10105,10106,10105,10106,4477,0,0,0,0,0,0,0,0,0,0,0,0,0,0,0,0,0,0,0,0,0,0,0,0,0,0,0,0,0,0,0,4470,10105,10106,10105,10106,4477,0,0,0,0,0,0,0,0,0,0,0,0,0,0,4570,4575,4576,4575,4576,4577,0,0,0,4570,4575,4576,4575,4576,4577,0,0,0,4570,4575,4576,4575,4576,4577,0,0,0,0,0,0,0,0,0,0,0,0,0,0,0,0,0,0,0,0,0,0,0,0,0,0,0,0,0,0,0,4570,4575,4576,4575,4576,4577,0,0,0,0,0,0,0,0,0,0,0,0,0,0,4670,4675,3186,3187,4676,4677,0,0,0,4670,4675,3186,3187,4676,4677,0,0,0,4670,4675,3186,3187,4676,4677,0,0,0,0,0,0,0,0,0,0,0,0,0,0,0,0,0,0,0,0,0,0,0,0,0,0,0,10273,10274,0,0,4670,4675,3186,3187,4676,4677,0,0,0,0,0,10273,10274,0,0,0,0,0,0,0,0,0,0,0,0,0,0,0,0,0,0,0,0,0,0,0,0,0,0,0,0,0,0,0,0,0,0,0,0,0,0,0,0,0,0,0,0,0,0,0,0,0,0,0,0,0,0,0,0,0,0,0,0,0,0,0,0,0,0,0,0,0,0,0,0,0,0,0,0,0,0,0,0,0,0,0,0,0,0,0,0,0,0,0,0,0,0,0,0,0,0,0,0,0,0,0,0,0,0,0,0,0,0,0,0,0,0,0,0,0,0,0,0,0,0,0,0,0,0,0,0,0,0,0,0,0,0,0,0,0,0,0,0,0,0,0,0,0,0,0,0,0,0,0,0,0,0,0,0,0,0,0,0,0,0,0,0,0,0,0,0,0,0,0,0,0,0,0,0,0,0,0,0,0,0,0,0,0,0,0,0,0,0,0,0,0,0,0,0,0,0,0,0,0,0,0,0,0,0,0,0,0,0,0,0,0,0,0,0,0,0,0,0,0,0,0,0,0,0,0,0,0,0,0,0,0,0,0,0,0,0,0,0,0,0,0,0,0,0,0,0,0,0,0,0,0,0,0,0,0,0,0,0,0,0,0,0,0,0,0,0,0,0,0,0,0,0,0,0,0,0,0,0,0,0,0,0,0,0,0,0,0,0,0,0,0,0,0,0]},{"id":5,"name":"buildings-top","type":"tilelayer","visible":true,"opacity":1,"x":0,"y":0,"width":75,"height":50,"data":[0,0,0,0,0,0,0,0,0,0,0,0,0,0,0,0,0,0,0,0,0,0,0,0,0,0,0,0,0,0,0,0,0,0,0,0,0,0,0,0,0,0,0,0,0,0,0,0,0,0,0,0,0,0,0,0,0,0,0,0,0,0,0,0,0,0,0,0,0,0,0,0,0,0,0,0,0,0,0,0,0,0,0,0,0,0,0,0,0,0,0,0,0,0,0,0,0,0,0,0,0,0,0,0,0,0,0,0,0,0,0,0,0,10291,0,0,0,0,0,0,0,0,0,0,0,0,0,0,0,0,0,0,0,0,0,0,0,0,0,0,0,0,0,0,0,0,0,0,0,0,0,0,0,0,0,0,0,0,0,0,0,0,0,0,0,0,0,0,0,0,0,0,0,0,0,0,0,0,0,0,0,0,0,0,0,0,0,0,0,0,0,0,0,0,0,0,0,0,0,0,0,0,0,0,0,0,0,0,0,0,0,0,0,0,0,0,0,0,0,0,0,0,0,0,0,0,0,0,0,0,0,0,0,0,0,0,0,0,0,0,0,0,0,0,0,0,0,0,0,0,0,0,0,0,0,0,0,0,0,0,0,0,0,0,0,0,0,0,0,0,0,0,0,0,0,0,0,0,0,0,0,0,0,0,0,0,0,0,0,0,0,0,0,0,0,0,0,0,0,0,0,0,0,0,0,0,0,0,0,0,0,0,0,0,0,0,0,0,0,0,0,0,0,0,0,0,0,0,0,0,0,0,0,0,0,0,0,0,0,0,0,0,0,0,0,0,0,0,0,0,0,0,0,0,0,0,0,0,0,0,0,0,0,0,0,0,0,0,0,0,0,0,0,0,0,0,0,0,0,0,0,0,0,0,0,0,0,0,0,0,0,0,0,0,0,0,0,0,0,0,0,0,0,0,0,0,0,0,0,0,0,0,0,0,0,0,0,0,0,0,0,0,0,0,0,0,0,0,0,0,0,0,0,0,0,0,0,0,0,0,0,0,0,0,0,0,0,0,0,0,0,0,0,0,0,0,0,0,0,0,0,0,0,0,0,0,0,0,0,0,0,0,0,0,0,0,0,0,0,0,0,0,0,0,0,0,0,0,0,0,0,0,0,0,0,0,0,0,0,0,0,0,0,0,0,0,0,0,0,0,0,0,0,0,0,0,0,0,0,0,0,0,0,0,0,0,0,0,0,0,0,0,0,0,0,0,0,0,0,0,0,0,0,0,0,0,0,0,0,0,0,0,0,0,0,0,0,0,0,0,0,0,0,0,0,0,0,0,0,0,0,0,0,0,0,0,0,0,0,0,0,0,0,0,0,0,0,4180,4181,0,0,0,0,0,0,0,0,0,0,0,0,0,0,0,0,0,0,0,0,0,0,0,0,0,0,0,0,0,0,0,0,0,0,0,0,0,0,0,0,0,0,0,0,0,0,0,0,0,0,0,0,0,0,0,0,0,0,0,0,0,0,0,0,0,0,0,0,0,0,0,0,0,4383,4583,0,0,0,0,0,0,0,0,0,0,0,0,0,0,0,0,0,0,0,0,0,0,0,0,0,0,0,0,0,0,0,0,0,0,0,0,0,0,0,0,0,0,0,0,0,0,0,0,0,0,0,0,0,0,0,0,0,0,0,0,0,0,0,0,0,0,0,0,0,0,0,0,0,4483,4683,0,0,0,0,0,0,0,0,0,0,0,0,0,0,0,0,0,0,0,0,0,0,0,0,0,0,0,0,0,0,0,0,0,0,0,0,0,0,0,0,0,0,0,0,0,0,0,0,10263,0,0,0,0,0,0,0,0,0,0,0,0,0,0,0,0,0,0,0,0,0,0,0,0,4583,4383,0,0,0,0,0,0,0,0,0,0,0,0,0,0,0,0,0,0,0,0,0,0,0,0,0,0,0,0,0,0,0,0,0,0,0,0,0,0,0,0,0,0,0,0,0,0,0,0,0,0,0,0,0,0,0,0,0,0,0,0,0,0,0,4178,4180,4181,0,0,0,0,0,0,0,0,0,0,0,0,0,0,0,0,0,0,0,0,0,0,0,0,0,0,0,0,0,0,0,0,0,0,0,0,0,0,0,0,0,0,0,0,0,0,0,0,0,0,0,0,0,0,0,0,0,0,0,0,0,0,0,0,0,0,0,0,0,0,0,0,0,0,0,0,0,0,0,0,0,0,0,0,0,0,0,0,0,0,0,0,0,0,0,0,0,0,0,0,0,0,0,0,0,0,0,0,0,0,0,0,0,0,0,0,0,0,0,0,0,0,0,0,0,0,0,0,0,0,0,0,0,0,0,0,0,0,0,0,0,0,0,0,0,0,0,0,0,0,0,0,0,0,0,0,0,0,0,0,0,0,0,0,0,0,0,0,0,0,0,0,0,0,0,0,0,0,0,0,0,0,0,0,0,0,0,0,0,0,0,0,0,0,0,0,0,0,0,0,0,0,0,0,0,0,0,0,0,0,0,0,0,0,0,0,0,0,0,0,0,0,0,0,0,0,0,0,0,0,0,0,0,0,0,0,0,0,0,0,0,0,0,0,0,0,0,0,0,0,0,0,10165,0,0,0,0,0,0,0,0,0,0,0,0,0,0,0,0,0,0,0,0,0,0,0,0,0,0,0,0,0,0,0,0,0,0,0,0,0,0,0,0,0,0,0,0,0,0,0,0,0,0,0,0,0,0,0,0,0,0,0,0,0,0,0,0,0,0,0,0,0,0,10081,10082,10082,10082,10082,10083,0,0,0,0,0,0,0,0,0,0,0,0,10165,0,0,0,0,0,0,0,0,0,0,0,0,0,0,0,0,0,0,0,10071,10072,10072,10072,10072,10072,10072,10072,10073,0,0,0,0,0,0,0,0,0,0,0,0,0,0,0,0,0,0,0,0,0,10165,0,0,0,0,0,0,10084,10085,10085,10085,10085,10086,0,0,0,0,0,0,0,10071,10072,10072,10072,10072,10072,10073,0,0,0,0,0,0,0,0,0,10081,10082,10082,10082,10082,10082,10082,10082,10083,10074,10075,10075,10075,10075,10075,10075,10075,10076,0,0,0,0,0,0,0,0,0,0,0,0,0,0,0,0,0,10071,10072,10072,10072,10072,10073,0,0,0,0,0,10087,10088,10088,10088,10088,10089,0,0,0,0,0,0,0,10074,10075,10075,10075,10075,10075,10076,0,0,0,0,0,0,0,0,0,4170,4175,4176,4172,4173,4174,4175,4176,4177,3027,3028,3029,3028,3029,3028,3029,3028,3030,0,0,0,0,0,0,0,0,0,0,0,0,0,0,0,0,0,10074,10075,10075,10075,10075,10076,0,0,0,0,0,0,0,0,0,0,0,0,0,0,0,0,0,0,3557,3558,3559,3560,3561,3558,3562,0,0,0,0,0,0,0,0,0,0,0,0,0,0,0,0,0,0,0,0,0,0,0,0,0,0,0,0,0,0,0,0,0,0,0,0,0,0,0,0,0,0,0,0,10077,10078,10078,10078,10078,10079,0,0,0,0,0,0,0,0,10266,0,0,0,0,0,0,0,0,0,3657,3658,3659,3660,3661,3658,3662,0,0,0,0,0,0,0,0,0,0,0,0,0,0,0,0,0,0,0,0,0,0,0,0,0,0,0,0,0,0,0,0,0,0,0,0,0,0,0,0,0,0,0,0,0,0,0,0,0,0,0,0,0,0,0,0,0,3086,3087,10265,0,0,0,0,0,0,0,0,0,0,3086,3087,0,0,0,0,0,0,0,0,0,0,0,0,0,0,0,0,0,0,0,0,0,0,0,0,0,0,0,0,0,0,0,0,0,0,0,0,0,0,0,0,0,0,0,0,0,0,0,0,0,0,10266,0,0,0,0,0,0,0,0,0,0,0,0,0,0,0,0,0,0,0,0,0,0,0,0,0,0,0,0,0,0,0,0,0,0,0,0,0,0,0,0,0,0,0,0,0,0,0,0,3086,3087,0,0,0,0,0,0,0,0,0,0,0,0,0,0,0,0,0,0,0,0,0,0,0,3086,3087,10265,0,0,0,0,0,10291,0,0,0,0,0,0,0,0,0,0,0,0,0,0,0,0,0,0,0,0,10261,0,0,0,10261,0,0,0,0,0,0,0,0,0,0,0,0,0,0,0,0,0,0,0,0,0,0,0,0,0,0,0,0,0,0,0,0,0,0,0,0,0,0,0,0,0,0,0,0,0,0,0,0,0,0,0,0,0,0,0,0,0,0,0,0,0,0,0,0,0,0,0,0,0,0,0,0,0,0,0,0,0,0,0,0,0,0,0,0,0,0,0,0,0,0,0,0,0,0,0,0,0,0,0,0,0,0,0,0,0,0,0,0,0,0,0,0,0,0,0,0,0,0,0,0,0,0,0,0,0,0,0,0,0,0,0,0,0,0,0,0,0,0,0,0,0,0,0,0,0,0,0,0,0,0,0,0,0,0,0,0,0,0,0,0,0,0,0,0,0,0,0,0,0,0,0,0,0,0,0,0,0,0,0,0,0,0,0,0,0,0,0,0,0,0,0,0,0,0,0,0,0,0,0,0,0,0,0,0,0,0,0,0,0,0,0,0,0,0,0,0,0,0,0,0,0,0,0,0,0,0,0,0,0,0,0,0,0,0,0,0,0,0,0,0,0,0,0,0,0,0,0,0,0,0,0,0,0,0,0,0,0,0,0,0,0,0,0,0,0,0,0,0,0,0,0,0,0,0,0,0,0,0,0,0,0,0,0,0,0,0,0,0,0,0,0,0,0,0,0,0,0,0,0,0,0,0,0,0,0,0,0,0,0,0,0,0,0,0,0,0,0,0,0,0,0,0,0,0,0,0,0,0,0,0,0,0,0,0,0,0,0,0,0,0,0,0,0,0,0,0,0,0,0,0,0,0,0,0,0,0,0,0,0,0,0,0,0,0,0,0,0,0,0,0,10261,0,0,0,0,0,0,0,0,0,0,0,0,0,0,0,0,0,0,0,0,0,0,0,0,0,0,0,0,0,0,0,0,0,0,0,0,0,0,0,0,0,0,0,0,0,0,0,0,10291,0,0,0,0,0,0,0,0,0,0,0,0,0,0,0,0,0,0,0,0,0,0,0,0,0,0,0,0,10165,0,0,0,0,0,10165,0,0,0,0,0,10165,0,0,0,0,0,0,0,0,0,0,0,0,0,0,0,0,10165,0,0,0,0,0,0,10165,0,0,0,0,0,0,10165,0,0,0,0,0,0,0,0,0,10071,10072,10072,10073,10081,10082,10082,10083,10071,10072,10072,10073,0,0,0,0,0,10071,10072,10072,10072,10072,10072,10073,0,10081,10082,10082,10082,10083,10081,10082,10082,10082,10082,10083,194,195,196,197,195,196,197,198,0,0,0,10081,10082,10082,10082,10082,10083,0,10071,10072,10072,10072,10072,10073,0,10081,10082,10082,10082,10082,10083,0,0,0,0,0,0,0,0,10074,10075,10075,10076,10084,10085,10085,10086,10074,10075,10075,10076,0,0,0,0,0,10077,10078,10078,10078,10078,10078,10079,0,3557,3558,3559,3560,3562,10087,10088,10088,10088,10088,10089,4178,4183,4179,4180,4181,4182,4183,4185,0,0,0,10084,10085,10085,10085,10085,10086,0,10074,10075,10075,10075,10075,10076,0,10084,10085,10085,10085,10085,10086,0,0,0,0,0,0,0,0,10077,10078,10078,10079,10087,10088,10088,10089,10077,10078,10078,10079,0,0,0,0,0,0,0,0,0,3147,3148,0,0,3657,3658,3659,3660,3662,0,0,0,3151,3152,0,0,0,0,0,0,0,0,0,0,0,0,10087,10088,10088,10088,10088,10089,0,10077,10078,10078,10078,10078,10079,0,10087,10088,10088,10088,10088,10089,0,0,0,0,0,0,0,0,0,0,0,0,0,0,0,0,0,0,0,0,0,0,0,0,0,0,0,3086,3087,0,0,0,0,0,3086,3087,0,0,0,0,3086,3087,0,0,0,0,0,0,0,0,0,0,0,0,0,0,0,0,0,0,0,0,0,0,0,0,0,0,0,0,0,0,0,0,0,0,0,0,0,0,0,0,0,0,3086,3087,0,0,3086,3087,0,0,3086,3087,0,0,0,0,0,0,0,0,0,0,0,0,0,0,0,0,0,0,0,0,0,0,0,0,0,0,0,0,0,0,0,0,0,0,0,0,0,0,0,10266,0,0,0,0,0,0,10266,0,0,0,0,0,0,10266,0,0,10271,10272,0,0,0,0,0,0,0,0,0,0,0,0,0,0,0,0,0,0,0,0,0,0,0,0,0,0,0,0,0,0,0,0,0,0,0,0,0,0,0,0,0,0,0,0,0,0,0,0,0,0,0,0,0,0,0,3086,3087,10265,0,0,0,0,3086,3087,10265,0,0,0,0,3086,3087,10265,0,0,0,0,0,0,0,0,0,0,0,0,0,0,0,0,0,0,0,0,0,0,0,0,0,0,0,0,0,0,0,0,0,0,0,0,0,0,0,0,0,0,0,0,0,0,0,0,0,0,0,0,0,0,0,0,0,0,0,0,0,0,0,0,0,0,0,0,0,0,0,0,0,0,0,0,0,0,0,0,0,0,0,0,0,0,0,0,0,0,0,0,0,0,0,0,0,0,0,0,0,0,0,0,0,0,0,0,0,0,0,0,0,0,0,0,0,0,0,0,0,0,0,0,0,0,0,0,0,0,0,0,0,0,0,0,0,0,0,0,0,0,0,0,0,0,0,0,0,0,0,0,0,0,0,0,0,10271,10272,0,0,0,0,0,0,0,0,0,0,0,10165,0,0,0,0,0,0,0,0,10165,0,0,0,0,0,0,0,0,10165,0,0,0,0,0,0,0,0,0,0,0,0,0,0,0,0,0,0,0,0,0,0,0,0,0,0,0,0,0,0,0,0,0,0,0,0,10165,0,0,0,0,0,0,0,0,0,0,0,0,0,0,0,10071,10072,10072,10072,10072,10073,0,0,0,10081,10082,10082,10082,10082,10083,0,0,0,10071,10072,10072,10072,10072,10073,0,0,0,0,0,0,0,0,0,0,0,0,0,0,0,0,0,0,0,0,0,0,0,0,0,0,0,0,0,0,0,10081,10082,10082,10082,10082,10083,0,0,0,0,0,0,0,0,0,0,0,0,0,0,10074,10075,10075,10075,10075,10076,0,0,0,10084,10085,10085,10085,10085,10086,0,0,0,10074,10075,10075,10075,10075,10076,0,0,0,0,0,0,0,0,0,0,0,0,0,0,0,0,0,0,0,0,0,0,0,0,0,0,0,0,0,0,0,10084,10085,10085,10085,10085,10086,0,0,0,0,0,0,0,0,0,0,0,0,0,0,10077,10078,10078,10078,10078,10079,10077,10078,10079,10087,10088,10088,10088,10088,10089,10087,10088,10089,10077,10078,10078,10078,10078,10079,0,0,0,0,0,0,0,0,0,0,0,0,0,0,0,0,0,0,0,0,0,0,0,0,0,0,0,0,0,0,0,10087,10088,10088,10088,10088,10089,0,0,0,0,0,0,0,0,0,0,0,0,0,0,0,0,0,0,0,0,0,0,0,0,0,0,0,0,0,0,0,0,0,0,0,0,0,0,0,0,0,0,0,0,0,0,0,0,0,0,0,0,0,0,0,0,0,0,0,0,0,0,0,0,0,0,0,0,0,0,0,0,0,0,0,0,0,0,0,0,0,0,0,0,0,0,0,0,0,0,0,0,10266,0,0,0,0,0,0,0,0,10266,0,0,0,0,0,0,0,0,10266,0,0,0,0,0,0,0,0,0,0,0,0,0,0,0,0,0,0,0,0,0,0,0,0,0,0,0,0,0,0,0,0,0,0,0,0,10266,0,0,0,0,0,0,0,0,0,0,0,0,0,0,0,0,0,0,3086,3087,10265,0,0,0,0,0,0,3086,3087,10265,0,0,0,0,0,0,3086,3087,10265,0,0,0,0,0,0,0,0,0,0,0,0,0,0,0,0,0,0,0,0,0,0,0,0,0,0,0,0,10271,10272,0,0,0,0,3086,3087,10265,0,0,0,0,0,0,10271,10272,0,0,0,0,0,0,0,0,0,0,0,0,0,0,0,0,0,0,0,0,0,0,0,0,0,0,0,0,0,0,0,0,0,0,0,0,0,0,0,0,0,0,0,0,0,0,0,0,0,0,0,0,0,0,0,0,0,0,0,0,0,0,0,0,0,0,0,0,0,0,0,0,0,0,0,0,0,0,0,0,0,0,0,0,0,0,0,0,0,0,0,0,0,0,0,0,0,0,0,0,0,0,0,0,0,0,0,0,0,0,0,0,0,0,0,0,0,0,0,0,0,0,0,0,0,0,0,0,0,0,0,0,0,0,0,0,0,0,0,0,0,0,0,0,0,0,0,0,0,0,0,0,0,0,0,0,0,0,0,0,0,0,0,0,0,0,0,0,0,0,0,0,0,0,0,0,0,0,0,0,0,0,0,0,0,0,0,0,0,0,0,0,0,0,0,0,0,0,0,0,0,0,0,0,0,0,0,0,0,0,0,0,0,0,0,0,0,0,0,0,0,0,0,0,0,0,0,0,0,0,0,0,0,0,0,0,0,0,0,0,0,0,0,0,0,0,0,0,0,0,0,0,0,0,0,0,0,0,0,0,0,0,0,0,0,0,0,0,0,0,0,0,0,0,0,0,0,0,0,0,0,0,0,0,0,0,0,0,0,0,0,0,0,0,0,0,0,0,0,0,0,0,0,0,0,0,0,0,0,0,0,0,0,0,0,0,0,0,0,0,0,0,0,0,0,0,0,0,0,0,0,0,0,0,0,0,0,0,0,0,0,0,0,0,0,0,0,0,0,0,0,0,0,0,0,0,0,0,0,0,0,0,0,0,0,0,0,0,0,0,0]},{"id":6,"name":"collision","type":"objectgroup","visible":true,"opacity":1,"x":0,"y":0,"draworder":"topdown","objects":[{"id":1,"name":"","type":"","rotation":0,"visible":true,"x":0,"y":48,"width":528,"height":96},{"id":2,"name":"","type":"","rotation":0,"visible":true,"x":608,"y":48,"width":592,"height":96},{"id":3,"name":"","type":"","rotation":0,"visible":true,"x":944,"y":128,"width":32,"height":32},{"id":4,"name":"","type":"","rotation":0,"visible":true,"x":1040,"y":128,"width":32,"height":16},{"id":5,"name":"","type":"","rotation":0,"visible":true,"x":1040,"y":160,"width":32,"height":160},{"id":6,"name":"","type":"","rotation":0,"visible":true,"x":928,"y":320,"width":144,"height":32},{"id":7,"name":"","type":"","rotation":0,"visible":true,"x":512,"y":272,"width":144,"height":112},{"id":8,"name":"","type":"","rotation":0,"visible":true,"x":656,"y":256,"width":144,"height":128},{"id":9,"name":"","type":"","rotation":0,"visible":true,"x":256,"y":272,"width":112,"height":96},{"id":10,"name":"","type":"","rotation":0,"visible":true,"x":48,"y":256,"width":96,"height":112},{"id":11,"name":"","type":"","rotation":0,"visible":true,"x":1072,"y":272,"width":96,"height":112},{"id":12,"name":"","type":"","rotation":0,"visible":true,"x":336,"y":480,"width":112,"height":80},{"id":13,"name":"","type":"","rotation":0,"visible":true,"x":464,"y":480,"width":80,"height":80},{"id":14,"name":"","type":"","rotation":0,"visible":true,"x":544,"y":480,"width":96,"height":80},{"id":15,"name":"","type":"","rotation":0,"visible":true,"x":640,"y":480,"width":128,"height":112},{"id":16,"name":"","type":"","rotation":0,"visible":true,"x":64,"y":480,"width":64,"height":96},{"id":17,"name":"","type":"","rotation":0,"visible":true,"x":128,"y":480,"width":64,"height":96},{"id":18,"name":"","type":"","rotation":0,"visible":true,"x":192,"y":480,"width":64,"height":96},{"id":19,"name":"","type":"","rotation":0,"visible":true,"x":816,"y":480,"width":96,"height":112},{"id":20,"name":"","type":"","rotation":0,"visible":true,"x":928,"y":480,"width":96,"height":112},{"id":21,"name":"","type":"","rotation":0,"visible":true,"x":1040,"y":480,"width":96,"height":112},{"id":22,"name":"","type":"","rotation":0,"visible":true,"x":1136,"y":544,"width":32,"height":32},{"id":23,"name":"","type":"","rotation":0,"visible":true,"x":176,"y":624,"width":96,"height":112},{"id":24,"name":"","type":"","rotation":0,"visible":true,"x":272,"y":656,"width":48,"height":48},{"id":25,"name":"","type":"","rotation":0,"visible":true,"x":320,"y":624,"width":96,"height":112},{"id":26,"name":"","type":"","rotation":0,"visible":true,"x":416,"y":656,"width":48,"height":48},{"id":27,"name":"","type":"","rotation":0,"visible":true,"x":464,"y":624,"width":96,"height":112},{"id":28,"name":"","type":"","rotation":0,"visible":true,"x":1056,"y":624,"width":96,"height":112},{"id":29,"name":"","type":"","rotation":0,"visible":true,"x":992,"y":704,"width":32,"height":32},{"id":30,"name":"","type":"","rotation":0,"visible":true,"x":32,"y":720,"width":32,"height":32},{"id":31,"name":"","type":"","rotation":0,"visible":true,"x":32,"y":608,"width":32,"height":32},{"id":32,"name":"","type":"","rotation":0,"visible":true,"x":528,"y":32,"width":16,"height":128},{"id":33,"name":"","type":"","rotation":0,"visible":true,"x":592,"y":32,"width":16,"height":128},{"id":34,"name":"","type":"","rotation":0,"visible":true,"x":516.0,"y":180.0,"width":8.0,"height":12.0},{"id":35,"name":"","type":"","rotation":0,"visible":true,"x":612.0,"y":180.0,"width":8.0,"height":12.0},{"id":36,"name":"","type":"","rotation":0,"visible":true,"x":832,"y":176,"width":48,"height":96},{"id":37,"name":"","type":"","rotation":0,"visible":true,"x":880,"y":224,"width":48,"height":48},{"id":38,"name":"","type":"","rotation":0,"visible":true,"x":944,"y":240,"width":48,"height":32},{"id":39,"name":"","type":"","rotation":0,"visible":true,"x":992,"y":176,"width":32,"height":48},{"id":40,"name":"","type":"","rotation":0,"visible":true,"x":896,"y":176,"width":32,"height":16},{"id":41,"name":"","type":"","rotation":0,"visible":true,"x":912,"y":256,"width":32,"height":16},{"id":42,"name":"","type":"","rotation":0,"visible":true,"x":1088,"y":224,"width":48,"height":48},{"id":43,"name":"","type":"","rotation":0,"visible":true,"x":1088,"y":336,"width":32,"height":16},{"id":44,"name":"","type":"","rotation":0,"visible":true,"x":832,"y":294.4,"width":64,"height":9.6},{"id":45,"name":"","type":"","rotation":0,"visible":true,"x":928,"y":294.4,"width":96,"height":9.6},{"id":46,"name":"","type":"","rotation":0,"visible":true,"x":1024,"y":272,"width":16,"height":32},{"id":47,"name":"","type":"","rotation":0,"visible":true,"x":864,"y":320,"width":32,"height":16},{"id":48,"name":"","type":"","rotation":0,"visible":true,"x":768,"y":176,"width":16,"height":16},{"id":49,"name":"","type":"","rotation":0,"visible":true,"x":784,"y":304,"width":16,"height":16},{"id":50,"name":"","type":"","rotation":0,"visible":true,"x":1088,"y":160,"width":16,"height":16},{"id":51,"name":"","type":"","rotation":0,"visible":true,"x":1136,"y":208,"width":16,"height":16},{"id":52,"name":"","type":"","rotation":0,"visible":true,"x":720,"y":144,"width":16,"height":16},{"id":53,"name":"","type":"","rotation":0,"visible":true,"x":208,"y":208,"width":96,"height":32},{"id":54,"name":"","type":"","rotation":0,"visible":true,"x":176,"y":240,"width":32,"height":16},{"id":55,"name":"","type":"","rotation":0,"visible":true,"x":304,"y":240,"width":32,"height":16},{"id":56,"name":"","type":"","rotation":0,"visible":true,"x":176,"y":192,"width":32,"height":32},{"id":57,"name":"","type":"","rotation":0,"visible":true,"x":192,"y":256,"width":64,"height":32},{"id":58,"name":"","type":"","rotation":0,"visible":true,"x":320,"y":176,"width":32,"height":16},{"id":59,"name":"","type":"","rotation":0,"visible":true,"x":176,"y":160,"width":16,"height":16},{"id":60,"name":"","type":"","rotation":0,"visible":true,"x":340.0,"y":244.0,"width":8.0,"height":12.0},{"id":61,"name":"","type":"","rotation":0,"visible":true,"x":529.6,"y":388.8,"width":12.8,"height":11.2},{"id":62,"name":"","type":"","rotation":0,"visible":true,"x":625.6,"y":388.8,"width":12.8,"height":11.2},{"id":63,"name":"","type":"","rotation":0,"visible":true,"x":448,"y":288,"width":32,"height":32},{"id":64,"name":"","type":"","rotation":0,"visible":true,"x":448,"y":320,"width":16,"height":16},{"id":65,"name":"","type":"","rotation":0,"visible":true,"x":480,"y":320,"width":16,"height":16},{"id":66,"name":"","type":"","rotation":0,"visible":true,"x":436.0,"y":340.0,"width":8.0,"height":12.0},{"id":67,"name":"","type":"","rotation":0,"visible":true,"x":336,"y":352,"width":32,"height":16},{"id":68,"name":"","type":"","rotation":0,"visible":true,"x":353.6,"y":249.6,"width":28.8,"height":19.2},{"id":69,"name":"","type":"","rotation":0,"visible":true,"x":355.2,"y":260.8,"width":9.6,"height":11.2},{"id":70,"name":"","type":"","rotation":0,"visible":true,"x":208,"y":304,"width":48,"height":32},{"id":71,"name":"","type":"","rotation":0,"visible":true,"x":208,"y":272,"width":32,"height":32},{"id":72,"name":"","type":"","rotation":0,"visible":true,"x":304,"y":496,"width":32,"height":64},{"id":73,"name":"","type":"","rotation":0,"visible":true,"x":771.2,"y":580.8,"width":9.6,"height":11.2},{"id":74,"name":"","type":"","rotation":0,"visible":true,"x":32,"y":544,"width":32,"height":32},{"id":75,"name":"","type":"","rotation":0,"visible":true,"x":272,"y":704,"width":16,"height":32},{"id":76,"name":"","type":"","rotation":0,"visible":true,"x":432,"y":704,"width":16,"height":32},{"id":77,"name":"","type":"","rotation":0,"visible":true,"x":1136,"y":496,"width":16,"height":32},{"id":78,"name":"","type":"","rotation":0,"visible":true,"x":163.2,"y":723.2,"width":9.6,"height":12.8},{"id":79,"name":"","type":"","rotation":0,"visible":true,"x":803.2,"y":579.2,"width":9.6,"height":12.8},{"id":80,"name":"","type":"","rotation":0,"visible":true,"x":912,"y":496,"width":16,"height":96},{"id":81,"name":"","type":"","rotation":0,"visible":true,"x":1024,"y":496,"width":16,"height":96},{"id":82,"name":"","type":"","rotation":0,"visible":true,"x":80,"y":640,"width":96,"height":16},{"id":83,"name":"","type":"","rotation":0,"visible":true,"x":80,"y":704,"width":96,"height":16},{"id":84,"name":"","type":"","rotation":0,"visible":true,"x":80,"y":656,"width":16,"height":48},{"id":85,"name":"","type":"","rotation":0,"visible":true,"x":160,"y":656,"width":16,"height":48},{"id":86,"name":"","type":"","rotation":0,"visible":true,"x":880,"y":656,"width":16,"height":16},{"id":87,"name":"","type":"","rotation":0,"visible":true,"x":944,"y":704,"width":16,"height":16},{"id":88,"name":"","type":"","rotation":0,"visible":true,"x":912,"y":752,"width":16,"height":16},{"id":89,"name":"","type":"","rotation":0,"visible":true,"x":848,"y":720,"width":16,"height":16},{"id":90,"name":"","type":"","rotation":0,"visible":true,"x":96,"y":32,"width":16,"height":16},{"id":91,"name":"","type":"","rotation":0,"visible":true,"x":272,"y":32,"width":16,"height":16},{"id":92,"name":"","type":"","rotation":0,"visible":true,"x":432,"y":32,"width":16,"height":16},{"id":93,"name":"","type":"","rotation":0,"visible":true,"x":656,"y":32,"width":16,"height":16},{"id":94,"name":"","type":"","rotation":0,"visible":true,"x":832,"y":32,"width":16,"height":16},{"id":95,"name":"","type":"","rotation":0,"visible":true,"x":1024,"y":32,"width":16,"height":16},{"id":96,"name":"","type":"","rotation":0,"visible":true,"x":32,"y":192,"width":16,"height":16},{"id":97,"name":"","type":"","rotation":0,"visible":true,"x":96,"y":208,"width":16,"height":16},{"id":98,"name":"","type":"","rotation":0,"visible":true,"x":816,"y":240,"width":16,"height":16},{"id":99,"name":"","type":"","rotation":0,"visible":true,"x":256,"y":464,"width":16,"height":16},{"id":100,"name":"","type":"","rotation":0,"visible":true,"x":816,"y":464,"width":16,"height":16},{"id":101,"name":"","type":"","rotation":0,"visible":true,"x":336,"y":752,"width":16,"height":16},{"id":102,"name":"","type":"","rotation":0,"visible":true,"x":592,"y":736,"width":16,"height":16},{"id":103,"name":"","type":"","rotation":0,"visible":true,"x":704,"y":672,"width":16,"height":16},{"id":104,"name":"","type":"","rotation":0,"visible":true,"x":752,"y":720,"width":16,"height":16},{"id":105,"name":"","type":"","rotation":0,"visible":true,"x":132.0,"y":388.0,"width":8.0,"height":12.0},{"id":106,"name":"","type":"","rotation":0,"visible":true,"x":484.0,"y":388.0,"width":8.0,"height":12.0},{"id":107,"name":"","type":"","rotation":0,"visible":true,"x":708.0,"y":388.0,"width":8.0,"height":12.0},{"id":108,"name":"","type":"","rotation":0,"visible":true,"x":932.0,"y":388.0,"width":8.0,"height":12.0},{"id":109,"name":"","type":"","rotation":0,"visible":true,"x":52.0,"y":452.0,"width":8.0,"height":12.0},{"id":110,"name":"","type":"","rotation":0,"visible":true,"x":308.0,"y":452.0,"width":8.0,"height":12.0},{"id":111,"name":"","type":"","rotation":0,"visible":true,"x":580.0,"y":452.0,"width":8.0,"height":12.0},{"id":112,"name":"","type":"","rotation":0,"visible":true,"x":756.0,"y":452.0,"width":8.0,"height":12.0},{"id":113,"name":"","type":"","rotation":0,"visible":true,"x":1012.0,"y":452.0,"width":8.0,"height":12.0},{"id":114,"name":"","type":"","rotation":0,"visible":true,"x":1156.0,"y":452.0,"width":8.0,"height":12.0},{"id":115,"name":"","type":"","rotation":0,"visible":true,"x":227.2,"y":388.8,"width":9.6,"height":11.2},{"id":116,"name":"","type":"","rotation":0,"visible":true,"x":499.2,"y":387.2,"width":9.6,"height":12.8},{"id":117,"name":"","type":"","rotation":0,"visible":true,"x":435.2,"y":452.8,"width":9.6,"height":11.2},{"id":118,"name":"","type":"","rotation":0,"visible":true,"x":373.6,"y":388.8,"width":4.8,"height":11.2},{"id":119,"name":"","type":"","rotation":0,"visible":true,"x":437.6,"y":388.8,"width":4.8,"height":11.2},{"id":120,"name":"","type":"","rotation":0,"visible":true,"x":373.6,"y":468.8,"width":4.8,"height":11.2},{"id":121,"name":"","type":"","rotation":0,"visible":true,"x":597.6,"y":180.8,"width":4.8,"height":11.2},{"id":122,"name":"","type":"","rotation":0,"visible":true,"x":0,"y":-16,"width":1200,"height":16},{"id":123,"name":"","type":"","rotation":0,"visible":true,"x":0,"y":800,"width":1200,"height":16},{"id":124,"name":"","type":"","rotation":0,"visible":true,"x":-16,"y":0,"width":16,"height":800},{"id":125,"name":"","type":"","rotation":0,"visible":true,"x":1200,"y":0,"width":16,"height":800},{"id":126,"name":"","type":"","rotation":0,"visible":true,"x":16,"y":16,"width":16,"height":16},{"id":127,"name":"","type":"","rotation":0,"visible":true,"x":48,"y":16,"width":16,"height":16},{"id":128,"name":"","type":"","rotation":0,"visible":true,"x":144,"y":16,"width":16,"height":16},{"id":129,"name":"","type":"","rotation":0,"visible":true,"x":176,"y":16,"width":16,"height":16},{"id":130,"name":"","type":"","rotation":0,"visible":true,"x":208,"y":16,"width":16,"height":16},{"id":131,"name":"","type":"","rotation":0,"visible":true,"x":240,"y":16,"width":16,"height":16},{"id":132,"name":"","type":"","rotation":0,"visible":true,"x":304,"y":16,"width":16,"height":16},{"id":133,"name":"","type":"","rotation":0,"visible":true,"x":336,"y":16,"width":16,"height":16},{"id":134,"name":"","type":"","rotation":0,"visible":true,"x":368,"y":16,"width":16,"height":16},{"id":135,"name":"","type":"","rotation":0,"visible":true,"x":400,"y":16,"width":16,"height":16},{"id":136,"name":"","type":"","rotation":0,"visible":true,"x":464,"y":16,"width":16,"height":16},{"id":137,"name":"","type":"","rotation":0,"visible":true,"x":624,"y":16,"width":16,"height":16},{"id":138,"name":"","type":"","rotation":0,"visible":true,"x":688,"y":16,"width":16,"height":16},{"id":139,"name":"","type":"","rotation":0,"visible":true,"x":752,"y":16,"width":16,"height":16},{"id":140,"name":"","type":"","rotation":0,"visible":true,"x":784,"y":16,"width":16,"height":16},{"id":141,"name":"","type":"","rotation":0,"visible":true,"x":880,"y":16,"width":16,"height":16},{"id":142,"name":"","type":"","rotation":0,"visible":true,"x":912,"y":16,"width":16,"height":16},{"id":143,"name":"","type":"","rotation":0,"visible":true,"x":976,"y":16,"width":16,"height":16},{"id":144,"name":"","type":"","rotation":0,"visible":true,"x":1072,"y":16,"width":16,"height":16},{"id":145,"name":"","type":"","rotation":0,"visible":true,"x":1104,"y":16,"width":16,"height":16},{"id":146,"name":"","type":"","rotation":0,"visible":true,"x":1136,"y":16,"width":16,"height":16},{"id":147,"name":"","type":"","rotation":0,"visible":true,"x":1168,"y":16,"width":16,"height":16},{"id":148,"name":"","type":"","rotation":0,"visible":true,"x":16,"y":784,"width":16,"height":16},{"id":149,"name":"","type":"","rotation":0,"visible":true,"x":48,"y":784,"width":16,"height":16},{"id":150,"name":"","type":"","rotation":0,"visible":true,"x":80,"y":784,"width":16,"height":16},{"id":151,"name":"","type":"","rotation":0,"visible":true,"x":112,"y":784,"width":16,"height":16},{"id":152,"name":"","type":"","rotation":0,"visible":true,"x":144,"y":784,"width":16,"height":16},{"id":153,"name":"","type":"","rotation":0,"visible":true,"x":176,"y":784,"width":16,"height":16},{"id":154,"name":"","type":"","rotation":0,"visible":true,"x":208,"y":784,"width":16,"height":16},{"id":155,"name":"","type":"","rotation":0,"visible":true,"x":240,"y":784,"width":16,"height":16},{"id":156,"name":"","type":"","rotation":0,"visible":true,"x":272,"y":784,"width":16,"height":16},{"id":157,"name":"","type":"","rotation":0,"visible":true,"x":304,"y":784,"width":16,"height":16},{"id":158,"name":"","type":"","rotation":0,"visible":true,"x":336,"y":784,"width":16,"height":16},{"id":159,"name":"","type":"","rotation":0,"visible":true,"x":368,"y":784,"width":16,"height":16},{"id":160,"name":"","type":"","rotation":0,"visible":true,"x":400,"y":784,"width":16,"height":16},{"id":161,"name":"","type":"","rotation":0,"visible":true,"x":432,"y":784,"width":16,"height":16},{"id":162,"name":"","type":"","rotation":0,"visible":true,"x":464,"y":784,"width":16,"height":16},{"id":163,"name":"","type":"","rotation":0,"visible":true,"x":496,"y":784,"width":16,"height":16},{"id":164,"name":"","type":"","rotation":0,"visible":true,"x":528,"y":784,"width":16,"height":16},{"id":165,"name":"","type":"","rotation":0,"visible":true,"x":560,"y":784,"width":16,"height":16},{"id":166,"name":"","type":"","rotation":0,"visible":true,"x":592,"y":784,"width":16,"height":16},{"id":167,"name":"","type":"","rotation":0,"visible":true,"x":624,"y":784,"width":16,"height":16},{"id":168,"name":"","type":"","rotation":0,"visible":true,"x":656,"y":784,"width":16,"height":16},{"id":169,"name":"","type":"","rotation":0,"visible":true,"x":688,"y":784,"width":16,"height":16},{"id":170,"name":"","type":"","rotation":0,"visible":true,"x":720,"y":784,"width":16,"height":16},{"id":171,"name":"","type":"","rotation":0,"visible":true,"x":752,"y":784,"width":16,"height":16},{"id":172,"name":"","type":"","rotation":0,"visible":true,"x":784,"y":784,"width":16,"height":16},{"id":173,"name":"","type":"","rotation":0,"visible":true,"x":816,"y":784,"width":16,"height":16},{"id":174,"name":"","type":"","rotation":0,"visible":true,"x":848,"y":784,"width":16,"height":16},{"id":175,"name":"","type":"","rotation":0,"visible":true,"x":880,"y":784,"width":16,"height":16},{"id":176,"name":"","type":"","rotation":0,"visible":true,"x":912,"y":784,"width":16,"height":16},{"id":177,"name":"","type":"","rotation":0,"visible":true,"x":944,"y":784,"width":16,"height":16},{"id":178,"name":"","type":"","rotation":0,"visible":true,"x":976,"y":784,"width":16,"height":16},{"id":179,"name":"","type":"","rotation":0,"visible":true,"x":1008,"y":784,"width":16,"height":16},{"id":180,"name":"","type":"","rotation":0,"visible":true,"x":1040,"y":784,"width":16,"height":16},{"id":181,"name":"","type":"","rotation":0,"visible":true,"x":1072,"y":784,"width":16,"height":16},{"id":182,"name":"","type":"","rotation":0,"visible":true,"x":1104,"y":784,"width":16,"height":16},{"id":183,"name":"","type":"","rotation":0,"visible":true,"x":1136,"y":784,"width":16,"height":16},{"id":184,"name":"","type":"","rotation":0,"visible":true,"x":1168,"y":784,"width":16,"height":16},{"id":185,"name":"","type":"","rotation":0,"visible":true,"x":16,"y":144,"width":16,"height":16},{"id":186,"name":"","type":"","rotation":0,"visible":true,"x":1168,"y":144,"width":16,"height":16},{"id":187,"name":"","type":"","rotation":0,"visible":true,"x":1168,"y":176,"width":16,"height":16},{"id":188,"name":"","type":"","rotation":0,"visible":true,"x":1168,"y":208,"width":16,"height":16},{"id":189,"name":"","type":"","rotation":0,"visible":true,"x":16,"y":240,"width":16,"height":16},{"id":190,"name":"","type":"","rotation":0,"visible":true,"x":1168,"y":240,"width":16,"height":16},{"id":191,"name":"","type":"","rotation":0,"visible":true,"x":16,"y":272,"width":16,"height":16},{"id":192,"name":"","type":"","rotation":0,"visible":true,"x":1168,"y":272,"width":16,"height":16},{"id":193,"name":"","type":"","rotation":0,"visible":true,"x":16,"y":304,"width":16,"height":16},{"id":194,"name":"","type":"","rotation":0,"visible":true,"x":1168,"y":304,"width":16,"height":16},{"id":195,"name":"","type":"","rotation":0,"visible":true,"x":16,"y":336,"width":16,"height":16},{"id":196,"name":"","type":"","rotation":0,"visible":true,"x":1168,"y":336,"width":16,"height":16},{"id":197,"name":"","type":"","rotation":0,"visible":true,"x":16,"y":368,"width":16,"height":16},{"id":198,"name":"","type":"","rotation":0,"visible":true,"x":1168,"y":368,"width":16,"height":16},{"id":199,"name":"","type":"","rotation":0,"visible":true,"x":16,"y":464,"width":16,"height":16},{"id":200,"name":"","type":"","rotation":0,"visible":true,"x":1168,"y":464,"width":16,"height":16},{"id":201,"name":"","type":"","rotation":0,"visible":true,"x":16,"y":496,"width":16,"height":16},{"id":202,"name":"","type":"","rotation":0,"visible":true,"x":1168,"y":496,"width":16,"height":16},{"id":203,"name":"","type":"","rotation":0,"visible":true,"x":16,"y":528,"width":16,"height":16},{"id":204,"name":"","type":"","rotation":0,"visible":true,"x":1168,"y":528,"width":16,"height":16},{"id":205,"name":"","type":"","rotation":0,"visible":true,"x":16,"y":560,"width":16,"height":16},{"id":206,"name":"","type":"","rotation":0,"visible":true,"x":1168,"y":560,"width":16,"height":16},{"id":207,"name":"","type":"","rotation":0,"visible":true,"x":1168,"y":592,"width":16,"height":16},{"id":208,"name":"","type":"","rotation":0,"visible":true,"x":16,"y":624,"width":16,"height":16},{"id":209,"name":"","type":"","rotation":0,"visible":true,"x":1168,"y":624,"width":16,"height":16},{"id":210,"name":"","type":"","rotation":0,"visible":true,"x":16,"y":656,"width":16,"height":16},{"id":211,"name":"","type":"","rotation":0,"visible":true,"x":1168,"y":656,"width":16,"height":16},{"id":212,"name":"","type":"","rotation":0,"visible":true,"x":16,"y":688,"width":16,"height":16},{"id":213,"name":"","type":"","rotation":0,"visible":true,"x":1168,"y":688,"width":16,"height":16},{"id":214,"name":"","type":"","rotation":0,"visible":true,"x":16,"y":720,"width":16,"height":16},{"id":215,"name":"","type":"","rotation":0,"visible":true,"x":1168,"y":720,"width":16,"height":16},{"id":216,"name":"","type":"","rotation":0,"visible":true,"x":16,"y":752,"width":16,"height":16},{"id":217,"name":"","type":"","rotation":0,"visible":true,"x":1168,"y":752,"width":16,"height":16},{"id":218,"name":"","type":"","rotation":0,"visible":true,"x":37.6,"y":388.8,"width":4.8,"height":11.2},{"id":219,"name":"","type":"","rotation":0,"visible":true,"x":1157.6,"y":468.8,"width":4.8,"height":11.2},{"id":220,"name":"","type":"","rotation":0,"visible":true,"x":613.6,"y":36.8,"width":4.8,"height":11.2},{"id":221,"name":"","type":"","rotation":0,"visible":true,"x":148.8,"y":359.2,"width":6.4,"height":8.0},{"id":222,"name":"","type":"","rotation":0,"visible":true,"x":52.8,"y":375.2,"width":6.4,"height":8.0},{"id":223,"name":"","type":"","rotation":0,"visible":true,"x":1060.8,"y":375.2,"width":6.4,"height":8.0},{"id":224,"name":"","type":"","rotation":0,"visible":true,"x":1060.8,"y":359.2,"width":6.4,"height":8.0},{"id":225,"name":"","type":"","rotation":0,"visible":true,"x":68.8,"y":583.2,"width":6.4,"height":8.0},{"id":226,"name":"","type":"","rotation":0,"visible":true,"x":132.8,"y":583.2,"width":6.4,"height":8.0},{"id":227,"name":"","type":"","rotation":0,"visible":true,"x":260.8,"y":567.2,"width":6.4,"height":8.0},{"id":228,"name":"","type":"","rotation":0,"visible":true,"x":804.8,"y":567.2,"width":6.4,"height":8.0},{"id":229,"name":"","type":"","rotation":0,"visible":true,"x":308.8,"y":727.2,"width":6.4,"height":8.0},{"id":230,"name":"","type":"","rotation":0,"visible":true,"x":308.8,"y":711.2,"width":6.4,"height":8.0},{"id":231,"name":"","type":"","rotation":0,"visible":true,"x":452.8,"y":727.2,"width":6.4,"height":8.0},{"id":232,"name":"","type":"","rotation":0,"visible":true,"x":452.8,"y":711.2,"width":6.4,"height":8.0},{"id":233,"name":"","type":"","rotation":0,"visible":true,"x":1044.8,"y":727.2,"width":6.4,"height":8.0},{"id":234,"name":"","type":"","rotation":0,"visible":true,"x":1044.8,"y":711.2,"width":6.4,"height":8.0}]},{"id":7,"name":"anchors","type":"objectgroup","visible":true,"opacity":1,"x":0,"y":0,"draworder":"topdown","objects":[{"id":235,"name":"","type":"","rotation":0,"point":true,"visible":true,"x":120.0,"y":80.0,"width":0,"height":0,"properties":[{"name":"kind","type":"string","value":"water-foam"}]},{"id":236,"name":"","type":"","rotation":0,"point":true,"visible":true,"x":296.0,"y":96.0,"width":0,"height":0,"properties":[{"name":"kind","type":"string","value":"water-foam"}]},{"id":237,"name":"","type":"","rotation":0,"point":true,"visible":true,"x":456.0,"y":80.0,"width":0,"height":0,"properties":[{"name":"kind","type":"string","value":"water-foam"}]},{"id":238,"name":"","type":"","rotation":0,"point":true,"visible":true,"x":744.0,"y":96.0,"width":0,"height":0,"properties":[{"name":"kind","type":"string","value":"water-foam"}]},{"id":239,"name":"","type":"","rotation":0,"point":true,"visible":true,"x":888.0,"y":80.0,"width":0,"height":0,"properties":[{"name":"kind","type":"string","value":"water-foam"}]},{"id":240,"name":"","type":"","rotation":0,"point":true,"visible":true,"x":1096.0,"y":80.0,"width":0,"height":0,"properties":[{"name":"kind","type":"string","value":"water-foam"}]},{"id":241,"name":"","type":"","rotation":0,"point":true,"visible":true,"x":984.0,"y":96.0,"width":0,"height":0,"properties":[{"name":"kind","type":"string","value":"water-foam"}]},{"id":242,"name":"","type":"","rotation":0,"point":true,"visible":true,"x":984.0,"y":128.0,"width":0,"height":0,"properties":[{"name":"kind","type":"string","value":"water-foam"}]},{"id":243,"name":"","type":"","rotation":0,"point":true,"visible":true,"x":1056.0,"y":256.0,"width":0,"height":0,"properties":[{"name":"kind","type":"string","value":"water-foam"}]},{"id":244,"name":"","type":"","rotation":0,"point":true,"visible":true,"x":968.0,"y":352.0,"width":0,"height":0,"properties":[{"name":"kind","type":"string","value":"water-foam"}]},{"id":245,"name":"","type":"","rotation":0,"point":true,"visible":true,"x":344.0,"y":266.4,"width":0,"height":0,"properties":[{"name":"kind","type":"string","value":"smoke"},{"name":"mode","type":"string","value":"hearth"}]},{"id":246,"name":"","type":"","rotation":0,"point":true,"visible":true,"x":120.0,"y":250.4,"width":0,"height":0,"properties":[{"name":"kind","type":"string","value":"smoke"},{"name":"mode","type":"string","value":"hearth"}]},{"id":247,"name":"","type":"","rotation":0,"point":true,"visible":true,"x":1144.0,"y":266.4,"width":0,"height":0,"properties":[{"name":"kind","type":"string","value":"smoke"},{"name":"mode","type":"string","value":"hearth"}]},{"id":248,"name":"","type":"","rotation":0,"point":true,"visible":true,"x":424.0,"y":474.4,"width":0,"height":0,"properties":[{"name":"kind","type":"string","value":"smoke"},{"name":"mode","type":"string","value":"hearth"}]},{"id":249,"name":"","type":"","rotation":0,"point":true,"visible":true,"x":520.0,"y":474.4,"width":0,"height":0,"properties":[{"name":"kind","type":"string","value":"smoke"},{"name":"mode","type":"string","value":"hearth"}]},{"id":250,"name":"","type":"","rotation":0,"point":true,"visible":true,"x":616.0,"y":474.4,"width":0,"height":0,"properties":[{"name":"kind","type":"string","value":"smoke"},{"name":"mode","type":"string","value":"hearth"}]},{"id":251,"name":"","type":"","rotation":0,"point":true,"visible":true,"x":888.0,"y":474.4,"width":0,"height":0,"properties":[{"name":"kind","type":"string","value":"smoke"},{"name":"mode","type":"string","value":"hearth"}]},{"id":252,"name":"","type":"","rotation":0,"point":true,"visible":true,"x":1000.0,"y":474.4,"width":0,"height":0,"properties":[{"name":"kind","type":"string","value":"smoke"},{"name":"mode","type":"string","value":"hearth"}]},{"id":253,"name":"","type":"","rotation":0,"point":true,"visible":true,"x":1112.0,"y":474.4,"width":0,"height":0,"properties":[{"name":"kind","type":"string","value":"smoke"},{"name":"mode","type":"string","value":"hearth"}]},{"id":254,"name":"","type":"","rotation":0,"point":true,"visible":true,"x":248.0,"y":618.4,"width":0,"height":0,"properties":[{"name":"kind","type":"string","value":"smoke"},{"name":"mode","type":"string","value":"hearth"}]},{"id":255,"name":"","type":"","rotation":0,"point":true,"visible":true,"x":392.0,"y":618.4,"width":0,"height":0,"properties":[{"name":"kind","type":"string","value":"smoke"},{"name":"mode","type":"string","value":"hearth"}]},{"id":256,"name":"","type":"","rotation":0,"point":true,"visible":true,"x":536.0,"y":618.4,"width":0,"height":0,"properties":[{"name":"kind","type":"string","value":"smoke"},{"name":"mode","type":"string","value":"hearth"}]},{"id":257,"name":"","type":"","rotation":0,"point":true,"visible":true,"x":1128.0,"y":618.4,"width":0,"height":0,"properties":[{"name":"kind","type":"string","value":"smoke"},{"name":"mode","type":"string","value":"hearth"}]},{"id":258,"name":"","type":"","rotation":0,"point":true,"visible":true,"x":520.0,"y":192.0,"width":0,"height":0,"properties":[{"name":"kind","type":"string","value":"lamp"}]},{"id":259,"name":"","type":"","rotation":0,"point":true,"visible":true,"x":616.0,"y":192.0,"width":0,"height":0,"properties":[{"name":"kind","type":"string","value":"lamp"}]},{"id":260,"name":"","type":"","rotation":0,"point":true,"visible":true,"x":776.0,"y":192.0,"width":0,"height":0,"properties":[{"name":"kind","type":"string","value":"tree"},{"name":"stamp","type":"string","value":"tree_dark"}]},{"id":261,"name":"","type":"","rotation":0,"point":true,"visible":true,"x":792.0,"y":320.0,"width":0,"height":0,"properties":[{"name":"kind","type":"string","value":"tree"},{"name":"stamp","type":"string","value":"tree_dark"}]},{"id":262,"name":"","type":"","rotation":0,"point":true,"visible":true,"x":1096.0,"y":176.0,"width":0,"height":0,"properties":[{"name":"kind","type":"string","value":"tree"},{"name":"stamp","type":"string","value":"tree_dark"}]},{"id":263,"name":"","type":"","rotation":0,"point":true,"visible":true,"x":1144.0,"y":224.0,"width":0,"height":0,"properties":[{"name":"kind","type":"string","value":"tree"},{"name":"stamp","type":"string","value":"tree_light"}]},{"id":264,"name":"","type":"","rotation":0,"point":true,"visible":true,"x":184.0,"y":176.0,"width":0,"height":0,"properties":[{"name":"kind","type":"string","value":"tree"},{"name":"stamp","type":"string","value":"tree_dark"}]},{"id":265,"name":"","type":"","rotation":0,"point":true,"visible":true,"x":344.0,"y":256.0,"width":0,"height":0,"properties":[{"name":"kind","type":"string","value":"lamp"}]},{"id":266,"name":"","type":"","rotation":0,"point":true,"visible":true,"x":440.0,"y":352.0,"width":0,"height":0,"properties":[{"name":"kind","type":"string","value":"lamp"}]},{"id":267,"name":"Millbrook Farmers Market","type":"","rotation":0,"point":true,"visible":true,"x":368.0,"y":272.0,"width":0,"height":0,"properties":[{"name":"kind","type":"string","value":"noticeboard"}]},{"id":268,"name":"","type":"","rotation":0,"point":true,"visible":true,"x":888.0,"y":672.0,"width":0,"height":0,"properties":[{"name":"kind","type":"string","value":"tree"},{"name":"stamp","type":"string","value":"tree_fruit_a"}]},{"id":269,"name":"","type":"","rotation":0,"point":true,"visible":true,"x":952.0,"y":720.0,"width":0,"height":0,"properties":[{"name":"kind","type":"string","value":"tree"},{"name":"stamp","type":"string","value":"tree_fruit_b"}]},{"id":270,"name":"","type":"","rotation":0,"point":true,"visible":true,"x":920.0,"y":768.0,"width":0,"height":0,"properties":[{"name":"kind","type":"string","value":"tree"},{"name":"stamp","type":"string","value":"tree_fruit_c"}]},{"id":271,"name":"","type":"","rotation":0,"point":true,"visible":true,"x":856.0,"y":736.0,"width":0,"height":0,"properties":[{"name":"kind","type":"string","value":"tree"},{"name":"stamp","type":"string","value":"tree_fruit_a"}]},{"id":272,"name":"","type":"","rotation":0,"point":true,"visible":true,"x":104.0,"y":48.0,"width":0,"height":0,"properties":[{"name":"kind","type":"string","value":"tree"},{"name":"stamp","type":"string","value":"tree_dark"}]},{"id":273,"name":"","type":"","rotation":0,"point":true,"visible":true,"x":280.0,"y":48.0,"width":0,"height":0,"properties":[{"name":"kind","type":"string","value":"tree"},{"name":"stamp","type":"string","value":"tree_light"}]},{"id":274,"name":"","type":"","rotation":0,"point":true,"visible":true,"x":440.0,"y":48.0,"width":0,"height":0,"properties":[{"name":"kind","type":"string","value":"tree"},{"name":"stamp","type":"string","value":"tree_light"}]},{"id":275,"name":"","type":"","rotation":0,"point":true,"visible":true,"x":664.0,"y":48.0,"width":0,"height":0,"properties":[{"name":"kind","type":"string","value":"tree"},{"name":"stamp","type":"string","value":"tree_dark"}]},{"id":276,"name":"","type":"","rotation":0,"point":true,"visible":true,"x":840.0,"y":48.0,"width":0,"height":0,"properties":[{"name":"kind","type":"string","value":"tree"},{"name":"stamp","type":"string","value":"tree_dark"}]},{"id":277,"name":"","type":"","rotation":0,"point":true,"visible":true,"x":1032.0,"y":48.0,"width":0,"height":0,"properties":[{"name":"kind","type":"string","value":"tree"},{"name":"stamp","type":"string","value":"tree_light"}]},{"id":278,"name":"","type":"","rotation":0,"point":true,"visible":true,"x":40.0,"y":208.0,"width":0,"height":0,"properties":[{"name":"kind","type":"string","value":"tree"},{"name":"stamp","type":"string","value":"tree_light"}]},{"id":279,"name":"","type":"","rotation":0,"point":true,"visible":true,"x":104.0,"y":224.0,"width":0,"height":0,"properties":[{"name":"kind","type":"string","value":"tree"},{"name":"stamp","type":"string","value":"tree_light"}]},{"id":280,"name":"","type":"","rotation":0,"point":true,"visible":true,"x":824.0,"y":256.0,"width":0,"height":0,"properties":[{"name":"kind","type":"string","value":"tree"},{"name":"stamp","type":"string","value":"tree_round_small"}]},{"id":281,"name":"","type":"","rotation":0,"point":true,"visible":true,"x":264.0,"y":480.0,"width":0,"height":0,"properties":[{"name":"kind","type":"string","value":"tree"},{"name":"stamp","type":"string","value":"tree_light"}]},{"id":282,"name":"","type":"","rotation":0,"point":true,"visible":true,"x":824.0,"y":480.0,"width":0,"height":0,"properties":[{"name":"kind","type":"string","value":"tree"},{"name":"stamp","type":"string","value":"tree_light"}]},{"id":283,"name":"","type":"","rotation":0,"point":true,"visible":true,"x":344.0,"y":768.0,"width":0,"height":0,"properties":[{"name":"kind","type":"string","value":"tree"},{"name":"stamp","type":"string","value":"tree_dark"}]},{"id":284,"name":"","type":"","rotation":0,"point":true,"visible":true,"x":600.0,"y":752.0,"width":0,"height":0,"properties":[{"name":"kind","type":"string","value":"tree"},{"name":"stamp","type":"string","value":"tree_dark"}]},{"id":285,"name":"","type":"","rotation":0,"point":true,"visible":true,"x":712.0,"y":688.0,"width":0,"height":0,"properties":[{"name":"kind","type":"string","value":"tree"},{"name":"stamp","type":"string","value":"tree_dark"}]},{"id":286,"name":"","type":"","rotation":0,"point":true,"visible":true,"x":760.0,"y":736.0,"width":0,"height":0,"properties":[{"name":"kind","type":"string","value":"tree"},{"name":"stamp","type":"string","value":"tree_round_small"}]},{"id":287,"name":"","type":"","rotation":0,"point":true,"visible":true,"x":136.0,"y":400.0,"width":0,"height":0,"properties":[{"name":"kind","type":"string","value":"lamp"}]},{"id":288,"name":"","type":"","rotation":0,"point":true,"visible":true,"x":488.0,"y":400.0,"width":0,"height":0,"properties":[{"name":"kind","type":"string","value":"lamp"}]},{"id":289,"name":"","type":"","rotation":0,"point":true,"visible":true,"x":712.0,"y":400.0,"width":0,"height":0,"properties":[{"name":"kind","type":"string","value":"lamp"}]},{"id":290,"name":"","type":"","rotation":0,"point":true,"visible":true,"x":936.0,"y":400.0,"width":0,"height":0,"properties":[{"name":"kind","type":"string","value":"lamp"}]},{"id":291,"name":"","type":"","rotation":0,"point":true,"visible":true,"x":56.0,"y":464.0,"width":0,"height":0,"properties":[{"name":"kind","type":"string","value":"lamp"}]},{"id":292,"name":"","type":"","rotation":0,"point":true,"visible":true,"x":312.0,"y":464.0,"width":0,"height":0,"properties":[{"name":"kind","type":"string","value":"lamp"}]},{"id":293,"name":"","type":"","rotation":0,"point":true,"visible":true,"x":584.0,"y":464.0,"width":0,"height":0,"properties":[{"name":"kind","type":"string","value":"lamp"}]},{"id":294,"name":"","type":"","rotation":0,"point":true,"visible":true,"x":760.0,"y":464.0,"width":0,"height":0,"properties":[{"name":"kind","type":"string","value":"lamp"}]},{"id":295,"name":"","type":"","rotation":0,"point":true,"visible":true,"x":1016.0,"y":464.0,"width":0,"height":0,"properties":[{"name":"kind","type":"string","value":"lamp"}]},{"id":296,"name":"","type":"","rotation":0,"point":true,"visible":true,"x":1160.0,"y":464.0,"width":0,"height":0,"properties":[{"name":"kind","type":"string","value":"lamp"}]},{"id":297,"name":"","type":"","rotation":0,"point":true,"visible":true,"x":24.0,"y":32.0,"width":0,"height":0,"properties":[{"name":"kind","type":"string","value":"tree"},{"name":"stamp","type":"string","value":"tree_round_small"}]},{"id":298,"name":"","type":"","rotation":0,"point":true,"visible":true,"x":56.0,"y":32.0,"width":0,"height":0,"properties":[{"name":"kind","type":"string","value":"tree"},{"name":"stamp","type":"string","value":"tree_round_small"}]},{"id":299,"name":"","type":"","rotation":0,"point":true,"visible":true,"x":152.0,"y":32.0,"width":0,"height":0,"properties":[{"name":"kind","type":"string","value":"tree"},{"name":"stamp","type":"string","value":"tree_round_small"}]},{"id":300,"name":"","type":"","rotation":0,"point":true,"visible":true,"x":184.0,"y":32.0,"width":0,"height":0,"properties":[{"name":"kind","type":"string","value":"tree"},{"name":"stamp","type":"string","value":"tree_round_small"}]},{"id":301,"name":"","type":"","rotation":0,"point":true,"visible":true,"x":216.0,"y":32.0,"width":0,"height":0,"properties":[{"name":"kind","type":"string","value":"tree"},{"name":"stamp","type":"string","value":"tree_round_small"}]},{"id":302,"name":"","type":"","rotation":0,"point":true,"visible":true,"x":248.0,"y":32.0,"width":0,"height":0,"properties":[{"name":"kind","type":"string","value":"tree"},{"name":"stamp","type":"string","value":"tree_round_small"}]},{"id":303,"name":"","type":"","rotation":0,"point":true,"visible":true,"x":312.0,"y":32.0,"width":0,"height":0,"properties":[{"name":"kind","type":"string","value":"tree"},{"name":"stamp","type":"string","value":"tree_round_small"}]},{"id":304,"name":"","type":"","rotation":0,"point":true,"visible":true,"x":344.0,"y":32.0,"width":0,"height":0,"properties":[{"name":"kind","type":"string","value":"tree"},{"name":"stamp","type":"string","value":"tree_round_small"}]},{"id":305,"name":"","type":"","rotation":0,"point":true,"visible":true,"x":376.0,"y":32.0,"width":0,"height":0,"properties":[{"name":"kind","type":"string","value":"tree"},{"name":"stamp","type":"string","value":"tree_round_small"}]},{"id":306,"name":"","type":"","rotation":0,"point":true,"visible":true,"x":408.0,"y":32.0,"width":0,"height":0,"properties":[{"name":"kind","type":"string","value":"tree"},{"name":"stamp","type":"string","value":"tree_round_small"}]},{"id":307,"name":"","type":"","rotation":0,"point":true,"visible":true,"x":472.0,"y":32.0,"width":0,"height":0,"properties":[{"name":"kind","type":"string","value":"tree"},{"name":"stamp","type":"string","value":"tree_round_small"}]},{"id":308,"name":"","type":"","rotation":0,"point":true,"visible":true,"x":632.0,"y":32.0,"width":0,"height":0,"properties":[{"name":"kind","type":"string","value":"tree"},{"name":"stamp","type":"string","value":"tree_round_small"}]},{"id":309,"name":"","type":"","rotation":0,"point":true,"visible":true,"x":696.0,"y":32.0,"width":0,"height":0,"properties":[{"name":"kind","type":"string","value":"tree"},{"name":"stamp","type":"string","value":"tree_round_small"}]},{"id":310,"name":"","type":"","rotation":0,"point":true,"visible":true,"x":760.0,"y":32.0,"width":0,"height":0,"properties":[{"name":"kind","type":"string","value":"tree"},{"name":"stamp","type":"string","value":"tree_round_small"}]},{"id":311,"name":"","type":"","rotation":0,"point":true,"visible":true,"x":792.0,"y":32.0,"width":0,"height":0,"properties":[{"name":"kind","type":"string","value":"tree"},{"name":"stamp","type":"string","value":"tree_round_small"}]},{"id":312,"name":"","type":"","rotation":0,"point":true,"visible":true,"x":888.0,"y":32.0,"width":0,"height":0,"properties":[{"name":"kind","type":"string","value":"tree"},{"name":"stamp","type":"string","value":"tree_round_small"}]},{"id":313,"name":"","type":"","rotation":0,"point":true,"visible":true,"x":920.0,"y":32.0,"width":0,"height":0,"properties":[{"name":"kind","type":"string","value":"tree"},{"name":"stamp","type":"string","value":"tree_round_small"}]},{"id":314,"name":"","type":"","rotation":0,"point":true,"visible":true,"x":984.0,"y":32.0,"width":0,"height":0,"properties":[{"name":"kind","type":"string","value":"tree"},{"name":"stamp","type":"string","value":"tree_round_small"}]},{"id":315,"name":"","type":"","rotation":0,"point":true,"visible":true,"x":1080.0,"y":32.0,"width":0,"height":0,"properties":[{"name":"kind","type":"string","value":"tree"},{"name":"stamp","type":"string","value":"tree_round_small"}]},{"id":316,"name":"","type":"","rotation":0,"point":true,"visible":true,"x":1112.0,"y":32.0,"width":0,"height":0,"properties":[{"name":"kind","type":"string","value":"tree"},{"name":"stamp","type":"string","value":"tree_round_small"}]},{"id":317,"name":"","type":"","rotation":0,"point":true,"visible":true,"x":1144.0,"y":32.0,"width":0,"height":0,"properties":[{"name":"kind","type":"string","value":"tree"},{"name":"stamp","type":"string","value":"tree_round_small"}]},{"id":318,"name":"","type":"","rotation":0,"point":true,"visible":true,"x":1176.0,"y":32.0,"width":0,"height":0,"properties":[{"name":"kind","type":"string","value":"tree"},{"name":"stamp","type":"string","value":"tree_round_small"}]},{"id":319,"name":"","type":"","rotation":0,"point":true,"visible":true,"x":24.0,"y":800.0,"width":0,"height":0,"properties":[{"name":"kind","type":"string","value":"tree"},{"name":"stamp","type":"string","value":"tree_round_small"}]},{"id":320,"name":"","type":"","rotation":0,"point":true,"visible":true,"x":56.0,"y":800.0,"width":0,"height":0,"properties":[{"name":"kind","type":"string","value":"tree"},{"name":"stamp","type":"string","value":"tree_round_small"}]},{"id":321,"name":"","type":"","rotation":0,"point":true,"visible":true,"x":88.0,"y":800.0,"width":0,"height":0,"properties":[{"name":"kind","type":"string","value":"tree"},{"name":"stamp","type":"string","value":"tree_round_small"}]},{"id":322,"name":"","type":"","rotation":0,"point":true,"visible":true,"x":120.0,"y":800.0,"width":0,"height":0,"properties":[{"name":"kind","type":"string","value":"tree"},{"name":"stamp","type":"string","value":"tree_round_small"}]},{"id":323,"name":"","type":"","rotation":0,"point":true,"visible":true,"x":152.0,"y":800.0,"width":0,"height":0,"properties":[{"name":"kind","type":"string","value":"tree"},{"name":"stamp","type":"string","value":"tree_round_small"}]},{"id":324,"name":"","type":"","rotation":0,"point":true,"visible":true,"x":184.0,"y":800.0,"width":0,"height":0,"properties":[{"name":"kind","type":"string","value":"tree"},{"name":"stamp","type":"string","value":"tree_round_small"}]},{"id":325,"name":"","type":"","rotation":0,"point":true,"visible":true,"x":216.0,"y":800.0,"width":0,"height":0,"properties":[{"name":"kind","type":"string","value":"tree"},{"name":"stamp","type":"string","value":"tree_round_small"}]},{"id":326,"name":"","type":"","rotation":0,"point":true,"visible":true,"x":248.0,"y":800.0,"width":0,"height":0,"properties":[{"name":"kind","type":"string","value":"tree"},{"name":"stamp","type":"string","value":"tree_round_small"}]},{"id":327,"name":"","type":"","rotation":0,"point":true,"visible":true,"x":280.0,"y":800.0,"width":0,"height":0,"properties":[{"name":"kind","type":"string","value":"tree"},{"name":"stamp","type":"string","value":"tree_round_small"}]},{"id":328,"name":"","type":"","rotation":0,"point":true,"visible":true,"x":312.0,"y":800.0,"width":0,"height":0,"properties":[{"name":"kind","type":"string","value":"tree"},{"name":"stamp","type":"string","value":"tree_round_small"}]},{"id":329,"name":"","type":"","rotation":0,"point":true,"visible":true,"x":344.0,"y":800.0,"width":0,"height":0,"properties":[{"name":"kind","type":"string","value":"tree"},{"name":"stamp","type":"string","value":"tree_round_small"}]},{"id":330,"name":"","type":"","rotation":0,"point":true,"visible":true,"x":376.0,"y":800.0,"width":0,"height":0,"properties":[{"name":"kind","type":"string","value":"tree"},{"name":"stamp","type":"string","value":"tree_round_small"}]},{"id":331,"name":"","type":"","rotation":0,"point":true,"visible":true,"x":408.0,"y":800.0,"width":0,"height":0,"properties":[{"name":"kind","type":"string","value":"tree"},{"name":"stamp","type":"string","value":"tree_round_small"}]},{"id":332,"name":"","type":"","rotation":0,"point":true,"visible":true,"x":440.0,"y":800.0,"width":0,"height":0,"properties":[{"name":"kind","type":"string","value":"tree"},{"name":"stamp","type":"string","value":"tree_round_small"}]},{"id":333,"name":"","type":"","rotation":0,"point":true,"visible":true,"x":472.0,"y":800.0,"width":0,"height":0,"properties":[{"name":"kind","type":"string","value":"tree"},{"name":"stamp","type":"string","value":"tree_round_small"}]},{"id":334,"name":"","type":"","rotation":0,"point":true,"visible":true,"x":504.0,"y":800.0,"width":0,"height":0,"properties":[{"name":"kind","type":"string","value":"tree"},{"name":"stamp","type":"string","value":"tree_round_small"}]},{"id":335,"name":"","type":"","rotation":0,"point":true,"visible":true,"x":536.0,"y":800.0,"width":0,"height":0,"properties":[{"name":"kind","type":"string","value":"tree"},{"name":"stamp","type":"string","value":"tree_round_small"}]},{"id":336,"name":"","type":"","rotation":0,"point":true,"visible":true,"x":568.0,"y":800.0,"width":0,"height":0,"properties":[{"name":"kind","type":"string","value":"tree"},{"name":"stamp","type":"string","value":"tree_round_small"}]},{"id":337,"name":"","type":"","rotation":0,"point":true,"visible":true,"x":600.0,"y":800.0,"width":0,"height":0,"properties":[{"name":"kind","type":"string","value":"tree"},{"name":"stamp","type":"string","value":"tree_round_small"}]},{"id":338,"name":"","type":"","rotation":0,"point":true,"visible":true,"x":632.0,"y":800.0,"width":0,"height":0,"properties":[{"name":"kind","type":"string","value":"tree"},{"name":"stamp","type":"string","value":"tree_round_small"}]},{"id":339,"name":"","type":"","rotation":0,"point":true,"visible":true,"x":664.0,"y":800.0,"width":0,"height":0,"properties":[{"name":"kind","type":"string","value":"tree"},{"name":"stamp","type":"string","value":"tree_round_small"}]},{"id":340,"name":"","type":"","rotation":0,"point":true,"visible":true,"x":696.0,"y":800.0,"width":0,"height":0,"properties":[{"name":"kind","type":"string","value":"tree"},{"name":"stamp","type":"string","value":"tree_round_small"}]},{"id":341,"name":"","type":"","rotation":0,"point":true,"visible":true,"x":728.0,"y":800.0,"width":0,"height":0,"properties":[{"name":"kind","type":"string","value":"tree"},{"name":"stamp","type":"string","value":"tree_round_small"}]},{"id":342,"name":"","type":"","rotation":0,"point":true,"visible":true,"x":760.0,"y":800.0,"width":0,"height":0,"properties":[{"name":"kind","type":"string","value":"tree"},{"name":"stamp","type":"string","value":"tree_round_small"}]},{"id":343,"name":"","type":"","rotation":0,"point":true,"visible":true,"x":792.0,"y":800.0,"width":0,"height":0,"properties":[{"name":"kind","type":"string","value":"tree"},{"name":"stamp","type":"string","value":"tree_round_small"}]},{"id":344,"name":"","type":"","rotation":0,"point":true,"visible":true,"x":824.0,"y":800.0,"width":0,"height":0,"properties":[{"name":"kind","type":"string","value":"tree"},{"name":"stamp","type":"string","value":"tree_round_small"}]},{"id":345,"name":"","type":"","rotation":0,"point":true,"visible":true,"x":856.0,"y":800.0,"width":0,"height":0,"properties":[{"name":"kind","type":"string","value":"tree"},{"name":"stamp","type":"string","value":"tree_round_small"}]},{"id":346,"name":"","type":"","rotation":0,"point":true,"visible":true,"x":888.0,"y":800.0,"width":0,"height":0,"properties":[{"name":"kind","type":"string","value":"tree"},{"name":"stamp","type":"string","value":"tree_round_small"}]},{"id":347,"name":"","type":"","rotation":0,"point":true,"visible":true,"x":920.0,"y":800.0,"width":0,"height":0,"properties":[{"name":"kind","type":"string","value":"tree"},{"name":"stamp","type":"string","value":"tree_round_small"}]},{"id":348,"name":"","type":"","rotation":0,"point":true,"visible":true,"x":952.0,"y":800.0,"width":0,"height":0,"properties":[{"name":"kind","type":"string","value":"tree"},{"name":"stamp","type":"string","value":"tree_round_small"}]},{"id":349,"name":"","type":"","rotation":0,"point":true,"visible":true,"x":984.0,"y":800.0,"width":0,"height":0,"properties":[{"name":"kind","type":"string","value":"tree"},{"name":"stamp","type":"string","value":"tree_round_small"}]},{"id":350,"name":"","type":"","rotation":0,"point":true,"visible":true,"x":1016.0,"y":800.0,"width":0,"height":0,"properties":[{"name":"kind","type":"string","value":"tree"},{"name":"stamp","type":"string","value":"tree_round_small"}]},{"id":351,"name":"","type":"","rotation":0,"point":true,"visible":true,"x":1048.0,"y":800.0,"width":0,"height":0,"properties":[{"name":"kind","type":"string","value":"tree"},{"name":"stamp","type":"string","value":"tree_round_small"}]},{"id":352,"name":"","type":"","rotation":0,"point":true,"visible":true,"x":1080.0,"y":800.0,"width":0,"height":0,"properties":[{"name":"kind","type":"string","value":"tree"},{"name":"stamp","type":"string","value":"tree_round_small"}]},{"id":353,"name":"","type":"","rotation":0,"point":true,"visible":true,"x":1112.0,"y":800.0,"width":0,"height":0,"properties":[{"name":"kind","type":"string","value":"tree"},{"name":"stamp","type":"string","value":"tree_round_small"}]},{"id":354,"name":"","type":"","rotation":0,"point":true,"visible":true,"x":1144.0,"y":800.0,"width":0,"height":0,"properties":[{"name":"kind","type":"string","value":"tree"},{"name":"stamp","type":"string","value":"tree_round_small"}]},{"id":355,"name":"","type":"","rotation":0,"point":true,"visible":true,"x":1176.0,"y":800.0,"width":0,"height":0,"properties":[{"name":"kind","type":"string","value":"tree"},{"name":"stamp","type":"string","value":"tree_round_small"}]},{"id":356,"name":"","type":"","rotation":0,"point":true,"visible":true,"x":24.0,"y":160.0,"width":0,"height":0,"properties":[{"name":"kind","type":"string","value":"tree"},{"name":"stamp","type":"string","value":"tree_round_small"}]},{"id":357,"name":"","type":"","rotation":0,"point":true,"visible":true,"x":1176.0,"y":160.0,"width":0,"height":0,"properties":[{"name":"kind","type":"string","value":"tree"},{"name":"stamp","type":"string","value":"tree_round_small"}]},{"id":358,"name":"","type":"","rotation":0,"point":true,"visible":true,"x":1176.0,"y":192.0,"width":0,"height":0,"properties":[{"name":"kind","type":"string","value":"tree"},{"name":"stamp","type":"string","value":"tree_round_small"}]},{"id":359,"name":"","type":"","rotation":0,"point":true,"visible":true,"x":1176.0,"y":224.0,"width":0,"height":0,"properties":[{"name":"kind","type":"string","value":"tree"},{"name":"stamp","type":"string","value":"tree_round_small"}]},{"id":360,"name":"","type":"","rotation":0,"point":true,"visible":true,"x":24.0,"y":256.0,"width":0,"height":0,"properties":[{"name":"kind","type":"string","value":"tree"},{"name":"stamp","type":"string","value":"tree_round_small"}]},{"id":361,"name":"","type":"","rotation":0,"point":true,"visible":true,"x":1176.0,"y":256.0,"width":0,"height":0,"properties":[{"name":"kind","type":"string","value":"tree"},{"name":"stamp","type":"string","value":"tree_round_small"}]},{"id":362,"name":"","type":"","rotation":0,"point":true,"visible":true,"x":24.0,"y":288.0,"width":0,"height":0,"properties":[{"name":"kind","type":"string","value":"tree"},{"name":"stamp","type":"string","value":"tree_round_small"}]},{"id":363,"name":"","type":"","rotation":0,"point":true,"visible":true,"x":1176.0,"y":288.0,"width":0,"height":0,"properties":[{"name":"kind","type":"string","value":"tree"},{"name":"stamp","type":"string","value":"tree_round_small"}]},{"id":364,"name":"","type":"","rotation":0,"point":true,"visible":true,"x":24.0,"y":320.0,"width":0,"height":0,"properties":[{"name":"kind","type":"string","value":"tree"},{"name":"stamp","type":"string","value":"tree_round_small"}]},{"id":365,"name":"","type":"","rotation":0,"point":true,"visible":true,"x":1176.0,"y":320.0,"width":0,"height":0,"properties":[{"name":"kind","type":"string","value":"tree"},{"name":"stamp","type":"string","value":"tree_round_small"}]},{"id":366,"name":"","type":"","rotation":0,"point":true,"visible":true,"x":24.0,"y":352.0,"width":0,"height":0,"properties":[{"name":"kind","type":"string","value":"tree"},{"name":"stamp","type":"string","value":"tree_round_small"}]},{"id":367,"name":"","type":"","rotation":0,"point":true,"visible":true,"x":1176.0,"y":352.0,"width":0,"height":0,"properties":[{"name":"kind","type":"string","value":"tree"},{"name":"stamp","type":"string","value":"tree_round_small"}]},{"id":368,"name":"","type":"","rotation":0,"point":true,"visible":true,"x":24.0,"y":384.0,"width":0,"height":0,"properties":[{"name":"kind","type":"string","value":"tree"},{"name":"stamp","type":"string","value":"tree_round_small"}]},{"id":369,"name":"","type":"","rotation":0,"point":true,"visible":true,"x":1176.0,"y":384.0,"width":0,"height":0,"properties":[{"name":"kind","type":"string","value":"tree"},{"name":"stamp","type":"string","value":"tree_round_small"}]},{"id":370,"name":"","type":"","rotation":0,"point":true,"visible":true,"x":24.0,"y":480.0,"width":0,"height":0,"properties":[{"name":"kind","type":"string","value":"tree"},{"name":"stamp","type":"string","value":"tree_round_small"}]},{"id":371,"name":"","type":"","rotation":0,"point":true,"visible":true,"x":1176.0,"y":480.0,"width":0,"height":0,"properties":[{"name":"kind","type":"string","value":"tree"},{"name":"stamp","type":"string","value":"tree_round_small"}]},{"id":372,"name":"","type":"","rotation":0,"point":true,"visible":true,"x":24.0,"y":512.0,"width":0,"height":0,"properties":[{"name":"kind","type":"string","value":"tree"},{"name":"stamp","type":"string","value":"tree_round_small"}]},{"id":373,"name":"","type":"","rotation":0,"point":true,"visible":true,"x":1176.0,"y":512.0,"width":0,"height":0,"properties":[{"name":"kind","type":"string","value":"tree"},{"name":"stamp","type":"string","value":"tree_round_small"}]},{"id":374,"name":"","type":"","rotation":0,"point":true,"visible":true,"x":24.0,"y":544.0,"width":0,"height":0,"properties":[{"name":"kind","type":"string","value":"tree"},{"name":"stamp","type":"string","value":"tree_round_small"}]},{"id":375,"name":"","type":"","rotation":0,"point":true,"visible":true,"x":1176.0,"y":544.0,"width":0,"height":0,"properties":[{"name":"kind","type":"string","value":"tree"},{"name":"stamp","type":"string","value":"tree_round_small"}]},{"id":376,"name":"","type":"","rotation":0,"point":true,"visible":true,"x":24.0,"y":576.0,"width":0,"height":0,"properties":[{"name":"kind","type":"string","value":"tree"},{"name":"stamp","type":"string","value":"tree_round_small"}]},{"id":377,"name":"","type":"","rotation":0,"point":true,"visible":true,"x":1176.0,"y":576.0,"width":0,"height":0,"properties":[{"name":"kind","type":"string","value":"tree"},{"name":"stamp","type":"string","value":"tree_round_small"}]},{"id":378,"name":"","type":"","rotation":0,"point":true,"visible":true,"x":1176.0,"y":608.0,"width":0,"height":0,"properties":[{"name":"kind","type":"string","value":"tree"},{"name":"stamp","type":"string","value":"tree_round_small"}]},{"id":379,"name":"","type":"","rotation":0,"point":true,"visible":true,"x":24.0,"y":640.0,"width":0,"height":0,"properties":[{"name":"kind","type":"string","value":"tree"},{"name":"stamp","type":"string","value":"tree_round_small"}]},{"id":380,"name":"","type":"","rotation":0,"point":true,"visible":true,"x":1176.0,"y":640.0,"width":0,"height":0,"properties":[{"name":"kind","type":"string","value":"tree"},{"name":"stamp","type":"string","value":"tree_round_small"}]},{"id":381,"name":"","type":"","rotation":0,"point":true,"visible":true,"x":24.0,"y":672.0,"width":0,"height":0,"properties":[{"name":"kind","type":"string","value":"tree"},{"name":"stamp","type":"string","value":"tree_round_small"}]},{"id":382,"name":"","type":"","rotation":0,"point":true,"visible":true,"x":1176.0,"y":672.0,"width":0,"height":0,"properties":[{"name":"kind","type":"string","value":"tree"},{"name":"stamp","type":"string","value":"tree_round_small"}]},{"id":383,"name":"","type":"","rotation":0,"point":true,"visible":true,"x":24.0,"y":704.0,"width":0,"height":0,"properties":[{"name":"kind","type":"string","value":"tree"},{"name":"stamp","type":"string","value":"tree_round_small"}]},{"id":384,"name":"","type":"","rotation":0,"point":true,"visible":true,"x":1176.0,"y":704.0,"width":0,"height":0,"properties":[{"name":"kind","type":"string","value":"tree"},{"name":"stamp","type":"string","value":"tree_round_small"}]},{"id":385,"name":"","type":"","rotation":0,"point":true,"visible":true,"x":24.0,"y":736.0,"width":0,"height":0,"properties":[{"name":"kind","type":"string","value":"tree"},{"name":"stamp","type":"string","value":"tree_round_small"}]},{"id":386,"name":"","type":"","rotation":0,"point":true,"visible":true,"x":1176.0,"y":736.0,"width":0,"height":0,"properties":[{"name":"kind","type":"string","value":"tree"},{"name":"stamp","type":"string","value":"tree_round_small"}]},{"id":387,"name":"","type":"","rotation":0,"point":true,"visible":true,"x":24.0,"y":768.0,"width":0,"height":0,"properties":[{"name":"kind","type":"string","value":"tree"},{"name":"stamp","type":"string","value":"tree_round_small"}]},{"id":388,"name":"","type":"","rotation":0,"point":true,"visible":true,"x":1176.0,"y":768.0,"width":0,"height":0,"properties":[{"name":"kind","type":"string","value":"tree"},{"name":"stamp","type":"string","value":"tree_round_small"}]},{"id":389,"name":"TO COUNTY RD 7","type":"","rotation":0,"point":true,"visible":true,"x":40.0,"y":400.0,"width":0,"height":0,"properties":[{"name":"kind","type":"string","value":"roadsign"},{"name":"text","type":"string","value":"TO COUNTY RD 7"}]},{"id":390,"name":"TO DEPOT RD","type":"","rotation":0,"point":true,"visible":true,"x":1160.0,"y":480.0,"width":0,"height":0,"properties":[{"name":"kind","type":"string","value":"roadsign"},{"name":"text","type":"string","value":"TO DEPOT RD"}]},{"id":391,"name":"TO HARLOW","type":"","rotation":0,"point":true,"visible":true,"x":616.0,"y":48.0,"width":0,"height":0,"properties":[{"name":"kind","type":"string","value":"roadsign"},{"name":"text","type":"string","value":"TO HARLOW"}]},{"id":392,"name":"Stillwater River","type":"","rotation":0,"point":true,"visible":true,"x":216.0,"y":88.0,"width":0,"height":0,"properties":[{"name":"kind","type":"string","value":"label"},{"name":"text","type":"string","value":"Stillwater River"}]},{"id":393,"name":"Main Street Bridge","type":"","rotation":0,"point":true,"visible":true,"x":560.0,"y":168.0,"width":0,"height":0,"properties":[{"name":"kind","type":"string","value":"label"},{"name":"text","type":"string","value":"Main Street Bridge"}]},{"id":394,"name":"Millbrook Farmers Market","type":"","rotation":0,"point":true,"visible":true,"x":256.0,"y":224.0,"width":0,"height":0,"properties":[{"name":"kind","type":"string","value":"label"},{"name":"text","type":"string","value":"Millbrook Farmers Market"}]},{"id":395,"name":"Harrow Mill Ruins","type":"","rotation":0,"point":true,"visible":true,"x":928.0,"y":248.0,"width":0,"height":0,"properties":[{"name":"kind","type":"string","value":"label"},{"name":"text","type":"string","value":"Harrow Mill Ruins"}]},{"id":396,"name":"The Wheelhouse Diner","type":"","rotation":0,"point":true,"visible":true,"x":328.0,"y":320.0,"width":0,"height":0,"properties":[{"name":"kind","type":"string","value":"label"},{"name":"text","type":"string","value":"The Wheelhouse Diner"}]},{"id":397,"name":"Millbrook Town Hall","type":"","rotation":0,"point":true,"visible":true,"x":568.0,"y":336.0,"width":0,"height":0,"properties":[{"name":"kind","type":"string","value":"label"},{"name":"text","type":"string","value":"Millbrook Town Hall"}]},{"id":398,"name":"Main Street","type":"","rotation":0,"point":true,"visible":true,"x":592.0,"y":416.0,"width":0,"height":0,"properties":[{"name":"kind","type":"string","value":"label"},{"name":"text","type":"string","value":"Main Street"}]},{"id":399,"name":"Corbin's Hardware","type":"","rotation":0,"point":true,"visible":true,"x":392.0,"y":496.0,"width":0,"height":0,"properties":[{"name":"kind","type":"string","value":"label"},{"name":"text","type":"string","value":"Corbin's Hardware"}]},{"id":400,"name":"Millbrook Free Library","type":"","rotation":0,"point":true,"visible":true,"x":704.0,"y":520.0,"width":0,"height":0,"properties":[{"name":"kind","type":"string","value":"label"},{"name":"text","type":"string","value":"Millbrook Free Library"}]},{"id":401,"name":"Chestnut Row","type":"","rotation":0,"point":true,"visible":true,"x":152.0,"y":512.0,"width":0,"height":0,"properties":[{"name":"kind","type":"string","value":"label"},{"name":"text","type":"string","value":"Chestnut Row"}]},{"id":402,"name":"","type":"","rotation":0,"point":true,"visible":true,"x":152.0,"y":368.0,"width":0,"height":0,"properties":[{"name":"home","type":"string","value":""},{"name":"kind","type":"string","value":"yardsign"},{"name":"seat","type":"string","value":"0"}]},{"id":403,"name":"","type":"","rotation":0,"point":true,"visible":true,"x":56.0,"y":384.0,"width":0,"height":0,"properties":[{"name":"home","type":"string","value":""},{"name":"kind","type":"string","value":"yardsign"},{"name":"seat","type":"string","value":"1"}]},{"id":404,"name":"","type":"","rotation":0,"point":true,"visible":true,"x":1064.0,"y":384.0,"width":0,"height":0,"properties":[{"name":"home","type":"string","value":""},{"name":"kind","type":"string","value":"yardsign"},{"name":"seat","type":"string","value":"2"}]},{"id":405,"name":"","type":"","rotation":0,"point":true,"visible":true,"x":1064.0,"y":368.0,"width":0,"height":0,"properties":[{"name":"home","type":"string","value":""},{"name":"kind","type":"string","value":"yardsign"},{"name":"seat","type":"string","value":"3"}]},{"id":406,"name":"","type":"","rotation":0,"point":true,"visible":true,"x":72.0,"y":592.0,"width":0,"height":0,"properties":[{"name":"home","type":"string","value":"Chestnut Row"},{"name":"kind","type":"string","value":"yardsign"},{"name":"seat","type":"string","value":"4"}]},{"id":407,"name":"","type":"","rotation":0,"point":true,"visible":true,"x":136.0,"y":592.0,"width":0,"height":0,"properties":[{"name":"home","type":"string","value":"Chestnut Row"},{"name":"kind","type":"string","value":"yardsign"},{"name":"seat","type":"string","value":"5"}]},{"id":408,"name":"","type":"","rotation":0,"point":true,"visible":true,"x":264.0,"y":576.0,"width":0,"height":0,"properties":[{"name":"home","type":"string","value":"Chestnut Row"},{"name":"kind","type":"string","value":"yardsign"},{"name":"seat","type":"string","value":"6"}]},{"id":409,"name":"","type":"","rotation":0,"point":true,"visible":true,"x":808.0,"y":576.0,"width":0,"height":0,"properties":[{"name":"home","type":"string","value":"Chestnut Row"},{"name":"kind","type":"string","value":"yardsign"},{"name":"seat","type":"string","value":"7"}]},{"id":410,"name":"","type":"","rotation":0,"point":true,"visible":true,"x":312.0,"y":736.0,"width":0,"height":0,"properties":[{"name":"home","type":"string","value":""},{"name":"kind","type":"string","value":"yardsign"},{"name":"seat","type":"string","value":"8"}]},{"id":411,"name":"","type":"","rotation":0,"point":true,"visible":true,"x":312.0,"y":720.0,"width":0,"height":0,"properties":[{"name":"home","type":"string","value":""},{"name":"kind","type":"string","value":"yardsign"},{"name":"seat","type":"string","value":"9"}]},{"id":412,"name":"","type":"","rotation":0,"point":true,"visible":true,"x":456.0,"y":736.0,"width":0,"height":0,"properties":[{"name":"home","type":"string","value":""},{"name":"kind","type":"string","value":"yardsign"},{"name":"seat","type":"string","value":"10"}]},{"id":413,"name":"","type":"","rotation":0,"point":true,"visible":true,"x":456.0,"y":720.0,"width":0,"height":0,"properties":[{"name":"home","type":"string","value":""},{"name":"kind","type":"string","value":"yardsign"},{"name":"seat","type":"string","value":"11"}]},{"id":414,"name":"","type":"","rotation":0,"point":true,"visible":true,"x":1048.0,"y":736.0,"width":0,"height":0,"properties":[{"name":"home","type":"string","value":""},{"name":"kind","type":"string","value":"yardsign"},{"name":"seat","type":"string","value":"12"}]},{"id":415,"name":"","type":"","rotation":0,"point":true,"visible":true,"x":1048.0,"y":720.0,"width":0,"height":0,"properties":[{"name":"home","type":"string","value":""},{"name":"kind","type":"string","value":"yardsign"},{"name":"seat","type":"string","value":"13"}]},{"id":416,"name":"Millbrook Town Hall","type":"","rotation":0,"point":true,"visible":true,"x":576.0,"y":400.0,"width":0,"height":0,"properties":[{"name":"kind","type":"string","value":"pollplace"}]},{"id":417,"name":"Millbrook Town Hall","type":"","rotation":0,"point":true,"visible":true,"x":552.0,"y":336.0,"width":0,"height":0,"properties":[{"name":"kind","type":"string","value":"banner"},{"name":"mount","type":"string","value":"facade"}]},{"id":418,"name":"Millbrook Town Hall","type":"","rotation":0,"point":true,"visible":true,"x":600.0,"y":336.0,"width":0,"height":0,"properties":[{"name":"kind","type":"string","value":"banner"},{"name":"mount","type":"string","value":"facade"}]},{"id":419,"name":"Millbrook Town Hall","type":"","rotation":0,"point":true,"visible":true,"x":584.0,"y":320.0,"width":0,"height":0,"properties":[{"name":"kind","type":"string","value":"bunting"},{"name":"span","type":"string","value":"9"}]},{"id":420,"name":"Stillwater River","type":"","rotation":0,"point":true,"visible":true,"x":712.0,"y":157.6,"width":0,"height":0,"properties":[{"name":"cap","type":"string","value":"1"},{"name":"facing","type":"string","value":"down"},{"name":"kind","type":"string","value":"spot"},{"name":"order","type":"string","value":"0"},{"name":"role","type":"string","value":"bench"}]},{"id":421,"name":"Stillwater River","type":"","rotation":0,"point":true,"visible":true,"x":744.0,"y":157.6,"width":0,"height":0,"properties":[{"name":"cap","type":"string","value":"1"},{"name":"facing","type":"string","value":"down"},{"name":"kind","type":"string","value":"spot"},{"name":"order","type":"string","value":"1"},{"name":"role","type":"string","value":"bench"}]},{"id":422,"name":"Millbrook Farmers Market","type":"","rotation":0,"point":true,"visible":true,"x":240.0,"y":253.6,"width":0,"height":0,"properties":[{"name":"cap","type":"string","value":"1"},{"name":"facing","type":"string","value":"up"},{"name":"kind","type":"string","value":"spot"},{"name":"order","type":"string","value":"0"},{"name":"role","type":"string","value":"stall"}]},{"id":423,"name":"Millbrook Farmers Market","type":"","rotation":0,"point":true,"visible":true,"x":272.0,"y":253.6,"width":0,"height":0,"properties":[{"name":"cap","type":"string","value":"1"},{"name":"facing","type":"string","value":"up"},{"name":"kind","type":"string","value":"spot"},{"name":"order","type":"string","value":"1"},{"name":"role","type":"string","value":"stall"}]},{"id":424,"name":"Millbrook Town Hall","type":"","rotation":0,"point":true,"visible":true,"x":440.0,"y":333.6,"width":0,"height":0,"properties":[{"name":"cap","type":"string","value":"1"},{"name":"facing","type":"string","value":"down"},{"name":"kind","type":"string","value":"spot"},{"name":"order","type":"string","value":"5"},{"name":"role","type":"string","value":"bench"}]},{"id":425,"name":"Millbrook Town Hall","type":"","rotation":0,"point":true,"visible":true,"x":472.0,"y":333.6,"width":0,"height":0,"properties":[{"name":"cap","type":"string","value":"1"},{"name":"facing","type":"string","value":"down"},{"name":"kind","type":"string","value":"spot"},{"name":"order","type":"string","value":"6"},{"name":"role","type":"string","value":"bench"}]},{"id":426,"name":"Millbrook Town Hall","type":"","rotation":0,"point":true,"visible":true,"x":504.0,"y":333.6,"width":0,"height":0,"properties":[{"name":"cap","type":"string","value":"1"},{"name":"facing","type":"string","value":"down"},{"name":"kind","type":"string","value":"spot"},{"name":"order","type":"string","value":"7"},{"name":"role","type":"string","value":"bench"}]},{"id":427,"name":"The Wheelhouse Diner","type":"","rotation":0,"point":true,"visible":true,"x":216.0,"y":349.6,"width":0,"height":0,"properties":[{"name":"cap","type":"string","value":"1"},{"name":"facing","type":"string","value":"up"},{"name":"kind","type":"string","value":"spot"},{"name":"order","type":"string","value":"0"},{"name":"role","type":"string","value":"table"}]},{"id":428,"name":"The Wheelhouse Diner","type":"","rotation":0,"point":true,"visible":true,"x":232.0,"y":365.6,"width":0,"height":0,"properties":[{"name":"cap","type":"string","value":"1"},{"name":"facing","type":"string","value":"up"},{"name":"kind","type":"string","value":"spot"},{"name":"order","type":"string","value":"1"},{"name":"role","type":"string","value":"table"}]},{"id":429,"name":"Millbrook Town Hall","type":"","rotation":0,"point":true,"visible":true,"x":576.0,"y":397.6,"width":0,"height":0,"properties":[{"name":"cap","type":"string","value":"1"},{"name":"facing","type":"string","value":"up"},{"name":"kind","type":"string","value":"spot"},{"name":"order","type":"string","value":"8"},{"name":"role","type":"string","value":"door"}]},{"id":430,"name":"The Wheelhouse Diner","type":"","rotation":0,"point":true,"visible":true,"x":304.0,"y":381.6,"width":0,"height":0,"properties":[{"name":"cap","type":"string","value":"1"},{"name":"facing","type":"string","value":"up"},{"name":"kind","type":"string","value":"spot"},{"name":"order","type":"string","value":"2"},{"name":"role","type":"string","value":"door"}]},{"id":431,"name":"Corbin's Hardware","type":"","rotation":0,"point":true,"visible":true,"x":384.0,"y":573.6,"width":0,"height":0,"properties":[{"name":"cap","type":"string","value":"1"},{"name":"facing","type":"string","value":"up"},{"name":"kind","type":"string","value":"spot"},{"name":"order","type":"string","value":"0"},{"name":"role","type":"string","value":"door"}]},{"id":432,"name":"Millbrook Free Library","type":"","rotation":0,"point":true,"visible":true,"x":688.0,"y":605.6,"width":0,"height":0,"properties":[{"name":"cap","type":"string","value":"1"},{"name":"facing","type":"string","value":"up"},{"name":"kind","type":"string","value":"spot"},{"name":"order","type":"string","value":"0"},{"name":"role","type":"string","value":"door"}]},{"id":433,"name":"Chestnut Row","type":"","rotation":0,"point":true,"visible":true,"x":96.0,"y":589.6,"width":0,"height":0,"properties":[{"name":"cap","type":"string","value":"1"},{"name":"facing","type":"string","value":"up"},{"name":"kind","type":"string","value":"spot"},{"name":"order","type":"string","value":"0"},{"name":"role","type":"string","value":"door"}]},{"id":434,"name":"Chestnut Row","type":"","rotation":0,"point":true,"visible":true,"x":160.0,"y":589.6,"width":0,"height":0,"properties":[{"name":"cap","type":"string","value":"1"},{"name":"facing","type":"string","value":"up"},{"name":"kind","type":"string","value":"spot"},{"name":"order","type":"string","value":"1"},{"name":"role","type":"string","value":"door"}]},{"id":435,"name":"Chestnut Row","type":"","rotation":0,"point":true,"visible":true,"x":224.0,"y":589.6,"width":0,"height":0,"properties":[{"name":"cap","type":"string","value":"1"},{"name":"facing","type":"string","value":"up"},{"name":"kind","type":"string","value":"spot"},{"name":"order","type":"string","value":"2"},{"name":"role","type":"string","value":"door"}]},{"id":436,"name":"Chestnut Row","type":"","rotation":0,"point":true,"visible":true,"x":864.0,"y":605.6,"width":0,"height":0,"properties":[{"name":"cap","type":"string","value":"1"},{"name":"facing","type":"string","value":"up"},{"name":"kind","type":"string","value":"spot"},{"name":"order","type":"string","value":"3"},{"name":"role","type":"string","value":"door"}]},{"id":437,"name":"Chestnut Row","type":"","rotation":0,"point":true,"visible":true,"x":976.0,"y":605.6,"width":0,"height":0,"properties":[{"name":"cap","type":"string","value":"1"},{"name":"facing","type":"string","value":"up"},{"name":"kind","type":"string","value":"spot"},{"name":"order","type":"string","value":"4"},{"name":"role","type":"string","value":"door"}]},{"id":438,"name":"Chestnut Row","type":"","rotation":0,"point":true,"visible":true,"x":1088.0,"y":605.6,"width":0,"height":0,"properties":[{"name":"cap","type":"string","value":"1"},{"name":"facing","type":"string","value":"up"},{"name":"kind","type":"string","value":"spot"},{"name":"order","type":"string","value":"5"},{"name":"role","type":"string","value":"door"}]},{"id":439,"name":"Harrow Mill Ruins","type":"","rotation":0,"point":true,"visible":true,"x":896.0,"y":285.6,"width":0,"height":0,"properties":[{"name":"cap","type":"string","value":"1"},{"name":"facing","type":"string","value":"up"},{"name":"kind","type":"string","value":"spot"},{"name":"order","type":"string","value":"0"},{"name":"role","type":"string","value":"door"}]},{"id":440,"name":"Millbrook Town Hall","type":"","rotation":0,"point":true,"visible":true,"x":608.0,"y":397.6,"width":0,"height":0,"properties":[{"name":"cap","type":"string","value":"1"},{"name":"facing","type":"string","value":"down"},{"name":"kind","type":"string","value":"spot"},{"name":"order","type":"string","value":"9"},{"name":"role","type":"string","value":"porch"}]},{"id":441,"name":"The Wheelhouse Diner","type":"","rotation":0,"point":true,"visible":true,"x":272.0,"y":381.6,"width":0,"height":0,"properties":[{"name":"cap","type":"string","value":"1"},{"name":"facing","type":"string","value":"down"},{"name":"kind","type":"string","value":"spot"},{"name":"order","type":"string","value":"3"},{"name":"role","type":"string","value":"porch"}]},{"id":442,"name":"The Wheelhouse Diner","type":"","rotation":0,"point":true,"visible":true,"x":336.0,"y":381.6,"width":0,"height":0,"properties":[{"name":"cap","type":"string","value":"1"},{"name":"facing","type":"string","value":"down"},{"name":"kind","type":"string","value":"spot"},{"name":"order","type":"string","value":"4"},{"name":"role","type":"string","value":"porch"}]},{"id":443,"name":"Corbin's Hardware","type":"","rotation":0,"point":true,"visible":true,"x":352.0,"y":573.6,"width":0,"height":0,"properties":[{"name":"cap","type":"string","value":"1"},{"name":"facing","type":"string","value":"down"},{"name":"kind","type":"string","value":"spot"},{"name":"order","type":"string","value":"1"},{"name":"role","type":"string","value":"porch"}]},{"id":444,"name":"Corbin's Hardware","type":"","rotation":0,"point":true,"visible":true,"x":416.0,"y":573.6,"width":0,"height":0,"properties":[{"name":"cap","type":"string","value":"1"},{"name":"facing","type":"string","value":"down"},{"name":"kind","type":"string","value":"spot"},{"name":"order","type":"string","value":"2"},{"name":"role","type":"string","value":"porch"}]},{"id":445,"name":"Millbrook Free Library","type":"","rotation":0,"point":true,"visible":true,"x":656.0,"y":605.6,"width":0,"height":0,"properties":[{"name":"cap","type":"string","value":"1"},{"name":"facing","type":"string","value":"down"},{"name":"kind","type":"string","value":"spot"},{"name":"order","type":"string","value":"1"},{"name":"role","type":"string","value":"porch"}]},{"id":446,"name":"Millbrook Free Library","type":"","rotation":0,"point":true,"visible":true,"x":720.0,"y":605.6,"width":0,"height":0,"properties":[{"name":"cap","type":"string","value":"1"},{"name":"facing","type":"string","value":"down"},{"name":"kind","type":"string","value":"spot"},{"name":"order","type":"string","value":"2"},{"name":"role","type":"string","value":"porch"}]},{"id":447,"name":"Chestnut Row","type":"","rotation":0,"point":true,"visible":true,"x":48.0,"y":589.6,"width":0,"height":0,"properties":[{"name":"cap","type":"string","value":"1"},{"name":"facing","type":"string","value":"down"},{"name":"kind","type":"string","value":"spot"},{"name":"order","type":"string","value":"6"},{"name":"role","type":"string","value":"porch"}]},{"id":448,"name":"Chestnut Row","type":"","rotation":0,"point":true,"visible":true,"x":192.0,"y":589.6,"width":0,"height":0,"properties":[{"name":"cap","type":"string","value":"1"},{"name":"facing","type":"string","value":"down"},{"name":"kind","type":"string","value":"spot"},{"name":"order","type":"string","value":"7"},{"name":"role","type":"string","value":"porch"}]},{"id":449,"name":"Chestnut Row","type":"","rotation":0,"point":true,"visible":true,"x":256.0,"y":589.6,"width":0,"height":0,"properties":[{"name":"cap","type":"string","value":"1"},{"name":"facing","type":"string","value":"down"},{"name":"kind","type":"string","value":"spot"},{"name":"order","type":"string","value":"8"},{"name":"role","type":"string","value":"porch"}]},{"id":450,"name":"Chestnut Row","type":"","rotation":0,"point":true,"visible":true,"x":832.0,"y":605.6,"width":0,"height":0,"properties":[{"name":"cap","type":"string","value":"1"},{"name":"facing","type":"string","value":"down"},{"name":"kind","type":"string","value":"spot"},{"name":"order","type":"string","value":"9"},{"name":"role","type":"string","value":"porch"}]},{"id":451,"name":"Chestnut Row","type":"","rotation":0,"point":true,"visible":true,"x":896.0,"y":605.6,"width":0,"height":0,"properties":[{"name":"cap","type":"string","value":"1"},{"name":"facing","type":"string","value":"down"},{"name":"kind","type":"string","value":"spot"},{"name":"order","type":"string","value":"10"},{"name":"role","type":"string","value":"porch"}]},{"id":452,"name":"Chestnut Row","type":"","rotation":0,"point":true,"visible":true,"x":944.0,"y":605.6,"width":0,"height":0,"properties":[{"name":"cap","type":"string","value":"1"},{"name":"facing","type":"string","value":"down"},{"name":"kind","type":"string","value":"spot"},{"name":"order","type":"string","value":"11"},{"name":"role","type":"string","value":"porch"}]},{"id":453,"name":"Chestnut Row","type":"","rotation":0,"point":true,"visible":true,"x":1008.0,"y":605.6,"width":0,"height":0,"properties":[{"name":"cap","type":"string","value":"1"},{"name":"facing","type":"string","value":"down"},{"name":"kind","type":"string","value":"spot"},{"name":"order","type":"string","value":"12"},{"name":"role","type":"string","value":"porch"}]},{"id":454,"name":"Chestnut Row","type":"","rotation":0,"point":true,"visible":true,"x":1056.0,"y":605.6,"width":0,"height":0,"properties":[{"name":"cap","type":"string","value":"1"},{"name":"facing","type":"string","value":"down"},{"name":"kind","type":"string","value":"spot"},{"name":"order","type":"string","value":"13"},{"name":"role","type":"string","value":"porch"}]},{"id":455,"name":"Chestnut Row","type":"","rotation":0,"point":true,"visible":true,"x":1120.0,"y":605.6,"width":0,"height":0,"properties":[{"name":"cap","type":"string","value":"1"},{"name":"facing","type":"string","value":"down"},{"name":"kind","type":"string","value":"spot"},{"name":"order","type":"string","value":"14"},{"name":"role","type":"string","value":"porch"}]},{"id":456,"name":"Harrow Mill Ruins","type":"","rotation":0,"point":true,"visible":true,"x":832.0,"y":285.6,"width":0,"height":0,"properties":[{"name":"cap","type":"string","value":"1"},{"name":"facing","type":"string","value":"down"},{"name":"kind","type":"string","value":"spot"},{"name":"order","type":"string","value":"1"},{"name":"role","type":"string","value":"porch"}]},{"id":457,"name":"Millbrook Town Hall","type":"","rotation":0,"point":true,"visible":true,"x":504.0,"y":461.6,"width":0,"height":0,"properties":[{"name":"cap","type":"string","value":"1"},{"name":"facing","type":"string","value":"face"},{"name":"kind","type":"string","value":"spot"},{"name":"order","type":"string","value":"10"},{"name":"pair","type":"string","value":"Millbrook Town Hall#0"},{"name":"role","type":"string","value":"chat"},{"name":"side","type":"string","value":"a"}]},{"id":458,"name":"Millbrook Town Hall","type":"","rotation":0,"point":true,"visible":true,"x":536.0,"y":461.6,"width":0,"height":0,"properties":[{"name":"cap","type":"string","value":"1"},{"name":"facing","type":"string","value":"face"},{"name":"kind","type":"string","value":"spot"},{"name":"order","type":"string","value":"11"},{"name":"pair","type":"string","value":"Millbrook Town Hall#0"},{"name":"role","type":"string","value":"chat"},{"name":"side","type":"string","value":"b"}]},{"id":459,"name":"The Wheelhouse Diner","type":"","rotation":0,"point":true,"visible":true,"x":280.0,"y":397.6,"width":0,"height":0,"properties":[{"name":"cap","type":"string","value":"1"},{"name":"facing","type":"string","value":"face"},{"name":"kind","type":"string","value":"spot"},{"name":"order","type":"string","value":"5"},{"name":"pair","type":"string","value":"The Wheelhouse Diner#0"},{"name":"role","type":"string","value":"chat"},{"name":"side","type":"string","value":"a"}]},{"id":460,"name":"The Wheelhouse Diner","type":"","rotation":0,"point":true,"visible":true,"x":312.0,"y":397.6,"width":0,"height":0,"properties":[{"name":"cap","type":"string","value":"1"},{"name":"facing","type":"string","value":"face"},{"name":"kind","type":"string","value":"spot"},{"name":"order","type":"string","value":"6"},{"name":"pair","type":"string","value":"The Wheelhouse Diner#0"},{"name":"role","type":"string","value":"chat"},{"name":"side","type":"string","value":"b"}]},{"id":461,"name":"Corbin's Hardware","type":"","rotation":0,"point":true,"visible":true,"x":360.0,"y":589.6,"width":0,"height":0,"properties":[{"name":"cap","type":"string","value":"1"},{"name":"facing","type":"string","value":"face"},{"name":"kind","type":"string","value":"spot"},{"name":"order","type":"string","value":"3"},{"name":"pair","type":"string","value":"Corbin's Hardware#0"},{"name":"role","type":"string","value":"chat"},{"name":"side","type":"string","value":"a"}]},{"id":462,"name":"Corbin's Hardware","type":"","rotation":0,"point":true,"visible":true,"x":392.0,"y":589.6,"width":0,"height":0,"properties":[{"name":"cap","type":"string","value":"1"},{"name":"facing","type":"string","value":"face"},{"name":"kind","type":"string","value":"spot"},{"name":"order","type":"string","value":"4"},{"name":"pair","type":"string","value":"Corbin's Hardware#0"},{"name":"role","type":"string","value":"chat"},{"name":"side","type":"string","value":"b"}]},{"id":463,"name":"Millbrook Free Library","type":"","rotation":0,"point":true,"visible":true,"x":664.0,"y":621.6,"width":0,"height":0,"properties":[{"name":"cap","type":"string","value":"1"},{"name":"facing","type":"string","value":"face"},{"name":"kind","type":"string","value":"spot"},{"name":"order","type":"string","value":"3"},{"name":"pair","type":"string","value":"Millbrook Free Library#0"},{"name":"role","type":"string","value":"chat"},{"name":"side","type":"string","value":"a"}]},{"id":464,"name":"Millbrook Free Library","type":"","rotation":0,"point":true,"visible":true,"x":696.0,"y":621.6,"width":0,"height":0,"properties":[{"name":"cap","type":"string","value":"1"},{"name":"facing","type":"string","value":"face"},{"name":"kind","type":"string","value":"spot"},{"name":"order","type":"string","value":"4"},{"name":"pair","type":"string","value":"Millbrook Free Library#0"},{"name":"role","type":"string","value":"chat"},{"name":"side","type":"string","value":"b"}]},{"id":465,"name":"Chestnut Row","type":"","rotation":0,"point":true,"visible":true,"x":88.0,"y":621.6,"width":0,"height":0,"properties":[{"name":"cap","type":"string","value":"1"},{"name":"facing","type":"string","value":"face"},{"name":"kind","type":"string","value":"spot"},{"name":"order","type":"string","value":"15"},{"name":"pair","type":"string","value":"Chestnut Row#0"},{"name":"role","type":"string","value":"chat"},{"name":"side","type":"string","value":"a"}]},{"id":466,"name":"Chestnut Row","type":"","rotation":0,"point":true,"visible":true,"x":120.0,"y":621.6,"width":0,"height":0,"properties":[{"name":"cap","type":"string","value":"1"},{"name":"facing","type":"string","value":"face"},{"name":"kind","type":"string","value":"spot"},{"name":"order","type":"string","value":"16"},{"name":"pair","type":"string","value":"Chestnut Row#0"},{"name":"role","type":"string","value":"chat"},{"name":"side","type":"string","value":"b"}]},{"id":467,"name":"Chestnut Row","type":"","rotation":0,"point":true,"visible":true,"x":136.0,"y":605.6,"width":0,"height":0,"properties":[{"name":"cap","type":"string","value":"1"},{"name":"facing","type":"string","value":"face"},{"name":"kind","type":"string","value":"spot"},{"name":"order","type":"string","value":"17"},{"name":"pair","type":"string","value":"Chestnut Row#1"},{"name":"role","type":"string","value":"chat"},{"name":"side","type":"string","value":"a"}]},{"id":468,"name":"Chestnut Row","type":"","rotation":0,"point":true,"visible":true,"x":168.0,"y":605.6,"width":0,"height":0,"properties":[{"name":"cap","type":"string","value":"1"},{"name":"facing","type":"string","value":"face"},{"name":"kind","type":"string","value":"spot"},{"name":"order","type":"string","value":"18"},{"name":"pair","type":"string","value":"Chestnut Row#1"},{"name":"role","type":"string","value":"chat"},{"name":"side","type":"string","value":"b"}]},{"id":469,"name":"Chestnut Row","type":"","rotation":0,"point":true,"visible":true,"x":200.0,"y":605.6,"width":0,"height":0,"properties":[{"name":"cap","type":"string","value":"1"},{"name":"facing","type":"string","value":"face"},{"name":"kind","type":"string","value":"spot"},{"name":"order","type":"string","value":"19"},{"name":"pair","type":"string","value":"Chestnut Row#2"},{"name":"role","type":"string","value":"chat"},{"name":"side","type":"string","value":"a"}]},{"id":470,"name":"Chestnut Row","type":"","rotation":0,"point":true,"visible":true,"x":232.0,"y":605.6,"width":0,"height":0,"properties":[{"name":"cap","type":"string","value":"1"},{"name":"facing","type":"string","value":"face"},{"name":"kind","type":"string","value":"spot"},{"name":"order","type":"string","value":"20"},{"name":"pair","type":"string","value":"Chestnut Row#2"},{"name":"role","type":"string","value":"chat"},{"name":"side","type":"string","value":"b"}]},{"id":471,"name":"Chestnut Row","type":"","rotation":0,"point":true,"visible":true,"x":840.0,"y":621.6,"width":0,"height":0,"properties":[{"name":"cap","type":"string","value":"1"},{"name":"facing","type":"string","value":"face"},{"name":"kind","type":"string","value":"spot"},{"name":"order","type":"string","value":"21"},{"name":"pair","type":"string","value":"Chestnut Row#3"},{"name":"role","type":"string","value":"chat"},{"name":"side","type":"string","value":"a"}]},{"id":472,"name":"Chestnut Row","type":"","rotation":0,"point":true,"visible":true,"x":872.0,"y":621.6,"width":0,"height":0,"properties":[{"name":"cap","type":"string","value":"1"},{"name":"facing","type":"string","value":"face"},{"name":"kind","type":"string","value":"spot"},{"name":"order","type":"string","value":"22"},{"name":"pair","type":"string","value":"Chestnut Row#3"},{"name":"role","type":"string","value":"chat"},{"name":"side","type":"string","value":"b"}]},{"id":473,"name":"Chestnut Row","type":"","rotation":0,"point":true,"visible":true,"x":952.0,"y":621.6,"width":0,"height":0,"properties":[{"name":"cap","type":"string","value":"1"},{"name":"facing","type":"string","value":"face"},{"name":"kind","type":"string","value":"spot"},{"name":"order","type":"string","value":"23"},{"name":"pair","type":"string","value":"Chestnut Row#4"},{"name":"role","type":"string","value":"chat"},{"name":"side","type":"string","value":"a"}]},{"id":474,"name":"Chestnut Row","type":"","rotation":0,"point":true,"visible":true,"x":984.0,"y":621.6,"width":0,"height":0,"properties":[{"name":"cap","type":"string","value":"1"},{"name":"facing","type":"string","value":"face"},{"name":"kind","type":"string","value":"spot"},{"name":"order","type":"string","value":"24"},{"name":"pair","type":"string","value":"Chestnut Row#4"},{"name":"role","type":"string","value":"chat"},{"name":"side","type":"string","value":"b"}]},{"id":475,"name":"Chestnut Row","type":"","rotation":0,"point":true,"visible":true,"x":1016.0,"y":621.6,"width":0,"height":0,"properties":[{"name":"cap","type":"string","value":"1"},{"name":"facing","type":"string","value":"face"},{"name":"kind","type":"string","value":"spot"},{"name":"order","type":"string","value":"25"},{"name":"pair","type":"string","value":"Chestnut Row#5"},{"name":"role","type":"string","value":"chat"},{"name":"side","type":"string","value":"a"}]},{"id":476,"name":"Chestnut Row","type":"","rotation":0,"point":true,"visible":true,"x":1048.0,"y":621.6,"width":0,"height":0,"properties":[{"name":"cap","type":"string","value":"1"},{"name":"facing","type":"string","value":"face"},{"name":"kind","type":"string","value":"spot"},{"name":"order","type":"string","value":"26"},{"name":"pair","type":"string","value":"Chestnut Row#5"},{"name":"role","type":"string","value":"chat"},{"name":"side","type":"string","value":"b"}]},{"id":477,"name":"Harrow Mill Ruins","type":"","rotation":0,"point":true,"visible":true,"x":824.0,"y":349.6,"width":0,"height":0,"properties":[{"name":"cap","type":"string","value":"1"},{"name":"facing","type":"string","value":"face"},{"name":"kind","type":"string","value":"spot"},{"name":"order","type":"string","value":"2"},{"name":"pair","type":"string","value":"Harrow Mill Ruins#0"},{"name":"role","type":"string","value":"chat"},{"name":"side","type":"string","value":"a"}]},{"id":478,"name":"Harrow Mill Ruins","type":"","rotation":0,"point":true,"visible":true,"x":856.0,"y":349.6,"width":0,"height":0,"properties":[{"name":"cap","type":"string","value":"1"},{"name":"facing","type":"string","value":"face"},{"name":"kind","type":"string","value":"spot"},{"name":"order","type":"string","value":"3"},{"name":"pair","type":"string","value":"Harrow Mill Ruins#0"},{"name":"role","type":"string","value":"chat"},{"name":"side","type":"string","value":"b"}]},{"id":479,"name":"Stillwater River","type":"","rotation":0,"point":true,"visible":true,"x":552.0,"y":157.6,"width":0,"height":0,"properties":[{"name":"cap","type":"string","value":"1"},{"name":"facing","type":"string","value":"face"},{"name":"kind","type":"string","value":"spot"},{"name":"order","type":"string","value":"2"},{"name":"pair","type":"string","value":"Stillwater River#0"},{"name":"role","type":"string","value":"chat"},{"name":"side","type":"string","value":"a"}]},{"id":480,"name":"Stillwater River","type":"","rotation":0,"point":true,"visible":true,"x":584.0,"y":157.6,"width":0,"height":0,"properties":[{"name":"cap","type":"string","value":"1"},{"name":"facing","type":"string","value":"face"},{"name":"kind","type":"string","value":"spot"},{"name":"order","type":"string","value":"3"},{"name":"pair","type":"string","value":"Stillwater River#0"},{"name":"role","type":"string","value":"chat"},{"name":"side","type":"string","value":"b"}]},{"id":481,"name":"Main Street Bridge","type":"","rotation":0,"point":true,"visible":true,"x":616.0,"y":157.6,"width":0,"height":0,"properties":[{"name":"cap","type":"string","value":"1"},{"name":"facing","type":"string","value":"face"},{"name":"kind","type":"string","value":"spot"},{"name":"order","type":"string","value":"0"},{"name":"pair","type":"string","value":"Main Street Bridge#0"},{"name":"role","type":"string","value":"chat"},{"name":"side","type":"string","value":"a"}]},{"id":482,"name":"Main Street Bridge","type":"","rotation":0,"point":true,"visible":true,"x":648.0,"y":157.6,"width":0,"height":0,"properties":[{"name":"cap","type":"string","value":"1"},{"name":"facing","type":"string","value":"face"},{"name":"kind","type":"string","value":"spot"},{"name":"order","type":"string","value":"1"},{"name":"pair","type":"string","value":"Main Street Bridge#0"},{"name":"role","type":"string","value":"chat"},{"name":"side","type":"string","value":"b"}]},{"id":483,"name":"Millbrook Farmers Market","type":"","rotation":0,"point":true,"visible":true,"x":184.0,"y":189.6,"width":0,"height":0,"properties":[{"name":"cap","type":"string","value":"1"},{"name":"facing","type":"string","value":"face"},{"name":"kind","type":"string","value":"spot"},{"name":"order","type":"string","value":"2"},{"name":"pair","type":"string","value":"Millbrook Farmers Market#0"},{"name":"role","type":"string","value":"chat"},{"name":"side","type":"string","value":"a"}]},{"id":484,"name":"Millbrook Farmers Market","type":"","rotation":0,"point":true,"visible":true,"x":216.0,"y":189.6,"width":0,"height":0,"properties":[{"name":"cap","type":"string","value":"1"},{"name":"facing","type":"string","value":"face"},{"name":"kind","type":"string","value":"spot"},{"name":"order","type":"string","value":"3"},{"name":"pair","type":"string","value":"Millbrook Farmers Market#0"},{"name":"role","type":"string","value":"chat"},{"name":"side","type":"string","value":"b"}]},{"id":485,"name":"Main Street","type":"","rotation":0,"point":true,"visible":true,"x":328.0,"y":461.6,"width":0,"height":0,"properties":[{"name":"cap","type":"string","value":"1"},{"name":"facing","type":"string","value":"face"},{"name":"kind","type":"string","value":"spot"},{"name":"order","type":"string","value":"0"},{"name":"pair","type":"string","value":"Main Street#0"},{"name":"role","type":"string","value":"chat"},{"name":"side","type":"string","value":"a"}]},{"id":486,"name":"Main Street","type":"","rotation":0,"point":true,"visible":true,"x":360.0,"y":461.6,"width":0,"height":0,"properties":[{"name":"cap","type":"string","value":"1"},{"name":"facing","type":"string","value":"face"},{"name":"kind","type":"string","value":"spot"},{"name":"order","type":"string","value":"1"},{"name":"pair","type":"string","value":"Main Street#0"},{"name":"role","type":"string","value":"chat"},{"name":"side","type":"string","value":"b"}]},{"id":487,"name":"Main Street","type":"","rotation":0,"point":true,"visible":true,"x":600.0,"y":461.6,"width":0,"height":0,"properties":[{"name":"cap","type":"string","value":"1"},{"name":"facing","type":"string","value":"face"},{"name":"kind","type":"string","value":"spot"},{"name":"order","type":"string","value":"2"},{"name":"pair","type":"string","value":"Main Street#1"},{"name":"role","type":"string","value":"chat"},{"name":"side","type":"string","value":"a"}]},{"id":488,"name":"Main Street","type":"","rotation":0,"point":true,"visible":true,"x":632.0,"y":461.6,"width":0,"height":0,"properties":[{"name":"cap","type":"string","value":"1"},{"name":"facing","type":"string","value":"face"},{"name":"kind","type":"string","value":"spot"},{"name":"order","type":"string","value":"3"},{"name":"pair","type":"string","value":"Main Street#1"},{"name":"role","type":"string","value":"chat"},{"name":"side","type":"string","value":"b"}]},{"id":489,"name":"Main Street","type":"","rotation":0,"point":true,"visible":true,"x":808.0,"y":461.6,"width":0,"height":0,"properties":[{"name":"cap","type":"string","value":"1"},{"name":"facing","type":"string","value":"face"},{"name":"kind","type":"string","value":"spot"},{"name":"order","type":"string","value":"4"},{"name":"pair","type":"string","value":"Main Street#2"},{"name":"role","type":"string","value":"chat"},{"name":"side","type":"string","value":"a"}]},{"id":490,"name":"Main Street","type":"","rotation":0,"point":true,"visible":true,"x":840.0,"y":461.6,"width":0,"height":0,"properties":[{"name":"cap","type":"string","value":"1"},{"name":"facing","type":"string","value":"face"},{"name":"kind","type":"string","value":"spot"},{"name":"order","type":"string","value":"5"},{"name":"pair","type":"string","value":"Main Street#2"},{"name":"role","type":"string","value":"chat"},{"name":"side","type":"string","value":"b"}]},{"id":491,"name":"Millbrook Farmers Market","type":"","rotation":0,"point":true,"visible":true,"x":248.0,"y":189.6,"width":0,"height":0,"properties":[{"name":"cap","type":"string","value":"1"},{"name":"facing","type":"string","value":"down"},{"name":"kind","type":"string","value":"spot"},{"name":"order","type":"string","value":"4"},{"name":"role","type":"string","value":"lawn"}]},{"id":492,"name":"Millbrook Farmers Market","type":"","rotation":0,"point":true,"visible":true,"x":296.0,"y":189.6,"width":0,"height":0,"properties":[{"name":"cap","type":"string","value":"1"},{"name":"facing","type":"string","value":"down"},{"name":"kind","type":"string","value":"spot"},{"name":"order","type":"string","value":"5"},{"name":"role","type":"string","value":"lawn"}]},{"id":493,"name":"Millbrook Farmers Market","type":"","rotation":0,"point":true,"visible":true,"x":216.0,"y":253.6,"width":0,"height":0,"properties":[{"name":"cap","type":"string","value":"1"},{"name":"facing","type":"string","value":"down"},{"name":"kind","type":"string","value":"spot"},{"name":"order","type":"string","value":"6"},{"name":"role","type":"string","value":"lawn"}]},{"id":494,"name":"Millbrook Farmers Market","type":"","rotation":0,"point":true,"visible":true,"x":328.0,"y":205.6,"width":0,"height":0,"properties":[{"name":"cap","type":"string","value":"1"},{"name":"facing","type":"string","value":"down"},{"name":"kind","type":"string","value":"spot"},{"name":"order","type":"string","value":"7"},{"name":"role","type":"string","value":"lawn"}]},{"id":495,"name":"Millbrook Farmers Market","type":"","rotation":0,"point":true,"visible":true,"x":184.0,"y":269.6,"width":0,"height":0,"properties":[{"name":"cap","type":"string","value":"1"},{"name":"facing","type":"string","value":"down"},{"name":"kind","type":"string","value":"spot"},{"name":"order","type":"string","value":"8"},{"name":"role","type":"string","value":"lawn"}]},{"id":496,"name":"Millbrook Town Hall","type":"","rotation":0,"point":true,"visible":true,"x":600.0,"y":397.6,"width":0,"height":0,"properties":[{"name":"cap","type":"string","value":"1"},{"name":"facing","type":"string","value":"up"},{"name":"kind","type":"string","value":"spot"},{"name":"order","type":"string","value":"0"},{"name":"role","type":"string","value":"queue"}]},{"id":497,"name":"Millbrook Town Hall","type":"","rotation":0,"point":true,"visible":true,"x":648.0,"y":397.6,"width":0,"height":0,"properties":[{"name":"cap","type":"string","value":"1"},{"name":"facing","type":"string","value":"up"},{"name":"kind","type":"string","value":"spot"},{"name":"order","type":"string","value":"1"},{"name":"role","type":"string","value":"queue"}]},{"id":498,"name":"Millbrook Town Hall","type":"","rotation":0,"point":true,"visible":true,"x":680.0,"y":397.6,"width":0,"height":0,"properties":[{"name":"cap","type":"string","value":"1"},{"name":"facing","type":"string","value":"up"},{"name":"kind","type":"string","value":"spot"},{"name":"order","type":"string","value":"2"},{"name":"role","type":"string","value":"queue"}]},{"id":499,"name":"Millbrook Town Hall","type":"","rotation":0,"point":true,"visible":true,"x":728.0,"y":397.6,"width":0,"height":0,"properties":[{"name":"cap","type":"string","value":"1"},{"name":"facing","type":"string","value":"up"},{"name":"kind","type":"string","value":"spot"},{"name":"order","type":"string","value":"3"},{"name":"role","type":"string","value":"queue"}]},{"id":500,"name":"Millbrook Town Hall","type":"","rotation":0,"point":true,"visible":true,"x":760.0,"y":397.6,"width":0,"height":0,"properties":[{"name":"cap","type":"string","value":"1"},{"name":"facing","type":"string","value":"up"},{"name":"kind","type":"string","value":"spot"},{"name":"order","type":"string","value":"4"},{"name":"role","type":"string","value":"queue"}]}]},{"id":8,"name":"traffic","type":"objectgroup","visible":false,"opacity":1,"x":0,"y":0,"draworder":"topdown","objects":[{"id":501,"name":"h25","type":"","rotation":0,"visible":true,"x":0,"y":440.0,"width":0,"height":0,"polyline":[{"x":0,"y":0},{"x":1200,"y":0.0}],"properties":[{"name":"kind","type":"string","value":"lane"},{"name":"dir","type":"string","value":"e"},{"name":"road","type":"string","value":"h25"},{"name":"through","type":"string","value":"1"}]},{"id":502,"name":"","type":"","rotation":0,"point":true,"visible":true,"x":366,"y":440.0,"width":0,"height":0,"properties":[{"name":"kind","type":"string","value":"stopline"},{"name":"axis","type":"string","value":"h"},{"name":"dir","type":"string","value":"e"},{"name":"signal","type":"string","value":"0"}]},{"id":503,"name":"h25","type":"","rotation":0,"visible":true,"x":1200,"y":408.0,"width":0,"height":0,"polyline":[{"x":0,"y":0},{"x":-1200,"y":0.0}],"properties":[{"name":"kind","type":"string","value":"lane"},{"name":"dir","type":"string","value":"w"},{"name":"road","type":"string","value":"h25"},{"name":"through","type":"string","value":"1"}]},{"id":504,"name":"","type":"","rotation":0,"point":true,"visible":true,"x":450,"y":408.0,"width":0,"height":0,"properties":[{"name":"kind","type":"string","value":"stopline"},{"name":"axis","type":"string","value":"h"},{"name":"dir","type":"string","value":"w"},{"name":"signal","type":"string","value":"0"}]},{"id":505,"name":"v34","type":"","rotation":0,"visible":true,"x":552.0,"y":0,"width":0,"height":0,"polyline":[{"x":0,"y":0},{"x":0.0,"y":48}],"properties":[{"name":"kind","type":"string","value":"lane"},{"name":"dir","type":"string","value":"s"},{"name":"road","type":"string","value":"v34"},{"name":"through","type":"string","value":"0"}]},{"id":506,"name":"v34","type":"","rotation":0,"visible":true,"x":584.0,"y":48,"width":0,"height":0,"polyline":[{"x":0,"y":0},{"x":0.0,"y":-48}],"properties":[{"name":"kind","type":"string","value":"lane"},{"name":"dir","type":"string","value":"n"},{"name":"road","type":"string","value":"v34"},{"name":"through","type":"string","value":"0"}]},{"id":507,"name":"v34","type":"","rotation":0,"visible":true,"x":552.0,"y":160,"width":0,"height":0,"polyline":[{"x":0,"y":0},{"x":0.0,"y":80}],"properties":[{"name":"kind","type":"string","value":"lane"},{"name":"dir","type":"string","value":"s"},{"name":"road","type":"string","value":"v34"},{"name":"through","type":"string","value":"0"}]},{"id":508,"name":"v34","type":"","rotation":0,"visible":true,"x":584.0,"y":240,"width":0,"height":0,"polyline":[{"x":0,"y":0},{"x":0.0,"y":-80}],"properties":[{"name":"kind","type":"string","value":"lane"},{"name":"dir","type":"string","value":"n"},{"name":"road","type":"string","value":"v34"},{"name":"through","type":"string","value":"0"}]},{"id":509,"name":"h12","type":"","rotation":0,"visible":true,"x":384,"y":232.0,"width":0,"height":0,"polyline":[{"x":0,"y":0},{"x":208,"y":0.0}],"properties":[{"name":"kind","type":"string","value":"lane"},{"name":"dir","type":"string","value":"e"},{"name":"road","type":"string","value":"h12"},{"name":"through","type":"string","value":"0"}]},{"id":510,"name":"h12","type":"","rotation":0,"visible":true,"x":592,"y":200.0,"width":0,"height":0,"polyline":[{"x":0,"y":0},{"x":-208,"y":0.0}],"properties":[{"name":"kind","type":"string","value":"lane"},{"name":"dir","type":"string","value":"w"},{"name":"road","type":"string","value":"h12"},{"name":"through","type":"string","value":"0"}]},{"id":511,"name":"v24","type":"","rotation":0,"visible":true,"x":392.0,"y":192,"width":0,"height":0,"polyline":[{"x":0,"y":0},{"x":0.0,"y":256}],"properties":[{"name":"kind","type":"string","value":"lane"},{"name":"dir","type":"string","value":"s"},{"name":"road","type":"string","value":"v24"},{"name":"through","type":"string","value":"0"}]},{"id":512,"name":"","type":"","rotation":0,"point":true,"visible":true,"x":392.0,"y":382,"width":0,"height":0,"properties":[{"name":"kind","type":"string","value":"stopline"},{"name":"axis","type":"string","value":"v"},{"name":"dir","type":"string","value":"s"},{"name":"signal","type":"string","value":"0"}]},{"id":513,"name":"v24","type":"","rotation":0,"visible":true,"x":424.0,"y":448,"width":0,"height":0,"polyline":[{"x":0,"y":0},{"x":0.0,"y":-256}],"properties":[{"name":"kind","type":"string","value":"lane"},{"name":"dir","type":"string","value":"n"},{"name":"road","type":"string","value":"v24"},{"name":"through","type":"string","value":"0"}]}]}]}